; generated by PrusaSlicer 2.9.0 on 2025-02-20 at 23:22:56 UTC


;
;

;
;

;
;

;
;

;
;
; 

; external perimeters extrusion width = 0.45mm
; perimeters extrusion width = 0.45mm
; infill extrusion width = 0.45mm
; solid infill extrusion width = 0.45mm
; top infill extrusion width = 0.42mm
; first layer extrusion width = 0.50mm

; external perimeters extrusion width = 0.45mm
; perimeters extrusion width = 0.45mm
; infill extrusion width = 0.45mm
; solid infill extrusion width = 0.45mm
; top infill extrusion width = 0.42mm
; first layer extrusion width = 0.50mm

; external perimeters extrusion width = 0.45mm
; perimeters extrusion width = 0.45mm
; infill extrusion width = 0.45mm
; solid infill extrusion width = 0.45mm
; top infill extrusion width = 0.42mm
; first layer extrusion width = 0.50mm

; external perimeters extrusion width = 0.45mm
; perimeters extrusion width = 0.45mm
; infill extrusion width = 0.45mm
; solid infill extrusion width = 0.45mm
; top infill extrusion width = 0.42mm
; first layer extrusion width = 0.50mm

; external perimeters extrusion width = 0.45mm
; perimeters extrusion width = 0.45mm
; infill extrusion width = 0.45mm
; solid infill extrusion width = 0.45mm
; top infill extrusion width = 0.42mm
; first layer extrusion width = 0.50mm

; external perimeters extrusion width = 0.45mm
; perimeters extrusion width = 0.45mm
; infill extrusion width = 0.45mm
; solid infill extrusion width = 0.45mm
; top infill extrusion width = 0.42mm
; first layer extrusion width = 0.50mm

; external perimeters extrusion width = 0.45mm
; perimeters extrusion width = 0.45mm
; infill extrusion width = 0.45mm
; solid infill extrusion width = 0.45mm
; top infill extrusion width = 0.42mm
; first layer extrusion width = 0.50mm

; external perimeters extrusion width = 0.45mm
; perimeters extrusion width = 0.45mm
; infill extrusion width = 0.45mm
; solid infill extrusion width = 0.45mm
; top infill extrusion width = 0.42mm
; first layer extrusion width = 0.50mm

; external perimeters extrusion width = 0.45mm
; perimeters extrusion width = 0.45mm
; infill extrusion width = 0.45mm
; solid infill extrusion width = 0.45mm
; top infill extrusion width = 0.42mm
; first layer extrusion width = 0.50mm

; external perimeters extrusion width = 0.45mm
; perimeters extrusion width = 0.45mm
; infill extrusion width = 0.45mm
; solid infill extrusion width = 0.45mm
; top infill extrusion width = 0.42mm
; first layer extrusion width = 0.50mm

M73 P0 R33
M73 C29
M73 Q0 S37
M73 D32
M201 X4000 Y4000 Z200 E2500 ; sets maximum accelerations, mm/sec^2
M203 X300 Y300 Z40 E100 ; sets maximum feedrates, mm / sec
M204 P4000 R1200 T4000 ; sets acceleration (P, T) and retract acceleration (R), mm/sec^2
M205 X8.00 Y8.00 Z2.00 E10.00 ; sets the jerk limits, mm/sec
M205 S0 T0 ; sets the minimum extruding and travel feed rate, mm/sec

M486 S0
M486 AShape-Box
M486 S-1
M486 S1
M486 AACLibrary_Bookmark.stl
M486 S-1
M486 S2
M486 AACLibrary_Bookmark.stl
M486 S-1
M486 S3
M486 AACLibrary_Bookmark.stl
M486 S-1
M486 S4
M486 AACLibrary_Bookmark.stl
M486 S-1
M486 S5
M486 AACLibrary_Bookmark.stl
M486 S-1
M486 S6
M486 AACLibrary_Bookmark.stl
M486 S-1
M486 S7
M486 AACLibrary_Bookmark.stl
M486 S-1
M486 S8
M486 AACLibrary_Bookmark.stl
M486 S-1
M486 S9
M486 AACLibrary_Bookmark.stl
M486 S-1

;TYPE:Custom
M17 ; enable steppers
M862.1 P0.4 A0 F1 ; nozzle check
M862.3 P "MK4S" ; printer model check
M862.5 P2 ; g-code level check
M862.6 P"Input shaper" ; FW feature check
M115 U6.1.3+7898

M555 X59 Y-2 W189 H186.765

G90 ; use absolute coordinates
M83 ; extruder relative mode

M140 S60 ; set bed temp
M104 T0 S170 ; set extruder temp for bed leveling
M109 T0 R170 ; wait for temp

M84 E ; turn off E motor

G28 ; home all without mesh bed level

G1 X42 Y-4 Z5 F4800

M302 S160 ; lower cold extrusion limit to 160C


G1 E-2 F2400 ; retraction


M84 E ; turn off E motor

G29 P9 X10 Y-4 W32 H4

M106 S100

G0 Z40 F10000

M190 S60 ; wait for bed temp

M107

;
; MBL
;
M84 E ; turn off E motor
G29 P1 ; invalidate mbl & probe print area
G29 P1 X0 Y0 W50 H20 C ; probe near purge place
G29 P3.2 ; interpolate mbl probes
G29 P3.13 ; extrapolate mbl outside probe area
G29 A ; activate mbl

; prepare for purge
M104 S230
G0 X0 Y-4 Z15 F4800 ; move away and ready for the purge
M109 S230

G92 E0
M569 S0 E ; set spreadcycle mode for extruder

;
; Extrude purge line
;
G92 E0 ; reset extruder position
G1 E2 F2400 ; deretraction after the initial one before nozzle cleaning
G0 E7 X15 Z0.2 F500 ; purge
G0 X25 E4 F500 ; purge
G0 X35 E4 F650 ; purge
G0 X45 E4 F800 ; purge
G0 X48 Z0.05 F8000 ; wipe, move close to the bed
G0 X51 Z0.2 F8000 ; wipe, move quickly away from the bed

G92 E0
M221 S100 ; set flow to 100%
G21 ; set units to millimeters
G90 ; use absolute coordinates
M83 ; use relative distances for extrusion
M572 S0.036 ; Filament gcode

M142 S36 ; set heatbreak target temp
M107
;LAYER_CHANGE
;Z:0.2
;HEIGHT:0.2
G1 E-.7 F2100
G1 Z.8 F720
M486 S0
G1 X245.044 Y2.912 F18000
G1 Z.2 F720
G1 E.7 F1500
M204 P500
;TYPE:Perimeter
;WIDTH:0.499999
G1 F2400
G1 X245.473 Y2.965 E.01643
G1 X246.019 Y3.187 E.0224
G3 X246.629 Y3.71 I-1.278 J2.106 E.03068
G3 X247.074 Y4.835 I-1.75 J1.342 E.04658
G3 X246.603 Y6.322 I-2.138 J.141 E.06068
G3 X245.966 Y6.842 I-1.853 J-1.618 E.0314
G3 X245.199 Y7.068 I-1.065 J-2.201 E.03053
G3 X244.381 Y6.983 I-.167 J-2.381 E.03141
G1 X243.971 Y6.808 E.01694
G1 X243.499 Y6.454 E.02242
G3 X243.049 Y5.749 I1.891 J-1.704 E.03193
G3 X242.911 Y4.967 I2.383 J-.825 E.03031
G3 X243.091 Y4.15 I2.541 J.132 E.03194
G3 X244.598 Y2.95 I1.943 J.893 E.07595
G1 X244.985 Y2.916 E.01477
M204 P3000
M204 T4000
G1 X244.985 Y2.916 F18000
G1 X245.048 Y2.452
M204 P500
;TYPE:External perimeter
G1 F2400
M73 Q0 S36
G1 X245.574 Y2.517 E.02014
G1 X246.037 Y2.671 E.01854
G1 X246.462 Y2.912 E.01857
G1 X246.835 Y3.232 E.01868
G3 X247.273 Y3.873 I-3.879 J3.117 E.02954
G1 X247.443 Y4.317 E.01807
G1 X247.529 Y4.799 E.01861
G1 X247.549 Y5.044 E.00934
G1 X247.493 Y5.53 E.01859
G1 X247.346 Y5.996 E.01857
G1 X247.114 Y6.424 E.0185
G1 X246.77 Y6.834 E.02034
G1 X246.388 Y7.138 E.01855
G1 X245.955 Y7.363 E.01855
G1 X245.487 Y7.502 E.01855
G1 X244.954 Y7.548 E.02033
G1 X244.471 Y7.493 E.01848
G1 X243.962 Y7.328 E.02034
G1 X243.538 Y7.088 E.01852
G1 X243.167 Y6.771 E.01855
G1 X242.838 Y6.35 E.02031
G1 X242.62 Y5.913 E.01856
G1 X242.49 Y5.443 E.01853
G1 X242.452 Y4.957 E.01853
G1 X242.517 Y4.426 E.02033
G1 X242.671 Y3.963 E.01854
G1 X242.912 Y3.538 E.01857
G1 X243.229 Y3.166 E.01858
G1 X243.612 Y2.862 E.01858
G1 X244.045 Y2.637 E.01855
G1 X244.513 Y2.498 E.01855
G1 X244.989 Y2.457 E.01816
M204 P3000
G1 X245.387 Y2.495 F18000
G1 E-.7 F2100
G1 X234.023 Y26.456 Z.663 F18000
G1 X232.34 Y30.005 Z.723
G1 X230.657 Y33.554 Z.766
G1 X227.292 Y40.651 Z.8
M486 S-1
M486 S6
G1 X165.887 Y170.13
G1 Z.2 F720
G1 E.7 F1500
M204 P500
;WIDTH:0.53523
G1 F2400
G1 X165.858 Y170.171 E.00206
;WIDTH:0.499999
G1 X165.723 Y170.215 E.0054
G1 X163.279 Y170.215 E.09289
G1 X163.127 Y170.157 E.00618
G1 X163.051 Y170.006 E.00642
G1 X163.05 Y148.713 E.80927
G1 X162.894 Y147.917 E.03083
G1 X162.625 Y147.228 E.02811
G1 X162.235 Y146.61 E.02777
G1 X161.742 Y146.087 E.02732
G1 X161.163 Y145.677 E.02696
G1 X160.523 Y145.396 E.02657
G1 X159.845 Y145.254 E.02633
G1 X159.155 Y145.254 E.02622
G1 X158.477 Y145.396 E.02633
G1 X157.837 Y145.677 E.02657
G1 X157.258 Y146.087 E.02696
G1 X156.765 Y146.61 E.02732
G1 X156.375 Y147.228 E.02777
G1 X156.105 Y147.919 E.0282
G1 X155.95 Y148.686 E.02974
G1 X155.95 Y169.986 E.80953
G3 X155.833 Y170.186 I-.299 J-.041 E.00904
G1 X155.721 Y170.215 E.0044
G1 X153.276 Y170.215 E.09293
G1 X153.14 Y170.17 E.00544
;WIDTH:0.53498
G1 X153.076 Y170.078 E.00459
;WIDTH:0.56996
G1 X153.012 Y169.986 E.00491
G1 X153.012 Y142.248 E1.21558
G1 X153.066 Y142.165 E.00434
;WIDTH:0.53498
G1 X153.12 Y142.081 E.00409
;WIDTH:0.499999
G1 X153.189 Y142.054 E.00282
G1 X153.325 Y141.56 E.01947
G3 X155.415 Y138.715 I5.65 J1.96 E.1362
G3 X163.673 Y138.788 I4.08 J5.614 E.33616
G1 X164.437 Y139.483 E.03925
G1 X164.846 Y139.974 E.02429
G3 X165.803 Y142.05 I-4.466 J3.316 E.0875
G1 X165.877 Y142.079 E.00302
;WIDTH:0.53523
G1 X165.932 Y142.164 E.00414
;WIDTH:0.57046
G1 X165.987 Y142.248 E.0044
G1 X165.987 Y169.986 E1.21673
G1 X165.922 Y170.079 E.00498
;WIDTH:0.53523
G1 X165.921 Y170.08 E.00006
M204 P3000
G1 X165.541 Y170.206 F18000
G1 E-.7 F2100
G1 X152.689 Y170.43 Z.424 F18000
G1 Z.2 F720
G1 E.7 F1500
M204 P500
;TYPE:Perimeter
;WIDTH:0.499999
G1 F2400
G1 X152.749 Y170.324 E.00463
G1 X152.869 Y170.539 E.00936
G2 X153.276 Y170.672 I.455 J-.699 E.01646
G1 X155.721 Y170.672 E.09293
G1 X155.927 Y170.64 E.00792
G1 X156.177 Y170.498 E.01093
G1 X156.347 Y170.267 E.0109
G1 X156.407 Y169.986 E.01092
G1 X156.407 Y148.732 E.80779
G1 X156.545 Y148.048 E.02652
G1 X156.785 Y147.435 E.02502
G1 X157.128 Y146.892 E.02441
G1 X157.56 Y146.434 E.02393
G1 X158.063 Y146.077 E.02344
G1 X158.617 Y145.834 E.02299
G1 X159.203 Y145.711 E.02276
G1 X159.797 Y145.711 E.02258
G1 X160.383 Y145.834 E.02276
G1 X160.937 Y146.077 E.02299
G1 X161.44 Y146.434 E.02344
G1 X161.872 Y146.892 E.02393
G1 X162.215 Y147.435 E.02441
G1 X162.453 Y148.043 E.02482
G1 X162.593 Y148.79 E.02888
G1 X162.593 Y169.986 E.80558
G1 X162.653 Y170.267 E.01092
G1 X162.768 Y170.444 E.00802
G1 X163.006 Y170.615 E.01114
G1 X163.279 Y170.672 E.0106
G1 X165.806 Y170.667 E.09604
G1 X166.126 Y170.541 E.01307
G1 X166.251 Y170.321 E.00962
G1 X166.376 Y170.541 E.00962
G2 X166.779 Y170.672 I.45 J-.701 E.01628
G1 X190.093 Y170.672 E.88608
G1 X190.093 Y177.265 E.25058
G1 X190.093 Y183.858 E.25058
G1 X151.907 Y183.858 E1.45131
G1 X151.907 Y170.672 E.50115
G1 X152.458 Y170.63 E.021
G1 X152.628 Y170.539 E.00733
G1 X152.659 Y170.482 E.00247
M204 P3000
G1 E-.7 F2100
G1 X152.659 Y170.482 F18000
G1 X152.885 Y143.964 Z.663
G1 X152.907 Y141.37 Z.704
G1 Z.2 F720
G1 E.7 F1500
M204 P500
;WIDTH:0.534104
G1 F2400
G1 X152.961 Y141.189 E.00771
;WIDTH:0.567761
G1 X153.014 Y141.008 E.00823
;WIDTH:0.601418
G1 X153.067 Y140.827 E.00876
;WIDTH:0.617634
G1 X153.093 Y140.753 E.00375
M204 P3000
G1 E-.7 F2100
G1 X153.093 Y140.753 F18000
G1 X165.907 Y140.753 Z.424
G1 Z.2 F720
G1 E.7 F1500
M204 P500
;WIDTH:0.617632
G1 F2400
G1 X165.843 Y140.681 E.0046
;WIDTH:0.568787
G1 X165.778 Y140.61 E.00421
;WIDTH:0.519942
G1 X165.713 Y140.538 E.00385
;WIDTH:0.471096
G1 X165.648 Y140.467 E.00343
;WIDTH:0.422251
G1 X165.583 Y140.395 E.00306
;WIDTH:0.381856
G1 X165.507 Y140.248 E.00466
;WIDTH:0.409193
G1 X165.285 Y139.908 E.01237
;WIDTH:0.436529
G1 X165.062 Y139.567 E.01334
;WIDTH:0.455095
G1 X164.744 Y139.175 E.0173
;WIDTH:0.468505
G1 X164.341 Y138.766 E.02032
;WIDTH:0.479817
G1 X163.957 Y138.442 E.01825
;WIDTH:0.485778
G1 X163.508 Y138.121 E.02032
;WIDTH:0.488082
G2 X162.497 Y137.57 I-4.537 J7.136 E.04265
;WIDTH:0.487085
G1 X161.941 Y137.351 E.02207
;WIDTH:0.485298
G1 X161.359 Y137.176 E.02236
;WIDTH:0.482539
G1 X160.755 Y137.048 E.02257
;WIDTH:0.479829
G1 X160.136 Y136.969 E.02267
;WIDTH:0.477389
G1 X159.47 Y136.943 E.02408
;WIDTH:0.476295
G1 X158.803 Y136.975 E.02406
;WIDTH:0.477327
G1 X158.141 Y137.066 E.02414
;WIDTH:0.479619
G1 X157.55 Y137.198 E.02199
;WIDTH:0.485291
G1 X157.059 Y137.351 E.01892
;WIDTH:0.487086
G1 X156.503 Y137.57 E.02207
;WIDTH:0.488083
G2 X155.492 Y138.121 I3.526 J7.687 E.04265
;WIDTH:0.485779
G1 X155.043 Y138.442 E.02032
;WIDTH:0.479818
G1 X154.634 Y138.789 E.01949
;WIDTH:0.469076
G1 X154.186 Y139.255 E.02291
;WIDTH:0.447422
G1 X153.794 Y139.763 E.02158
;WIDTH:0.417306
G1 X153.462 Y140.305 E.01979
;WIDTH:0.42501
G1 X153.388 Y140.395 E.0037
;WIDTH:0.473166
G1 X153.314 Y140.484 E.00414
;WIDTH:0.521322
G1 X153.24 Y140.574 E.00463
;WIDTH:0.569478
G1 X153.166 Y140.663 E.00507
;WIDTH:0.617634
G1 X153.093 Y140.753 E.00554
G1 X153.098 Y140.652 E.00483
;WIDTH:0.568789
G1 X153.103 Y140.552 E.00438
;WIDTH:0.519944
G1 X153.109 Y140.452 E.00397
;WIDTH:0.471098
G1 X153.114 Y140.352 E.00356
;WIDTH:0.422253
G1 X153.119 Y140.252 E.00316
;WIDTH:0.409517
G1 X153.346 Y139.782 E.01591
;WIDTH:0.436532
G1 X153.627 Y139.326 E.01753
;WIDTH:0.455102
G1 X153.958 Y138.891 E.01873
;WIDTH:0.46851
G1 X154.374 Y138.45 E.02145
;WIDTH:0.479818
G1 X154.774 Y138.098 E.01936
;WIDTH:0.485779
G1 X155.253 Y137.747 E.02187
;WIDTH:0.488083
G3 X156.335 Y137.159 I4.571 J7.118 E.04562
;WIDTH:0.487086
G1 X156.929 Y136.929 E.02353
;WIDTH:0.485291
G1 X157.549 Y136.747 E.02377
;WIDTH:0.48254
G1 X158.19 Y136.615 E.02392
;WIDTH:0.479837
G1 X158.846 Y136.535 E.02401
;WIDTH:0.47739
G1 X159.548 Y136.51 E.02538
;WIDTH:0.476294
G1 X160.252 Y136.545 E.0254
;WIDTH:0.477326
G1 X160.95 Y136.641 E.02545
;WIDTH:0.479622
G1 X161.559 Y136.776 E.02265
;WIDTH:0.485298
G1 X162.089 Y136.935 E.02035
;WIDTH:0.487085
G1 X162.682 Y137.167 E.02352
;WIDTH:0.488082
G3 X163.763 Y137.759 I-3.501 J7.68 E.04566
;WIDTH:0.485778
G1 X164.242 Y138.111 E.02189
;WIDTH:0.479817
G1 X164.675 Y138.495 E.02102
;WIDTH:0.469069
G1 X165.081 Y138.939 E.02132
;WIDTH:0.451989
G1 X165.385 Y139.344 E.01722
;WIDTH:0.436529
G1 X165.663 Y139.8 E.01748
;WIDTH:0.40952
G1 X165.881 Y140.252 E.0153
;WIDTH:0.422251
G1 X165.886 Y140.352 E.00316
;WIDTH:0.471096
G1 X165.891 Y140.452 E.00356
;WIDTH:0.519942
G1 X165.897 Y140.552 E.00397
;WIDTH:0.568787
G1 X165.902 Y140.652 E.00438
;WIDTH:0.617632
G1 X165.904 Y140.693 E.00196
M204 P3000
G1 X165.904 Y140.693 F18000
G1 X165.907 Y140.753
M204 P500
G1 F2400
G1 X165.957 Y140.921 E.00838
;WIDTH:0.582968
G1 X166.006 Y141.089 E.00786
;WIDTH:0.548303
G1 X166.055 Y141.257 E.00735
;WIDTH:0.513638
G1 X166.093 Y141.37 E.00467
M204 P3000
G1 E-.7 F2100
G1 X166.093 Y141.37 F18000
G1 X154.683 Y165.309 Z.663
G1 X152.993 Y168.854 Z.723
M73 P1 R33
G1 X152.385 Y170.13 Z.74
G1 Z.2 F720
G1 E.7 F1500
M204 P500
;TYPE:External perimeter
;WIDTH:0.53498
G1 F2400
G1 X152.421 Y170.078 E.00259
;WIDTH:0.56996
G1 X152.485 Y169.986 E.00491
G1 X152.485 Y142.248 E1.21558
G1 X152.467 Y141.809 E.01925
M73 Q1 S36
;WIDTH:0.53498
G1 X152.45 Y141.37 E.01798
;WIDTH:0.499999
G1 X152.489 Y141.174 E.0076
G3 X153.263 Y139.102 I5.031 J.701 E.08474
G3 X154.993 Y137.379 I5.282 J3.573 E.09337
G3 X158.801 Y136.091 I4.43 J6.821 E.15438
G3 X163.451 Y137.041 I.698 J8.434 E.18283
G3 X165.387 Y138.624 I-3.27 J5.974 E.09559
G3 X166.418 Y140.658 I-4.162 J3.389 E.08733
G1 X166.512 Y141.174 E.01993
G1 X166.55 Y141.232 E.00264
G1 X166.55 Y141.451 E.00832
;WIDTH:0.53523
G1 X166.532 Y141.849 E.01631
;WIDTH:0.57046
G1 X166.515 Y142.248 E.01752
G1 X166.515 Y169.986 E1.21673
G1 X166.58 Y170.079 E.00498
;WIDTH:0.53523
G1 X166.644 Y170.171 E.00459
;WIDTH:0.499999
G1 X166.779 Y170.215 E.0054
G1 X190.55 Y170.215 E.90345
G1 X190.55 Y177.265 E.26794
G1 X190.55 Y184.315 E.26794
G1 X151.45 Y184.315 E1.48605
G1 X151.45 Y170.215 E.53589
G1 X152.221 Y170.215 E.0293
G1 X152.347 Y170.174 E.00504
M204 P3000
G1 X152.474 Y169.794 F18000
G1 E-.7 F2100
G1 X178.982 Y170.564 Z.663 F18000
G1 X182.908 Y170.678 Z.723
G1 X186.833 Y170.792 Z.766
G1 X188.98 Y170.855 Z.782
G1 Z.2 F720
G1 E.7 F1500
M204 P500
;TYPE:Solid infill
;WIDTH:0.502827
G1 F2400
G1 X189.704 Y171.579 E.03916
G1 X189.704 Y172.229 E.02486
G1 X188.535 Y171.06 E.06322
G1 X187.885 Y171.06 E.02486
G1 X189.704 Y172.88 E.0984
G1 X189.704 Y173.53 E.02486
G1 X187.235 Y171.06 E.13355
G1 X186.584 Y171.06 E.0249
G1 X189.704 Y174.181 E.16876
G1 X189.704 Y174.831 E.02486
G1 X185.934 Y171.06 E.20391
G1 X185.283 Y171.06 E.0249
G1 X189.704 Y175.481 E.23909
G1 X189.704 Y176.132 E.0249
G1 X184.633 Y171.06 E.27427
G1 X183.983 Y171.06 E.02486
G1 X189.704 Y176.782 E.30943
G1 X189.704 Y177.433 E.0249
G1 X183.332 Y171.06 E.34463
G1 X182.682 Y171.06 E.02486
M73 C28
G1 X189.704 Y178.083 E.37979
G1 X189.704 Y178.733 E.02486
G1 X182.031 Y171.06 E.41497
G1 X181.381 Y171.06 E.02486
G1 X189.704 Y179.384 E.45015
G1 X189.704 Y180.034 E.02486
G1 X180.731 Y171.06 E.4853
G1 X180.08 Y171.06 E.0249
G1 X189.704 Y180.685 E.52051
G1 X189.704 Y181.335 E.02486
G1 X179.43 Y171.06 E.55566
G1 X178.779 Y171.06 E.0249
G1 X189.704 Y181.985 E.59084
G1 X189.704 Y182.636 E.0249
G1 X178.129 Y171.06 E.62602
G1 X177.478 Y171.06 E.0249
G1 X189.704 Y183.286 E.6612
