; generated by PrusaSlicer 2.9.4 on 2026-01-08 at 21:26:30 UTC


;
;

;
;

;
;

;
;
; 

; external perimeters extrusion width = 0.45mm
; perimeters extrusion width = 0.45mm
; infill extrusion width = 0.45mm
; solid infill extrusion width = 0.45mm
; top infill extrusion width = 0.42mm
; support material extrusion width = 0.40mm
; first layer extrusion width = 0.50mm

; external perimeters extrusion width = 0.45mm
; perimeters extrusion width = 0.45mm
; infill extrusion width = 0.45mm
; solid infill extrusion width = 0.45mm
; top infill extrusion width = 0.42mm
; support material extrusion width = 0.40mm
; first layer extrusion width = 0.50mm

; external perimeters extrusion width = 0.45mm
; perimeters extrusion width = 0.45mm
; infill extrusion width = 0.45mm
; solid infill extrusion width = 0.45mm
; top infill extrusion width = 0.42mm
; support material extrusion width = 0.40mm
; first layer extrusion width = 0.50mm

; external perimeters extrusion width = 0.45mm
; perimeters extrusion width = 0.45mm
; infill extrusion width = 0.45mm
; solid infill extrusion width = 0.45mm
; top infill extrusion width = 0.42mm
; support material extrusion width = 0.40mm
; first layer extrusion width = 0.50mm

; external perimeters extrusion width = 0.45mm
; perimeters extrusion width = 0.45mm
; infill extrusion width = 0.45mm
; solid infill extrusion width = 0.45mm
; top infill extrusion width = 0.42mm
; support material extrusion width = 0.40mm
; first layer extrusion width = 0.50mm

; external perimeters extrusion width = 0.45mm
; perimeters extrusion width = 0.45mm
; infill extrusion width = 0.45mm
; solid infill extrusion width = 0.45mm
; top infill extrusion width = 0.42mm
; support material extrusion width = 0.40mm
; first layer extrusion width = 0.50mm

; external perimeters extrusion width = 0.45mm
; perimeters extrusion width = 0.45mm
; infill extrusion width = 0.45mm
; solid infill extrusion width = 0.45mm
; top infill extrusion width = 0.42mm
; support material extrusion width = 0.40mm
; first layer extrusion width = 0.50mm

; external perimeters extrusion width = 0.45mm
; perimeters extrusion width = 0.45mm
; infill extrusion width = 0.45mm
; solid infill extrusion width = 0.45mm
; top infill extrusion width = 0.42mm
; support material extrusion width = 0.40mm
; first layer extrusion width = 0.50mm

; external perimeters extrusion width = 0.45mm
; perimeters extrusion width = 0.45mm
; infill extrusion width = 0.45mm
; solid infill extrusion width = 0.45mm
; top infill extrusion width = 0.42mm
; support material extrusion width = 0.40mm
; first layer extrusion width = 0.50mm

M73 P0 R35
M73 C31
M73 Q0 S36
M73 D32
M201 X4000 Y4000 Z200 E2500 ; sets maximum accelerations, mm/sec^2
M203 X300 Y300 Z40 E100 ; sets maximum feedrates, mm / sec
M204 P4000 R2500 T4000 ; sets acceleration (P, T) and retract acceleration (R), mm/sec^2
M205 X8.00 Y8.00 Z2.00 E10.00 ; sets the jerk limits, mm/sec
M205 S0 T0 ; sets the minimum extruding and travel feed rate, mm/sec

M486 S0
M486 AREAD_Bookmark.stl
M486 S-1
M486 S1
M486 AREAD_Bookmark.stl
M486 S-1
M486 S2
M486 AREAD_Bookmark.stl
M486 S-1
M486 S3
M486 AREAD_Bookmark.stl
M486 S-1
M486 S4
M486 AREAD_Bookmark.stl
M486 S-1
M486 S5
M486 AREAD_Bookmark.stl
M486 S-1
M486 S6
M486 AREAD_Bookmark.stl
M486 S-1
M486 S7
M486 AREAD_Bookmark.stl
M486 S-1
M486 S8
M486 AREAD_Bookmark.stl
M486 S-1

;TYPE:Custom
M17 ; enable steppers
M862.1 P0.4 A0 F1 ; nozzle check
M862.3 P "MK4S" ; printer model check
M862.5 P2 ; g-code level check
M862.6 P"Input shaper" ; FW feature check
M115 U6.4.0+11974

M555 X52.5429 Y14.8016 W144.914 H176.42

G90 ; use absolute coordinates
M83 ; extruder relative mode

M140 S60 ; set bed temp
M104 T0 S170 ; set extruder temp for bed leveling
M109 T0 R170 ; wait for temp

M84 E ; turn off E motor

G28 ; home all without mesh bed level

G1 X42 Y-4 Z5 F4800

M302 S155 ; lower cold extrusion limit to 155C


G1 E-2 F2400 ; retraction


M84 E ; turn off E motor

G29 P9 X10 Y-4 W32 H4

M106 S100

G0 Z40 F10000

M190 S60 ; wait for bed temp

M107

;
; MBL
;
M84 E ; turn off E motor
G29 P1 ; invalidate mbl & probe print area
G29 P1 X0 Y0 W50 H20 C ; probe near purge place
G29 P3.2 ; interpolate mbl probes
G29 P3.13 ; extrapolate mbl outside probe area
G29 A ; activate mbl

; prepare for purge
M104 S230
G0 X0 Y-4 Z15 F4800 ; move away and ready for the purge
M109 S230

G92 E0
M569 S0 E ; set spreadcycle mode for extruder

;
; Extrude purge line
;
G92 E0 ; reset extruder position
G1 E2 F2400 ; deretraction after the initial one before nozzle cleaning
M73 C30
G0 E7 X15 Z0.2 F500 ; purge
G0 X25 E4 F500 ; purge
G0 X35 E4 F650 ; purge
G0 X45 E4 F800 ; purge
G0 X48 Z0.05 F8000 ; wipe, move close to the bed
M73 D31
G0 X51 Z0.2 F8000 ; wipe, move quickly away from the bed

G92 E0
M221 S100 ; set flow to 100%
G21 ; set units to millimeters
G90 ; use absolute coordinates
M83 ; use relative distances for extrusion
M572 S0.03 ; Filament gcode

M142 S36 ; set heatbreak target temp
M107
;LAYER_CHANGE
;Z:0.2
;HEIGHT:0.2
G1 E-.7 F2100
G1 Z.8 F720
G1 X54.913 Y26.462 F18000
G1 Z.2 F720
G1 E.7 F1500
M204 P500
;TYPE:Skirt/Brim
;WIDTH:0.5
G1 F2400
G3 X56.239 Y24.307 I11.166 J5.381 E.09633
G3 X62.88 Y19.748 I10.855 J8.698 E.3106
G3 X66.511 Y19.065 I5.201 J17.663 E.14066
G1 X159.754 Y19.035 E3.54382
G1 X161.711 Y19.193 E.07462
G3 X169.916 Y23.323 I-1.999 J14.187 E.35539
G1 X195.854 Y55.509 E1.57105
G1 X196.916 Y57.463 E.08452
G1 X197.229 Y59.412 E.07502
G1 X197.229 Y184.765 E4.76421
G1 X196.832 Y186.952 E.08448
M73 P0 R34
G1 X195.692 Y188.861 E.08451
G1 X193.954 Y190.248 E.08451
G1 X191 Y190.993 E.11579
G1 X59 Y190.993 E5.01684
G1 X56.812 Y190.597 E.08451
G1 X54.904 Y189.457 E.08447
G1 X53.517 Y187.719 E.08451
G1 X52.771 Y184.765 E.1158
G1 X52.771 Y59.412 E4.76421
G1 X53.775 Y30.343 E1.10546
M73 P1 R34
M73 Q1 S36
G3 X54.887 Y26.517 I12.304 J1.5 E.15209
M204 P2500
G1 E-.7 F2100
M204 T4000
G1 X80.29 Y34.128 Z.663 F18000
G1 X84.052 Y35.256 Z.723
G1 X87.815 Y36.383 Z.766
G1 X95.339 Y38.638 Z.8
M486 S7
G1 X165.887 Y59.777
G1 Z.2 F720
G1 E.7 F1500
M204 P500
;TYPE:External perimeter
;WIDTH:0.53523
G1 F2400
G1 X165.858 Y59.818 E.00206
;WIDTH:0.499999
G1 X165.723 Y59.862 E.0054
G1 X163.279 Y59.862 E.09289
G1 X163.127 Y59.804 E.00618
G1 X163.05 Y59.651 E.00651
G1 X163.05 Y38.731 E.79509
G1 X163.04 Y38.352 E.01441
G1 X162.894 Y37.564 E.03046
G1 X162.625 Y36.875 E.02811
G1 X162.235 Y36.257 E.02777
G1 X161.742 Y35.734 E.02732
G1 X161.163 Y35.324 E.02696
G1 X160.523 Y35.043 E.02657
G1 X159.845 Y34.901 E.02633
G1 X159.155 Y34.901 E.02622
G1 X158.477 Y35.043 E.02633
G1 X157.837 Y35.324 E.02657
G1 X157.258 Y35.734 E.02696
G1 X156.765 Y36.257 E.02732
G1 X156.375 Y36.875 E.02777
G1 X156.105 Y37.566 E.0282
G1 X155.95 Y38.333 E.02974
G1 X155.95 Y59.633 E.80953
G1 X155.891 Y59.786 E.00623
G1 X155.721 Y59.862 E.00708
G1 X153.276 Y59.862 E.09293
G1 X153.14 Y59.817 E.00544
;WIDTH:0.53498
G1 X153.076 Y59.725 E.00459
;WIDTH:0.56996
G1 X153.012 Y59.633 E.00491
G1 X153.012 Y31.895 E1.21558
G1 X153.066 Y31.812 E.00434
;WIDTH:0.53498
G1 X153.12 Y31.728 E.00409
;WIDTH:0.499999
G1 X153.189 Y31.701 E.00282
G1 X153.325 Y31.207 E.01947
G3 X155.415 Y28.362 I5.65 J1.96 E.1362
G3 X163.673 Y28.435 I4.08 J5.614 E.33616
G1 X164.437 Y29.13 E.03925
G1 X164.846 Y29.621 E.02429
G3 X165.803 Y31.697 I-4.466 J3.316 E.0875
G1 X165.877 Y31.726 E.00302
;WIDTH:0.53523
G1 X165.932 Y31.811 E.00414
;WIDTH:0.57046
G1 X165.987 Y31.895 E.0044
G1 X165.987 Y59.633 E1.21673
G1 X165.922 Y59.726 E.00498
;WIDTH:0.53523
G1 X165.921 Y59.727 E.00006
M204 P2500
G1 X165.541 Y59.853 F18000
G1 X166.314 Y60.079
M204 P500
;TYPE:Perimeter
;WIDTH:0.499999
G1 F2400
G1 X166.376 Y60.188 E.00477
G2 X166.779 Y60.319 I.45 J-.701 E.01628
G1 X190.093 Y60.319 E.88608
G1 X190.093 Y73.505 E.50115
G1 X151.907 Y73.505 E1.45131
G1 X151.907 Y60.319 E.50115
G1 X152.458 Y60.277 E.021
G1 X152.628 Y60.186 E.00733
G1 X152.749 Y59.971 E.00938
G1 X152.869 Y60.186 E.00936
G2 X153.276 Y60.319 I.455 J-.699 E.01646
G1 X155.721 Y60.319 E.09293
G1 X155.927 Y60.287 E.00792
G1 X156.177 Y60.145 E.01093
G1 X156.347 Y59.914 E.0109
G1 X156.407 Y59.633 E.01092
G1 X156.407 Y38.379 E.80779
G1 X156.545 Y37.695 E.02652
G1 X156.785 Y37.082 E.02502
G1 X157.128 Y36.539 E.02441
G1 X157.56 Y36.081 E.02393
G1 X158.063 Y35.724 E.02344
G1 X158.617 Y35.481 E.02299
G1 X159.203 Y35.358 E.02276
G1 X159.797 Y35.358 E.02258
G1 X160.383 Y35.481 E.02276
G1 X160.937 Y35.724 E.02299
G1 X161.44 Y36.081 E.02344
G1 X161.872 Y36.539 E.02393
G1 X162.215 Y37.082 E.02441
G1 X162.453 Y37.69 E.02482
G1 X162.593 Y38.437 E.02888
G1 X162.593 Y59.633 E.80558
G1 X162.653 Y59.914 E.01092
G1 X162.768 Y60.091 E.00802
G1 X163.006 Y60.262 E.01114
G1 X163.279 Y60.319 E.0106
G1 X165.793 Y60.319 E.09555
G1 X166.126 Y60.188 E.0136
G1 X166.251 Y59.968 E.00962
G1 X166.284 Y60.026 E.00254
M204 P2500
G1 E-.7 F2100
G1 X155.179 Y35.944 Z.663 F18000
G1 X153.535 Y32.378 Z.723
G1 X152.907 Y31.017 Z.741
G1 Z.2 F720
G1 E.7 F1500
M204 P500
;WIDTH:0.534104
G1 F2400
G1 X152.961 Y30.836 E.00771
;WIDTH:0.567761
G1 X153.014 Y30.655 E.00823
;WIDTH:0.601418
G1 X153.067 Y30.474 E.00876
;WIDTH:0.617634
G1 X153.093 Y30.4 E.00375
M204 P2500
G1 E-.7 F2100
G1 X165.907 Y30.4 Z.424 F18000
G1 Z.2 F720
G1 E.7 F1500
M204 P500
;WIDTH:0.617632
G1 F2400
G1 X165.843 Y30.328 E.0046
;WIDTH:0.568787
G1 X165.778 Y30.257 E.00421
;WIDTH:0.519942
G1 X165.713 Y30.185 E.00385
;WIDTH:0.471096
G1 X165.648 Y30.114 E.00343
;WIDTH:0.422251
G1 X165.583 Y30.042 E.00306
;WIDTH:0.381856
G1 X165.507 Y29.895 E.00466
;WIDTH:0.409193
G1 X165.285 Y29.555 E.01237
;WIDTH:0.436529
G1 X165.062 Y29.214 E.01334
;WIDTH:0.455095
G1 X164.744 Y28.822 E.0173
;WIDTH:0.468505
G1 X164.341 Y28.413 E.02032
;WIDTH:0.479817
G1 X163.957 Y28.089 E.01825
;WIDTH:0.485778
G1 X163.508 Y27.768 E.02032
;WIDTH:0.488082
G2 X162.497 Y27.217 I-4.537 J7.136 E.04265
;WIDTH:0.487085
G1 X161.941 Y26.998 E.02207
;WIDTH:0.485298
G1 X161.359 Y26.823 E.02236
;WIDTH:0.482539
G1 X160.755 Y26.695 E.02257
;WIDTH:0.479829
G1 X160.136 Y26.616 E.02267
;WIDTH:0.477389
G1 X159.47 Y26.59 E.02408
;WIDTH:0.476295
G1 X158.803 Y26.622 E.02406
;WIDTH:0.477327
G1 X158.141 Y26.713 E.02414
;WIDTH:0.479619
G1 X157.55 Y26.845 E.02199
;WIDTH:0.485291
G1 X157.059 Y26.998 E.01892
;WIDTH:0.487086
G1 X156.503 Y27.217 E.02207
;WIDTH:0.488083
G2 X155.492 Y27.768 I3.526 J7.687 E.04265
;WIDTH:0.485779
G1 X155.043 Y28.089 E.02032
;WIDTH:0.479818
G1 X154.634 Y28.436 E.01949
;WIDTH:0.469076
G1 X154.186 Y28.902 E.02291
;WIDTH:0.447422
G1 X153.794 Y29.41 E.02158
;WIDTH:0.417306
G1 X153.462 Y29.952 E.01979
;WIDTH:0.42501
G1 X153.388 Y30.042 E.0037
;WIDTH:0.473166
G1 X153.314 Y30.131 E.00414
;WIDTH:0.521322
G1 X153.24 Y30.221 E.00463
;WIDTH:0.569478
G1 X153.166 Y30.31 E.00507
;WIDTH:0.617634
G1 X153.093 Y30.4 E.00554
G1 X153.098 Y30.299 E.00483
;WIDTH:0.568789
G1 X153.103 Y30.199 E.00438
;WIDTH:0.519944
G1 X153.109 Y30.099 E.00397
;WIDTH:0.471098
G1 X153.114 Y29.999 E.00356
;WIDTH:0.422253
G1 X153.119 Y29.899 E.00316
;WIDTH:0.409517
G1 X153.346 Y29.429 E.01591
;WIDTH:0.436532
G1 X153.627 Y28.973 E.01753
;WIDTH:0.455102
G1 X153.958 Y28.538 E.01873
;WIDTH:0.46851
G1 X154.374 Y28.097 E.02145
;WIDTH:0.479818
G1 X154.774 Y27.745 E.01936
;WIDTH:0.485779
G1 X155.253 Y27.394 E.02187
;WIDTH:0.488083
G3 X156.335 Y26.806 I4.571 J7.118 E.04562
;WIDTH:0.487086
G1 X156.929 Y26.576 E.02353
;WIDTH:0.485291
G1 X157.549 Y26.394 E.02377
;WIDTH:0.48254
G1 X158.19 Y26.262 E.02392
;WIDTH:0.479837
G1 X158.846 Y26.182 E.02401
;WIDTH:0.47739
G1 X159.548 Y26.157 E.02538
;WIDTH:0.476294
G1 X160.252 Y26.192 E.0254
;WIDTH:0.477326
G1 X160.95 Y26.288 E.02545
;WIDTH:0.479622
G1 X161.559 Y26.423 E.02265
;WIDTH:0.485298
G1 X162.089 Y26.582 E.02035
;WIDTH:0.487085
G1 X162.682 Y26.814 E.02352
;WIDTH:0.488082
G3 X163.763 Y27.406 I-3.501 J7.68 E.04566
;WIDTH:0.485778
G1 X164.242 Y27.758 E.02189
;WIDTH:0.479817
G1 X164.675 Y28.142 E.02102
;WIDTH:0.469069
G1 X165.081 Y28.586 E.02132
;WIDTH:0.451989
G1 X165.385 Y28.991 E.01722
;WIDTH:0.436529
G1 X165.663 Y29.447 E.01748
;WIDTH:0.40952
G1 X165.881 Y29.899 E.0153
;WIDTH:0.422251
G1 X165.886 Y29.999 E.00316
;WIDTH:0.471096
G1 X165.891 Y30.099 E.00356
;WIDTH:0.519942
G1 X165.897 Y30.199 E.00397
;WIDTH:0.568787
G1 X165.902 Y30.299 E.00438
;WIDTH:0.617632
G1 X165.904 Y30.34 E.00196
M204 P2500
G1 X165.907 Y30.4 F18000
M204 P500
G1 F2400
G1 X165.957 Y30.568 E.00838
;WIDTH:0.582968
G1 X166.006 Y30.736 E.00786
;WIDTH:0.548303
G1 X166.055 Y30.904 E.00735
;WIDTH:0.513638
G1 X166.093 Y31.017 E.00467
M204 P2500
G1 E-.7 F2100
G1 X166.574 Y57.532 Z.663 F18000
G1 X166.615 Y59.777 Z.699
G1 Z.2 F720
G1 E.7 F1500
M204 P500
;TYPE:External perimeter
;WIDTH:0.53523
G1 F2400
G1 X166.644 Y59.818 E.00206
;WIDTH:0.499999
G1 X166.779 Y59.862 E.0054
G1 X190.55 Y59.862 E.90345
G1 X190.55 Y73.962 E.53589
G1 X151.45 Y73.962 E1.48605
G1 X151.45 Y59.862 E.53589
M73 Q1 S35
G1 X152.221 Y59.862 E.0293
G1 X152.357 Y59.817 E.00544
;WIDTH:0.53498
G1 X152.421 Y59.725 E.00459
;WIDTH:0.56996
G1 X152.485 Y59.633 E.00491
G1 X152.485 Y31.895 E1.21558
G1 X152.467 Y31.456 E.01925
;WIDTH:0.53498
G1 X152.45 Y31.017 E.01798
;WIDTH:0.499999
G1 X152.489 Y30.821 E.0076
G3 X153.263 Y28.749 I5.031 J.701 E.08474
G3 X154.993 Y27.026 I5.282 J3.573 E.09337
G3 X158.801 Y25.738 I4.43 J6.821 E.15438
G3 X163.451 Y26.688 I.698 J8.434 E.18283
G3 X165.387 Y28.271 I-3.27 J5.974 E.09559
G3 X166.418 Y30.305 I-4.162 J3.389 E.08733
G1 X166.512 Y30.821 E.01993
G1 X166.55 Y30.879 E.00264
G1 X166.55 Y31.098 E.00832
;WIDTH:0.53523
G1 X166.532 Y31.496 E.01631
;WIDTH:0.57046
G1 X166.515 Y31.895 E.01752
G1 X166.515 Y59.633 E1.21673
G1 X166.58 Y59.726 E.00498
;WIDTH:0.53523
G1 X166.581 Y59.727 E.00006
M204 P2500
G1 X166.961 Y59.853 F18000
G1 E-.7 F2100
G1 X188.98 Y60.502 Z.585 F18000
G1 Z.2 F720
G1 E.7 F1500
M204 P500
;TYPE:Solid infill
;WIDTH:0.502827
G1 F6000
G1 X189.704 Y61.226 E.03916
G1 X189.704 Y61.876 E.02486
G1 X188.535 Y60.707 E.06322
G1 X187.885 Y60.707 E.02486
G1 X189.704 Y62.527 E.0984
G1 X189.704 Y63.177 E.02486
G1 X187.235 Y60.707 E.13355
G1 X186.584 Y60.707 E.0249
G1 X189.704 Y63.828 E.16876
G1 X189.704 Y64.478 E.02486
G1 X185.934 Y60.707 E.20391
G1 X185.283 Y60.707 E.0249
G1 X189.704 Y65.128 E.23909
G1 X189.704 Y65.779 E.0249
G1 X184.633 Y60.707 E.27427
G1 X183.983 Y60.707 E.02486
G1 X189.704 Y66.429 E.30943
G1 X189.704 Y67.08 E.0249
G1 X183.332 Y60.707 E.34463
G1 X182.682 Y60.707 E.02486
G1 X189.704 Y67.73 E.37979
G1 X189.704 Y68.38 E.02486
G1 X182.031 Y60.707 E.41497
G1 X181.381 Y60.707 E.02486
G1 X189.704 Y69.031 E.45015
G1 X189.704 Y69.681 E.02486
G1 X180.731 Y60.707 E.4853
G1 X180.08 Y60.707 E.0249
G1 X189.704 Y70.332 E.52051
G1 X189.704 Y70.982 E.02486
G1 X179.43 Y60.707 E.55566
G1 X178.779 Y60.707 E.0249
M73 P2 R34
G1 X189.704 Y71.632 E.59084
G1 X189.704 Y72.283 E.0249
G1 X178.129 Y60.707 E.62602
G1 X177.478 Y60.707 E.0249
M73 Q2 S35
G1 X189.704 Y72.933 E.6612
G1 X189.704 Y73.116 E.007
G1 X189.237 Y73.116 E.01786
G1 X176.828 Y60.707 E.6711
G1 X176.178 Y60.707 E.02486
G1 X188.586 Y73.116 E.67107
G1 X187.936 Y73.116 E.02486
G1 X175.527 Y60.707 E.6711
G1 X174.877 Y60.707 E.02486
G1 X187.286 Y73.116 E.6711
G1 X186.635 Y73.116 E.0249
G1 X174.226 Y60.707 E.6711
G1 X173.576 Y60.707 E.02486
G1 X185.985 Y73.116 E.6711
G1 X185.334 Y73.116 E.0249
G1 X172.926 Y60.707 E.67107
G1 X172.275 Y60.707 E.0249
G1 X184.684 Y73.116 E.6711
G1 X184.034 Y73.116 E.02486
G1 X171.625 Y60.707 E.6711
G1 X170.974 Y60.707 E.0249
G1 X183.383 Y73.116 E.6711
G1 X182.733 Y73.116 E.02486
G1 X170.324 Y60.707 E.6711
G1 X169.674 Y60.707 E.02486
G1 X182.082 Y73.116 E.67107
G1 X181.432 Y73.116 E.02486
G1 X169.023 Y60.707 E.6711
G1 X168.373 Y60.707 E.02486
G1 X180.782 Y73.116 E.6711
G1 X180.131 Y73.116 E.0249
G1 X167.722 Y60.707 E.6711
G1 X167.072 Y60.707 E.02486
G1 X179.481 Y73.116 E.6711
G1 X178.83 Y73.116 E.0249
G1 X166.299 Y60.584 E.67772
G1 X166.251 Y60.559 E.00207
G3 X165.769 Y60.705 I-.505 J-.8 E.01949
G1 X178.18 Y73.116 E.67121
G1 X177.53 Y73.116 E.02486
G1 X165.119 Y60.706 E.67118
G1 X164.469 Y60.706 E.02486
G1 X176.879 Y73.116 E.67115
