; generated by PrusaSlicer 2.9.4 on 2026-01-08 at 21:24:01 UTC


;
;

;
;

;
;

;
;
; 

; external perimeters extrusion width = 0.45mm
; perimeters extrusion width = 0.45mm
; infill extrusion width = 0.45mm
; solid infill extrusion width = 0.45mm
; top infill extrusion width = 0.42mm
; support material extrusion width = 0.40mm
; first layer extrusion width = 0.50mm

M73 P0 R4
M73 Q0 S4
M201 X4000 Y4000 Z200 E2500 ; sets maximum accelerations, mm/sec^2
M203 X300 Y300 Z40 E100 ; sets maximum feedrates, mm / sec
M204 P4000 R2500 T4000 ; sets acceleration (P, T) and retract acceleration (R), mm/sec^2
M205 X8.00 Y8.00 Z2.00 E10.00 ; sets the jerk limits, mm/sec
M205 S0 T0 ; sets the minimum extruding and travel feed rate, mm/sec

M486 S0
M486 AREAD_Bookmark.stl
M486 S-1

;TYPE:Custom
M17 ; enable steppers
M862.1 P0.4 A0 F1 ; nozzle check
M862.3 P "MK4S" ; printer model check
M862.5 P2 ; g-code level check
M862.6 P"Input shaper" ; FW feature check
M115 U6.4.0+11974

M555 X105 Y76.4339 W40 H53.1531

G90 ; use absolute coordinates
M83 ; extruder relative mode

M140 S60 ; set bed temp
M104 T0 S170 ; set extruder temp for bed leveling
M109 T0 R170 ; wait for temp

M84 E ; turn off E motor

G28 ; home all without mesh bed level

G1 X42 Y-4 Z5 F4800

M302 S155 ; lower cold extrusion limit to 155C


G1 E-2 F2400 ; retraction


M84 E ; turn off E motor

G29 P9 X10 Y-4 W32 H4

M106 S100

G0 Z40 F10000

M190 S60 ; wait for bed temp

M107

;
; MBL
;
M84 E ; turn off E motor
G29 P1 ; invalidate mbl & probe print area
G29 P1 X0 Y0 W50 H20 C ; probe near purge place
G29 P3.2 ; interpolate mbl probes
G29 P3.13 ; extrapolate mbl outside probe area
G29 A ; activate mbl

; prepare for purge
M104 S230
G0 X0 Y-4 Z15 F4800 ; move away and ready for the purge
M109 S230

G92 E0
M569 S0 E ; set spreadcycle mode for extruder

;
; Extrude purge line
;
G92 E0 ; reset extruder position
G1 E2 F2400 ; deretraction after the initial one before nozzle cleaning
M73 P1 R3
M73 Q1 S4
G0 E7 X15 Z0.2 F500 ; purge
G0 X25 E4 F500 ; purge
M73 P2 R3
M73 Q2 S4
G0 X35 E4 F650 ; purge
G0 X45 E4 F800 ; purge
G0 X48 Z0.05 F8000 ; wipe, move close to the bed
M73 P3 R3
M73 Q3 S4
G0 X51 Z0.2 F8000 ; wipe, move quickly away from the bed

G92 E0
M221 S100 ; set flow to 100%
G21 ; set units to millimeters
G90 ; use absolute coordinates
M83 ; use relative distances for extrusion
M572 S0.03 ; Filament gcode

M142 S36 ; set heatbreak target temp
M107
;LAYER_CHANGE
;Z:0.2
;HEIGHT:0.2
G1 E-.7 F2100
G1 Z.8 F720
M486 S0
G1 X119.887 Y114.952 F18000
G1 Z.2 F720
G1 E.7 F1500
M204 P500
;TYPE:External perimeter
;WIDTH:0.53523
G1 F2400
G1 X119.858 Y114.993 E.00206
;WIDTH:0.499999
G1 X119.723 Y115.037 E.0054
M73 Q3 S3
G1 X117.279 Y115.037 E.09289
G1 X117.127 Y114.979 E.00618
G1 X117.05 Y114.827 E.00648
G1 X117.05 Y93.906 E.79513
G1 X117.04 Y93.527 E.01441
G1 X116.894 Y92.739 E.03046
G1 X116.625 Y92.051 E.02808
G1 X116.235 Y91.433 E.02777
G1 X115.742 Y90.91 E.02732
G1 X115.163 Y90.5 E.02696
G1 X114.523 Y90.219 E.02657
G1 X113.845 Y90.076 E.02634
G1 X113.155 Y90.076 E.02622
G1 X112.477 Y90.219 E.02634
G1 X111.837 Y90.5 E.02657
G1 X111.258 Y90.91 E.02696
M73 Q4 S3
G1 X110.765 Y91.433 E.02732
M73 P4 R3
G1 X110.375 Y92.051 E.02777
G1 X110.105 Y92.741 E.02816
G1 X109.95 Y93.508 E.02974
G1 X109.95 Y114.808 E.80953
G1 X109.891 Y114.961 E.00623
G1 X109.721 Y115.037 E.00708
G1 X107.276 Y115.037 E.09293
G1 X107.14 Y114.993 E.00543
;WIDTH:0.53498
G1 X107.076 Y114.901 E.00459
;WIDTH:0.56996
G1 X107.012 Y114.808 E.00495
G1 X107.012 Y87.071 E1.21553
G1 X107.066 Y86.987 E.00438
;WIDTH:0.53498
G1 X107.12 Y86.903 E.00409
;WIDTH:0.499999
G1 X107.189 Y86.876 E.00282
G1 X107.325 Y86.382 E.01947
G3 X109.415 Y83.537 I5.65 J1.96 E.1362
G3 X117.673 Y83.61 I4.08 J5.614 E.33616
G1 X118.437 Y84.305 E.03925
G1 X118.846 Y84.796 E.02429
G3 X119.803 Y86.873 I-4.466 J3.316 E.08754
G1 X119.877 Y86.902 E.00302
;WIDTH:0.53523
G1 X119.932 Y86.986 E.00411
;WIDTH:0.57046
G1 X119.987 Y87.071 E.00444
G1 X119.987 Y114.808 E1.21669
G1 X119.922 Y114.901 E.00498
M73 P5 R3
M73 Q5 S3
;WIDTH:0.53523
G1 X119.921 Y114.903 E.00009
M204 P2500
G1 X119.541 Y115.028 F18000
M204 T4000
G1 X120.314 Y115.254
M204 P500
;TYPE:Perimeter
;WIDTH:0.499999
G1 F2400
G1 X120.376 Y115.363 E.00477
G2 X120.779 Y115.494 I.45 J-.701 E.01628
G1 X144.093 Y115.494 E.88608
G1 X144.093 Y128.68 E.50115
G1 X105.907 Y128.68 E1.45131
G1 X105.907 Y115.494 E.50115
G1 X106.458 Y115.452 E.021
M73 P6 R3
M73 Q6 S3
G1 X106.628 Y115.361 E.00733
G1 X106.749 Y115.146 E.00938
G1 X106.869 Y115.361 E.00936
G2 X107.276 Y115.494 I.455 J-.699 E.01646
G1 X109.721 Y115.494 E.09293
G1 X109.927 Y115.463 E.00792
G1 X110.177 Y115.32 E.01095
G1 X110.347 Y115.089 E.0109
G1 X110.407 Y114.808 E.01092
G1 X110.407 Y93.554 E.80779
G1 X110.545 Y92.871 E.02648
G1 X110.785 Y92.258 E.02502
G1 X111.128 Y91.714 E.02444
G1 X111.56 Y91.256 E.02393
G1 X112.063 Y90.899 E.02344
G1 X112.617 Y90.656 E.02299
G1 X113.203 Y90.533 E.02276
G1 X113.797 Y90.533 E.02258
G1 X114.383 Y90.656 E.02276
G1 X114.937 Y90.899 E.02299
G1 X115.44 Y91.256 E.02344
G1 X115.872 Y91.714 E.02393
G1 X116.215 Y92.258 E.02444
G1 X116.453 Y92.865 E.02478
G1 X116.593 Y93.612 E.02888
G1 X116.593 Y114.808 E.80558
G1 X116.653 Y115.089 E.01092
G1 X116.768 Y115.267 E.00805
G1 X117.006 Y115.437 E.01112
G1 X117.279 Y115.494 E.0106
G1 X119.793 Y115.494 E.09555
G1 X120.126 Y115.363 E.0136
G1 X120.251 Y115.143 E.00962
G1 X120.284 Y115.202 E.00257
M204 P2500
G1 E-.7 F2100
G1 X109.179 Y91.119 Z.663 F18000
G1 X107.535 Y87.553 Z.723
G1 X106.907 Y86.192 Z.741
G1 Z.2 F720
G1 E.7 F1500
M204 P500
;WIDTH:0.534104
G1 F2400
G1 X106.961 Y86.011 E.00771
;WIDTH:0.567761
G1 X107.014 Y85.83 E.00823
;WIDTH:0.601418
G1 X107.067 Y85.649 E.00876
;WIDTH:0.617634
G1 X107.093 Y85.575 E.00375
M204 P2500
G1 E-.7 F2100
G1 X119.907 Y85.575 Z.424 F18000
G1 Z.2 F720
M73 P7 R3
M73 Q7 S3
G1 E.7 F1500
M204 P500
;WIDTH:0.617632
G1 F2400
G1 X119.843 Y85.503 E.0046
;WIDTH:0.568787
G1 X119.778 Y85.432 E.00421
;WIDTH:0.519942
G1 X119.713 Y85.36 E.00385
;WIDTH:0.471096
G1 X119.648 Y85.289 E.00343
;WIDTH:0.422251
G1 X119.583 Y85.217 E.00306
;WIDTH:0.381856
G1 X119.507 Y85.07 E.00466
;WIDTH:0.409193
G1 X119.285 Y84.73 E.01237
;WIDTH:0.436529
G1 X119.062 Y84.389 E.01334
;WIDTH:0.455095
G1 X118.744 Y83.998 E.01727
;WIDTH:0.468505
G1 X118.341 Y83.588 E.02034
;WIDTH:0.479817
G1 X117.957 Y83.264 E.01825
;WIDTH:0.485778
G1 X117.508 Y82.943 E.02032
;WIDTH:0.488082
G2 X116.497 Y82.393 I-4.537 J7.136 E.04263
;WIDTH:0.487085
G1 X115.941 Y82.174 E.02207
;WIDTH:0.485298
G1 X115.359 Y81.999 E.02236
;WIDTH:0.482539
G1 X114.755 Y81.87 E.02258
;WIDTH:0.479829
G1 X114.136 Y81.791 E.02267
;WIDTH:0.477389
G1 X113.47 Y81.765 E.02408
;WIDTH:0.476295
G1 X112.803 Y81.797 E.02406
;WIDTH:0.477327
G1 X112.141 Y81.888 E.02414
;WIDTH:0.479619
G1 X111.55 Y82.021 E.022
;WIDTH:0.485291
G1 X111.059 Y82.174 E.01892
;WIDTH:0.487086
G1 X110.503 Y82.393 E.02207
;WIDTH:0.488083
G2 X109.492 Y82.943 I3.526 J7.686 E.04263
;WIDTH:0.485779
G1 X109.043 Y83.264 E.02032
;WIDTH:0.479818
G1 X108.634 Y83.611 E.01949
;WIDTH:0.469076
G1 X108.186 Y84.078 E.02293
;WIDTH:0.447422
G1 X107.794 Y84.585 E.02156
;WIDTH:0.417306
G1 X107.462 Y85.128 E.01981
;WIDTH:0.42501
G1 X107.388 Y85.217 E.00368
;WIDTH:0.473166
G1 X107.314 Y85.306 E.00414
;WIDTH:0.521322
G1 X107.24 Y85.396 E.00463
;WIDTH:0.569478
G1 X107.166 Y85.485 E.00507
;WIDTH:0.617634
G1 X107.093 Y85.575 E.00554
G1 X107.098 Y85.475 E.00478
;WIDTH:0.568789
G1 X107.103 Y85.375 E.00438
;WIDTH:0.519944
G1 X107.109 Y85.275 E.00397
;WIDTH:0.471098
G1 X107.114 Y85.175 E.00356
;WIDTH:0.422253
G1 X107.119 Y85.074 E.00319
;WIDTH:0.409517
G1 X107.346 Y84.604 E.01591
;WIDTH:0.436532
G1 X107.627 Y84.148 E.01753
;WIDTH:0.455102
G1 X107.958 Y83.713 E.01873
;WIDTH:0.46851
G1 X108.374 Y83.272 E.02145
;WIDTH:0.479818
G1 X108.774 Y82.92 E.01936
;WIDTH:0.485779
G1 X109.253 Y82.57 E.02185
;WIDTH:0.488083
G3 X110.335 Y81.982 I4.571 J7.117 E.04562
;WIDTH:0.487086
G1 X110.929 Y81.751 E.02354
;WIDTH:0.485291
G1 X111.549 Y81.569 E.02377
;WIDTH:0.48254
G1 X112.19 Y81.437 E.02392
;WIDTH:0.479837
G1 X112.846 Y81.357 E.02401
;WIDTH:0.47739
G1 X113.548 Y81.332 E.02538
;WIDTH:0.476294
G1 X114.252 Y81.368 E.0254
;WIDTH:0.477326
G1 X114.95 Y81.464 E.02545
;WIDTH:0.479622
G1 X115.559 Y81.598 E.02264
;WIDTH:0.485298
G1 X116.089 Y81.757 E.02035
;WIDTH:0.487085
G1 X116.682 Y81.989 E.02352
;WIDTH:0.488082
G3 X117.763 Y82.581 I-3.501 J7.68 E.04566
;WIDTH:0.485778
G1 X118.242 Y82.933 E.02189
;WIDTH:0.479817
G1 X118.675 Y83.317 E.02102
;WIDTH:0.469069
G1 X119.081 Y83.761 E.02132
;WIDTH:0.451989
G1 X119.385 Y84.166 E.01722
;WIDTH:0.436529
G1 X119.663 Y84.622 E.01748
;WIDTH:0.40952
G1 X119.881 Y85.074 E.0153
;WIDTH:0.422251
G1 X119.886 Y85.175 E.00319
;WIDTH:0.471096
G1 X119.891 Y85.275 E.00356
;WIDTH:0.519942
G1 X119.897 Y85.375 E.00397
;WIDTH:0.568787
G1 X119.902 Y85.475 E.00438
;WIDTH:0.617632
G1 X119.904 Y85.515 E.00191
M204 P2500
G1 X119.907 Y85.575 F18000
M204 P500
G1 F2400
G1 X119.957 Y85.743 E.00838
;WIDTH:0.582968
G1 X120.006 Y85.911 E.00786
;WIDTH:0.548303
G1 X120.055 Y86.079 E.00735
;WIDTH:0.513638
G1 X120.093 Y86.192 E.00467
M204 P2500
G1 E-.7 F2100
G1 X120.574 Y112.707 Z.663 F18000
G1 X120.615 Y114.952 Z.699
G1 Z.2 F720
G1 E.7 F1500
M204 P500
;TYPE:External perimeter
;WIDTH:0.53523
G1 F2400
G1 X120.644 Y114.993 E.00206
;WIDTH:0.499999
G1 X120.779 Y115.037 E.0054
G1 X144.55 Y115.037 E.90345
G1 X144.55 Y129.137 E.53589
G1 X105.45 Y129.137 E1.48605
M73 P8 R3
M73 Q8 S3
G1 X105.45 Y115.037 E.53589
G1 X106.221 Y115.037 E.0293
G1 X106.357 Y114.993 E.00543
;WIDTH:0.53498
G1 X106.421 Y114.901 E.00459
;WIDTH:0.56996
G1 X106.485 Y114.808 E.00495
G1 X106.485 Y87.071 E1.21553
G1 X106.467 Y86.631 E.0193
;WIDTH:0.53498
G1 X106.45 Y86.192 E.01798
;WIDTH:0.499999
G1 X106.489 Y85.996 E.0076
G3 X107.263 Y83.924 I5.031 J.701 E.08474
G3 X108.993 Y82.201 I5.282 J3.573 E.09337
G3 X112.801 Y80.913 I4.43 J6.821 E.15438
M73 P9 R3
M73 Q9 S3
G3 X117.451 Y81.863 I.698 J8.434 E.18283
G3 X119.387 Y83.446 I-3.27 J5.975 E.09559
G3 X120.418 Y85.48 I-4.162 J3.389 E.08733
G1 X120.512 Y85.996 E.01993
G1 X120.55 Y86.054 E.00264
G1 X120.55 Y86.273 E.00832
;WIDTH:0.53523
G1 X120.532 Y86.672 E.01635
;WIDTH:0.57046
G1 X120.515 Y87.071 E.01752
G1 X120.515 Y114.808 E1.21669
G1 X120.58 Y114.901 E.00498
;WIDTH:0.53523
G1 X120.581 Y114.903 E.00009
M204 P2500
G1 X120.961 Y115.028 F18000
G1 E-.7 F2100
G1 X142.98 Y115.677 Z.585 F18000
G1 Z.2 F720
G1 E.7 F1500
M204 P500
;TYPE:Solid infill
;WIDTH:0.502827
G1 F6000
G1 X143.704 Y116.401 E.03916
G1 X143.704 Y117.052 E.0249
G1 X142.535 Y115.883 E.06322
G1 X141.885 Y115.883 E.02486
G1 X143.704 Y117.702 E.09837
G1 X143.704 Y118.352 E.02486
G1 X141.235 Y115.883 E.13353
G1 X140.584 Y115.883 E.0249
G1 X143.704 Y119.003 E.16873
G1 X143.704 Y119.653 E.02486
G1 X139.934 Y115.883 E.20389
G1 X139.283 Y115.883 E.0249
G1 X143.704 Y120.304 E.23909
G1 X143.704 Y120.954 E.02486
M73 P10 R3
M73 Q10 S3
G1 X138.633 Y115.883 E.27425
G1 X137.983 Y115.883 E.02486
G1 X143.704 Y121.604 E.3094
G1 X143.704 Y122.255 E.0249
G1 X137.332 Y115.883 E.34461
G1 X136.682 Y115.883 E.02486
G1 X143.704 Y122.905 E.37976
G1 X143.704 Y123.556 E.0249
G1 X136.031 Y115.883 E.41497
G1 X135.381 Y115.883 E.02486
G1 X143.704 Y124.206 E.45012
G1 X143.704 Y124.856 E.02486
G1 X134.731 Y115.883 E.48527
G1 X134.08 Y115.883 E.0249
G1 X143.704 Y125.507 E.52048
G1 X143.704 Y126.157 E.02486
M73 P11 R3
G1 X133.43 Y115.883 E.55563
G1 X132.779 Y115.883 E.0249
M73 Q11 S3
G1 X143.704 Y126.808 E.59084
G1 X143.704 Y127.458 E.02486
G1 X132.129 Y115.883 E.62599
G1 X131.478 Y115.883 E.0249
G1 X143.704 Y128.109 E.6612
G1 X143.704 Y128.291 E.00696
G1 X143.237 Y128.291 E.01786
G1 X130.828 Y115.883 E.67107
G1 X130.178 Y115.883 E.02486
G1 X142.586 Y128.291 E.67104
G1 X141.936 Y128.291 E.02486
G1 X129.527 Y115.883 E.67107
G1 X128.877 Y115.883 E.02486
M73 P12 R3
M73 Q12 S3
G1 X141.286 Y128.291 E.67107
G1 X140.635 Y128.291 E.0249
G1 X128.226 Y115.883 E.67107
G1 X127.576 Y115.883 E.02486
G1 X139.985 Y128.291 E.67107
G1 X139.334 Y128.291 E.0249
G1 X126.926 Y115.883 E.67104
G1 X126.275 Y115.883 E.0249
G1 X138.684 Y128.291 E.67107
G1 X138.034 Y128.291 E.02486
G1 X125.625 Y115.883 E.67107
G1 X124.974 Y115.883 E.0249
M73 P13 R3
G1 X137.383 Y128.291 E.67107
G1 X136.733 Y128.291 E.02486
M73 Q13 S3
G1 X124.324 Y115.883 E.67107
G1 X123.674 Y115.883 E.02486
G1 X136.082 Y128.291 E.67104
G1 X135.432 Y128.291 E.02486
G1 X123.023 Y115.883 E.67107
G1 X122.373 Y115.883 E.02486
G1 X134.782 Y128.291 E.67107
G1 X134.131 Y128.291 E.0249
G1 X121.722 Y115.883 E.67107
G1 X121.072 Y115.883 E.02486
M73 P14 R3
G1 X133.481 Y128.291 E.67107
G1 X132.83 Y128.291 E.0249
M73 Q14 S3
G1 X120.299 Y115.76 E.6777
G1 X120.251 Y115.734 E.00209
G3 X119.769 Y115.88 I-.505 J-.8 E.01949
G1 X132.18 Y128.291 E.67121
G1 X131.53 Y128.291 E.02486
G1 X119.119 Y115.881 E.67118
G1 X118.469 Y115.881 E.02486
G1 X130.879 Y128.291 E.67115
G1 X130.229 Y128.291 E.02486
G1 X117.614 Y115.677 E.68221
M204 P2500
G1 E-.7 F2100
G1 X116.25 Y92.849 Z.599 F18000
G1 Z.2 F720
M73 P15 R3
G1 E.7 F1500
M204 P500
G1 F6000
G1 X114.558 Y91.157 E.09151
G1 X114.263 Y91.028 E.01231
G1 X113.757 Y90.921 E.01978
G1 X113.672 Y90.921 E.00325
G1 X116.158 Y93.408 E.13447
G3 X116.204 Y94.104 I-2.393 J.509 E.02677
M73 Q15 S3
G1 X113.06 Y90.96 E.17003
G2 X112.557 Y91.107 I.198 J1.614 E.02013
G1 X116.204 Y94.755 E.19726
G1 X116.204 Y95.405 E.02486
G1 X112.128 Y91.329 E.22044
G2 X111.759 Y91.611 I1.186 J1.937 E.01779
G1 X116.204 Y96.056 E.24039
G1 X116.204 Y96.706 E.02486
G1 X111.444 Y91.945 E.25746
G1 X111.436 Y91.953 E.00043
G1 X111.191 Y92.343 E.01761
G1 X116.204 Y97.356 E.27111
G1 X116.204 Y98.007 E.0249
G1 X110.992 Y92.795 E.28187
G2 X110.854 Y93.306 I1.8 J.761 E.0203
G1 X116.204 Y98.657 E.28936
G1 X116.204 Y99.308 E.0249
G1 X110.796 Y93.899 E.2925
G1 X110.795 Y94.549 E.02486
M73 P16 R3
G1 X116.204 Y99.958 E.29253
G1 X116.204 Y100.609 E.0249
G1 X110.795 Y95.199 E.29255
G1 X110.795 Y95.85 E.0249
M73 Q16 S3
G1 X116.204 Y101.259 E.29253
G1 X116.204 Y101.909 E.02486
G1 X110.795 Y96.5 E.29253
G1 X110.795 Y97.15 E.02486
G1 X116.204 Y102.56 E.29255
G1 X116.204 Y103.21 E.02486
G1 X110.795 Y97.801 E.29253
G1 X110.795 Y98.451 E.02486
G1 X116.204 Y103.861 E.29255
G1 X116.204 Y104.511 E.02486
G1 X110.795 Y99.101 E.29255
G1 X110.795 Y99.752 E.0249
G1 X116.204 Y105.161 E.29253
G1 X116.204 Y105.812 E.0249
G1 X110.794 Y100.402 E.29258
M73 P17 R3
G1 X110.794 Y101.052 E.02486
G1 X116.204 Y106.462 E.29258
G1 X116.204 Y107.113 E.0249
G1 X110.794 Y101.702 E.29261
G1 X110.794 Y102.353 E.0249
M73 Q17 S3
G1 X116.204 Y107.763 E.29258
G1 X116.204 Y108.413 E.02486
G1 X110.794 Y103.003 E.29258
G1 X110.794 Y103.653 E.02486
G1 X116.204 Y109.064 E.29261
G1 X116.204 Y109.714 E.02486
G1 X110.794 Y104.304 E.29258
G1 X110.794 Y104.954 E.02486
G1 X116.204 Y110.365 E.29261
G1 X116.204 Y111.015 E.02486
G1 X110.794 Y105.604 E.29261
G1 X110.794 Y106.255 E.0249
G1 X116.204 Y111.665 E.29258
G1 X116.204 Y112.316 E.0249
M73 P18 R3
G1 X110.793 Y106.905 E.29264
G1 X110.793 Y107.555 E.02486
G1 X116.204 Y112.966 E.29264
G1 X116.204 Y113.617 E.0249
M73 Q18 S3
G1 X110.793 Y108.205 E.29266
G1 X110.793 Y108.856 E.0249
G1 X116.41 Y114.473 E.30378
M204 P2500
G1 E-.7 F2100
G1 X110.587 Y109.3 Z.336 F18000
G1 Z.2 F720
G1 E.7 F1500
M204 P500
G1 F6000
G1 X116.217 Y114.93 E.30448
G2 X117.158 Y115.871 I1.048 J-.107 E.05508
G1 X129.578 Y128.291 E.67169
G1 X128.928 Y128.291 E.02486
G1 X110.793 Y110.156 E.98077
G1 X110.793 Y110.807 E.0249
G1 X128.278 Y128.291 E.94559
G1 X127.627 Y128.291 E.0249
M73 P19 R3
G1 X110.793 Y111.457 E.91041
G1 X110.793 Y112.107 E.02486
M73 Q19 S3
G1 X126.977 Y128.291 E.87526
G1 X126.326 Y128.291 E.0249
G1 X110.792 Y112.758 E.84008
G1 X110.792 Y113.408 E.02486
G1 X125.676 Y128.291 E.80492
G1 X125.025 Y128.291 E.0249
G1 X110.792 Y114.058 E.76974
G1 X110.792 Y114.708 E.02486
M73 P20 R3
G1 X124.375 Y128.291 E.73459
G1 X123.725 Y128.291 E.02486
G1 X110.695 Y115.261 E.70468
G3 X110.41 Y115.628 I-.938 J-.434 E.01792
M73 Q20 S3
G1 X123.074 Y128.291 E.68486
G1 X122.424 Y128.291 E.02486
