; generated by PrusaSlicer 2.9.2 on 2025-06-26 at 21:31:01 UTC


;
;

;
;

;
;

;
;
; 

; external perimeters extrusion width = 0.50mm
; perimeters extrusion width = 0.50mm
; infill extrusion width = 0.50mm
; solid infill extrusion width = 0.50mm
; top infill extrusion width = 0.42mm
; first layer extrusion width = 0.50mm

M73 P0 R23
M73 Q0 S25
M201 X4000 Y4000 Z200 E2500 ; sets maximum accelerations, mm/sec^2
M203 X300 Y300 Z40 E100 ; sets maximum feedrates, mm / sec
M204 P4000 R1200 T4000 ; sets acceleration (P, T) and retract acceleration (R), mm/sec^2
M205 X8.00 Y8.00 Z2.00 E10.00 ; sets the jerk limits, mm/sec
M205 S0 T0 ; sets the minimum extruding and travel feed rate, mm/sec

M486 S0
M486 ABobbin_Holder_and_Clip1.stl (Instance 3)
M486 S-1
M486 S1
M486 ABobbin_Holder_and_Clip1.stl (Instance 4)
M486 S-1
M486 S2
M486 ABobbin_Holder_and_Clip1.stl (Instance 5)
M486 S-1
M486 S3
M486 ABobbin_Holder_and_Clip1.stl (Instance 1)
M486 S-1
M486 S4
M486 ABobbin_Holder_and_Clip1.stl (Instance 2)
M486 S-1

;TYPE:Custom
M17 ; enable steppers
M862.1 P0.4 A0 F1 ; nozzle check
M862.3 P "MK4S" ; printer model check
M862.5 P2 ; g-code level check
M862.6 P"Input shaper" ; FW feature check
M115 U6.2.4+8909

M555 X93.7535 Y44.0468 W62.493 H117.912

G90 ; use absolute coordinates
M83 ; extruder relative mode

M140 S60 ; set bed temp
M104 T0 S170 ; set extruder temp for bed leveling
M109 T0 R170 ; wait for temp

M84 E ; turn off E motor

G28 ; home all without mesh bed level

G1 X42 Y-4 Z5 F4800

M302 S155 ; lower cold extrusion limit to 155C


G1 E-2 F2400 ; retraction


M84 E ; turn off E motor

G29 P9 X10 Y-4 W32 H4

M106 S100

G0 Z40 F10000

M190 S60 ; wait for bed temp

M107

;
; MBL
;
M84 E ; turn off E motor
G29 P1 ; invalidate mbl & probe print area
G29 P1 X0 Y0 W50 H20 C ; probe near purge place
G29 P3.2 ; interpolate mbl probes
G29 P3.13 ; extrapolate mbl outside probe area
G29 A ; activate mbl

; prepare for purge
M104 S230
G0 X0 Y-4 Z15 F4800 ; move away and ready for the purge
M109 S230

G92 E0
M569 S0 E ; set spreadcycle mode for extruder

;
; Extrude purge line
;
G92 E0 ; reset extruder position
G1 E2 F2400 ; deretraction after the initial one before nozzle cleaning
G0 E7 X15 Z0.2 F500 ; purge
G0 X25 E4 F500 ; purge
G0 X35 E4 F650 ; purge
G0 X45 E4 F800 ; purge
G0 X48 Z0.05 F8000 ; wipe, move close to the bed
G0 X51 Z0.2 F8000 ; wipe, move quickly away from the bed

G92 E0
M221 S100 ; set flow to 100%
G21 ; set units to millimeters
G90 ; use absolute coordinates
M83 ; use relative distances for extrusion
M572 S0.036 ; Filament gcode

M142 S36 ; set heatbreak target temp
M107
;LAYER_CHANGE
;Z:0.2
;HEIGHT:0.2
G1 E-.7 F2100
G1 Z.8 F720
M486 S2
G1 X133.377 Y57.883 F18000
G1 Z.2 F720
G1 E.7 F1500
M204 P500
;TYPE:Perimeter
;WIDTH:0.499999
G1 F2400
G1 X133.141 Y57.773 E.0099
G1 X133.453 Y57.628 E.01308
G2 X133.616 Y57.185 I-.672 J-.497 E.01819
G1 X133.616 Y56.951 E.00889
G2 X137.21 Y56.924 I1.052 J-98.719 E.13661
G1 X137.928 Y56.811 E.02762
G1 X137.83 Y57.167 E.01403
G1 X137.694 Y58.085 E.03527
G1 X137.645 Y58.118 E.00225
G1 X137.568 Y58.432 E.01229
G1 X137.568 Y59.659 E.04663
G1 X137.64 Y59.964 E.01191
G1 X137.691 Y59.998 E.00233
G2 X137.93 Y61.277 I8.422 J-.914 E.0495
G2 X136.885 Y61.153 I-1.327 J6.721 E.04003
G2 X133.616 Y61.137 I-2.237 J122.001 E.12425
G2 X133.562 Y60.635 I-1.542 J-.088 E.01928
G1 X133.454 Y60.46 E.00782
G1 X133.145 Y60.316 E.01296
G1 X133.454 Y60.173 E.01294
M73 Q0 S24
G2 X133.616 Y59.73 I-.673 J-.497 E.01817
G1 X133.616 Y58.361 E.05203
G2 X133.453 Y57.918 I-.835 J.055 E.01819
G1 X133.431 Y57.908 E.00092
M204 P2500
M204 T4000
G1 X133.078 Y58.211 F18000
M204 P500
;TYPE:External perimeter
;WIDTH:0.543618
G1 F2400
G1 X133.07 Y58.204 E.00044
;WIDTH:0.587237
G1 X133 Y58.135 E.00445
;WIDTH:0.630856
G1 X132.93 Y58.067 E.00477
G1 X126.362 Y58.066 E.32109
;WIDTH:0.629877
G1 X126.288 Y58.064 E.00361
;WIDTH:0.629233
G1 X125.43 Y57.995 E.04196
;WIDTH:0.625478
G1 X124.759 Y57.857 E.03318
;WIDTH:0.627429
G3 X123.339 Y57.371 I2.746 J-10.358 E.073
;WIDTH:0.628079
G1 X121.527 Y56.744 E.09329
G1 X119.672 Y56.201 E.09404
;WIDTH:0.623927
G1 X119.659 Y56.198 E.00064
;WIDTH:0.62973
G1 X117.792 Y55.751 E.09367
;WIDTH:0.629877
G1 X115.893 Y55.394 E.09431
;WIDTH:0.627949
G1 X115.879 Y55.391 E.0007
;WIDTH:0.62995
G1 X113.963 Y55.127 E.09441
;WIDTH:0.630693
G1 X112.052 Y54.961 E.09375
;WIDTH:0.630821
G1 X110.121 Y54.882 E.09447
;WIDTH:0.62641
G1 X94.639 Y54.884 E.75115
;WIDTH:0.625717
G1 X94.349 Y54.884 E.01405
G1 X94.347 Y54.301 E.02825
G1 X94.639 Y54.301 E.01415
;WIDTH:0.62641
G1 X110.14 Y54.301 E.75207
;WIDTH:0.630693
G1 X112.062 Y54.373 E.094
G1 X114.013 Y54.545 E.09572
;WIDTH:0.62995
G1 X115.959 Y54.812 E.09588
;WIDTH:0.627949
G1 X115.999 Y54.818 E.00197
;WIDTH:0.62973
G1 X117.886 Y55.171 E.09367
G1 X119.794 Y55.633 E.09579
;WIDTH:0.623932
G1 X119.832 Y55.643 E.0019
;WIDTH:0.628123
G1 X121.718 Y56.191 E.09557
G1 X123.53 Y56.819 E.09332
;WIDTH:0.627272
G1 X123.561 Y56.83 E.0016
;WIDTH:0.629771
G1 X124.446 Y57.165 E.04618
;WIDTH:0.63295
G1 X125.259 Y57.372 E.04116
;WIDTH:0.635455
G2 X126.362 Y57.479 I1.41 J-8.785 E.05463
;WIDTH:0.630855
G1 X132.93 Y57.479 E.32109
G1 X132.988 Y57.43 E.00371
;WIDTH:0.587237
G1 X133.046 Y57.382 E.00341
;WIDTH:0.543618
G1 X133.104 Y57.333 E.00316
;WIDTH:0.499999
G1 X133.159 Y57.185 E.006
G1 X133.159 Y56.494 E.02626
G2 X137.151 Y56.47 I1.229 J-130.926 E.15173
G2 X138.224 Y56.249 I-.43 J-4.788 E.04173
;WIDTH:0.472784
G1 X138.274 Y56.131 E.00458
;WIDTH:0.442746
G1 X138.324 Y56.014 E.00423
;WIDTH:0.428806
G1 X138.471 Y55.536 E.01605
G1 X138.926 Y54.44 E.03808
;WIDTH:0.42859
G1 X139.5 Y53.402 E.03804
;WIDTH:0.428385
G1 X140.187 Y52.435 E.03802
;WIDTH:0.428138
G1 X140.979 Y51.552 E.03799
;WIDTH:0.42721
G1 X141.864 Y50.762 E.03791
;WIDTH:0.426633
G1 X142.831 Y50.076 E.03783
;WIDTH:0.425671
G1 X143.87 Y49.502 E.03778
;WIDTH:0.425072
G1 X144.805 Y49.111 E.0322
;WIDTH:0.424027
G1 X144.957 Y49.052 E.00517
G1 X145.982 Y48.754 E.03383
;WIDTH:0.422775
G1 X146.097 Y48.723 E.00376
G1 X147.191 Y48.535 E.03506
;WIDTH:0.422154
G1 X148.418 Y48.458 E.03877
;WIDTH:0.420824
G1 X148.481 Y48.459 E.00198
;WIDTH:0.420556
G1 X149.511 Y48.525 E.03241
;WIDTH:0.425277
G1 X149.929 Y48.564 E.01335
;WIDTH:0.429573
G1 X150.999 Y48.767 E.03501
G1 X151.766 Y49.007 E.02584
;WIDTH:0.453362
G1 X153.041 Y49.447 E.04603
;WIDTH:0.459492
G1 X153.123 Y49.477 E.00302
;WIDTH:0.485474
G1 X153.503 Y49.601 E.01471
;WIDTH:0.511456
G1 X153.884 Y49.724 E.0156
;WIDTH:0.512914
G1 X154.452 Y49.828 E.02257
G1 X154.828 Y49.787 E.01478
;WIDTH:0.510172
G1 X155.154 Y49.63 E.01406
;WIDTH:0.496397
G1 X155.502 Y49.261 E.01913
;WIDTH:0.478406
G1 X155.587 Y49.066 E.0077
;WIDTH:0.456616
G1 X155.737 Y48.425 E.02265
;WIDTH:0.430663
G1 X155.863 Y48.424 E.00406
G1 X156.02 Y48.725 E.01095
G1 X156.026 Y48.896 E.00552
;WIDTH:0.456616
G1 X155.982 Y49.176 E.00975
;WIDTH:0.478406
G1 X155.838 Y49.535 E.01401
;WIDTH:0.5021
G1 X155.467 Y49.97 E.02183
;WIDTH:0.508608
G1 X154.972 Y50.231 E.02167
;WIDTH:0.514677
G1 X154.466 Y50.303 E.02005
;WIDTH:0.524277
G1 X153.941 Y50.23 E.02122
G1 X153.712 Y50.157 E.00962
;WIDTH:0.508093
G1 X153.314 Y49.998 E.01658
;WIDTH:0.481524
G1 X152.915 Y49.838 E.01568
;WIDTH:0.454954
G1 X151.641 Y49.35 E.04674
;WIDTH:0.408191
G1 X151.62 Y49.343 E.00067
;WIDTH:0.417406
G1 X150.568 Y49.06 E.03392
G1 X149.49 Y48.889 E.03399
;WIDTH:0.420556
G1 X148.459 Y48.836 E.03242
;WIDTH:0.420824
G1 X148.44 Y48.836 E.0006
;WIDTH:0.422154
G1 X147.256 Y48.907 E.0374
;WIDTH:0.422775
G1 X146.09 Y49.114 E.0374
;WIDTH:0.424027
G1 X144.954 Y49.456 E.03759
;WIDTH:0.425072
G1 X143.862 Y49.928 E.0378
;WIDTH:0.416779
G1 X142.836 Y50.522 E.03685
;WIDTH:0.415886
G1 X141.886 Y51.232 E.03678
;WIDTH:0.4153
G1 X141.024 Y52.048 E.03675
;WIDTH:0.414842
G1 X140.263 Y52.957 E.03666
;WIDTH:0.414481
G1 X139.612 Y53.949 E.03666
;WIDTH:0.413691
G1 X139.082 Y55.01 E.03656
;WIDTH:0.413465
G1 X138.677 Y56.125 E.03655
;WIDTH:0.456458
G1 X138.581 Y56.388 E.00963
;WIDTH:0.499999
G1 X138.282 Y57.235 E.03414
G1 X138.128 Y58.277 E.04003
G2 X138.026 Y58.432 I.059 J.15 E.00751
G2 X138.049 Y59.761 I20.438 J.298 E.05053
G1 X138.128 Y59.813 E.00359
G2 X138.332 Y61.052 I10.594 J-1.108 E.04775
G1 X138.495 Y61.466 E.01691
;WIDTH:0.457378
G1 X138.658 Y61.88 E.01533
;WIDTH:0.428806
G2 X139.267 Y63.46 I14.523 J-4.692 E.05436
;WIDTH:0.428589
G1 X139.819 Y64.46 E.03663
;WIDTH:0.428385
G1 X140.478 Y65.392 E.03659
;WIDTH:0.428138
G1 X141.239 Y66.245 E.03662
;WIDTH:0.42721
G1 X142.089 Y67.008 E.0365
;WIDTH:0.426633
G1 X143.02 Y67.67 E.03645
;WIDTH:0.425672
G1 X144.019 Y68.225 E.03637
;WIDTH:0.425072
G1 X144.951 Y68.623 E.0322
;WIDTH:0.424029
G1 X146.088 Y68.966 E.03763
;WIDTH:0.422775
G1 X147.255 Y69.173 E.03744
;WIDTH:0.422153
G1 X148.439 Y69.244 E.0374
;WIDTH:0.420827
G1 X148.802 Y69.24 E.01141
;WIDTH:0.414822
G1 X149.889 Y69.139 E.03376
;WIDTH:0.432274
G2 X151.228 Y68.855 I-4.887 J-26.377 E.04432
;WIDTH:0.420073
G1 X152.29 Y68.498 E.03514
;WIDTH:0.42183
G1 X152.312 Y68.49 E.00074
;WIDTH:0.454325
G1 X152.738 Y68.302 E.01593
;WIDTH:0.486819
G1 X153.164 Y68.113 E.0172
;WIDTH:0.509831
G1 X153.775 Y67.896 E.02517
;WIDTH:0.51869
G1 X154.333 Y67.787 E.02249
G1 X154.745 Y67.799 E.01631
;WIDTH:0.515911
G1 X155.229 Y67.953 E.01998
;WIDTH:0.512903
G1 X155.629 Y68.268 E.0199
;WIDTH:0.49801
G1 X155.856 Y68.581 E.01463
;WIDTH:0.478062
G1 X156.008 Y69.005 E.0163
;WIDTH:0.445309
G1 X155.987 Y69.517 E.01715
G1 X155.881 Y69.649 E.00566
G1 X155.777 Y69.634 E.00352
G1 X155.749 Y69.533 E.00351
;WIDTH:0.448922
G1 X155.567 Y68.954 E.02049
;WIDTH:0.492794
G1 X155.371 Y68.655 E.01337
;WIDTH:0.496465
G1 X155.139 Y68.454 E.01158
;WIDTH:0.499788
G1 X154.849 Y68.304 E.0124
;WIDTH:0.51869
G1 X154.408 Y68.256 E.01755
G1 X153.77 Y68.383 E.02573
;WIDTH:0.506361
G1 X153.112 Y68.6 E.0267
;WIDTH:0.469795
G1 X152.409 Y68.856 E.02656
;WIDTH:0.420073
G1 X151.348 Y69.206 E.03504
;WIDTH:0.432274
G1 X150.971 Y69.318 E.01273
G1 X149.959 Y69.504 E.03331
;WIDTH:0.42967
G1 X149.546 Y69.567 E.01344
G1 X148.418 Y69.621 E.03632
;WIDTH:0.422153
G1 X147.193 Y69.544 E.0387
;WIDTH:0.422775
G1 X146.107 Y69.358 E.0348
G1 X145.986 Y69.327 E.00395
;WIDTH:0.424029
G1 X144.967 Y69.03 E.03364
G1 X144.81 Y68.97 E.00533
;WIDTH:0.425072
G1 X143.87 Y68.577 E.03237
G1 X143.678 Y68.477 E.00688
M73 P1 R23
;WIDTH:0.416779
G1 X142.617 Y67.859 E.03817
;WIDTH:0.415886
G1 X141.634 Y67.122 E.0381
;WIDTH:0.4153
G1 X140.743 Y66.276 E.03804
;WIDTH:0.414843
G1 X139.956 Y65.332 E.03801
;WIDTH:0.414481
G1 X139.284 Y64.303 E.03797
;WIDTH:0.413692
G1 X138.736 Y63.204 E.03786
;WIDTH:0.428806
G1 X138.464 Y62.524 E.0235
;WIDTH:0.455788
G1 X138.345 Y62.178 E.01256
;WIDTH:0.482769
G1 X138.227 Y61.833 E.01334
;WIDTH:0.499999
G1 X138.172 Y61.803 E.00238
G2 X136.875 Y61.61 I-1.594 J6.248 E.04992
G2 X133.159 Y61.594 I-2.515 J151.98 E.14124
G1 X133.141 Y60.813 E.02969
;WIDTH:0.542912
G1 X133.07 Y60.745 E.00409
;WIDTH:0.585825
G1 X133 Y60.677 E.00441
;WIDTH:0.628737
G1 X132.93 Y60.609 E.00475
;WIDTH:0.629593
G1 X126.322 Y60.611 E.32235
;WIDTH:0.629259
G1 X125.521 Y60.669 E.03915
M73 Q1 S24
;WIDTH:0.625908
G1 X124.799 Y60.813 E.03569
;WIDTH:0.638185
G1 X123.533 Y61.271 E.06664
;WIDTH:0.627995
G3 X119.84 Y62.449 I-17.135 J-47.355 E.18863
;WIDTH:0.622518
G1 X119.797 Y62.461 E.00215
;WIDTH:0.62343
G1 X118.702 Y62.724 E.05436
;WIDTH:0.629606
G3 X116.005 Y63.275 I-9.871 J-41.466 E.13431
;WIDTH:0.623884
G1 X115.959 Y63.282 E.00225
;WIDTH:0.630935
G1 X114.053 Y63.541 E.09405
G1 X112.103 Y63.712 E.09571
;WIDTH:0.629879
G1 X109.765 Y63.792 E.11417
;WIDTH:0.626583
G1 X109.631 Y63.793 E.0065
;WIDTH:0.630785
G1 X94.353 Y63.791 E.74681
G1 X94.354 Y63.203 E.02874
G1 X109.632 Y63.211 E.74681
;WIDTH:0.626583
G1 X109.745 Y63.208 E.00549
;WIDTH:0.629932
G1 X112.052 Y63.127 E.11267
;WIDTH:0.631027
G2 X115.878 Y62.707 I-3.902 J-53.137 E.18826
;WIDTH:0.623892
G1 X115.894 Y62.704 E.00079
;WIDTH:0.629606
G2 X118.563 Y62.16 I-9.777 J-54.779 E.13289
;WIDTH:0.623463
G1 X119.661 Y61.897 E.0545
;WIDTH:0.622518
G1 X119.674 Y61.894 E.00064
;WIDTH:0.627995
G2 X123.342 Y60.721 I-14.821 J-52.672 E.18739
;WIDTH:0.625942
G1 X123.355 Y60.716 E.00068
;WIDTH:0.638185
G3 X124.527 Y60.284 I6.298 J15.286 E.06184
;WIDTH:0.632136
G1 X125.074 Y60.152 E.02757
;WIDTH:0.635718
G3 X126.359 Y60.023 I1.475 J8.229 E.06372
;WIDTH:0.629593
G1 X132.93 Y60.023 E.32055
;WIDTH:0.628737
G1 X132.988 Y59.975 E.00367
;WIDTH:0.585825
G1 X133.046 Y59.926 E.00343
;WIDTH:0.542912
G1 X133.105 Y59.878 E.00316
;WIDTH:0.499999
G1 X133.158 Y59.73 E.00597
G2 X133.14 Y58.272 I-32.314 J-.328 E.05542
;WIDTH:0.543618
G1 X133.121 Y58.253 E.00112
M204 P2500
G1 X132.761 Y58.079 F18000
G1 E-.7 F2100
G1 X137.543 Y57.859 Z.284 F18000
G1 Z.2 F720
G1 E.7 F1500
M204 P500
;TYPE:Solid infill
;WIDTH:0.505767
G1 F6000
G1 X137.005 Y57.321 E.02928
G1 X136.364 Y57.335 E.02468
G1 X137.227 Y58.197 E.04694
G1 X137.181 Y58.369 E.00685
G1 X137.181 Y58.806 E.01682
G1 X135.714 Y57.339 E.07984
G1 X135.059 Y57.339 E.02521
G1 X137.18 Y59.46 E.11544
G1 X137.181 Y59.723 E.01012
G1 X137.296 Y60.165 E.01758
G3 X137.334 Y60.268 I-.058 J.08 E.00448
G1 X134.405 Y57.339 E.15942
G1 X133.975 Y57.339 E.01655
G1 X133.938 Y57.527 E.00737
G1 X137.185 Y60.774 E.17673
G1 X136.513 Y60.756 E.02587
G1 X133.979 Y58.223 E.13789
G1 X134.004 Y58.345 E.00479
G1 X134.004 Y58.902 E.02144
G1 X135.851 Y60.749 E.10053
G1 X135.196 Y60.748 E.02521
G1 X134.004 Y59.557 E.06485
G3 X133.926 Y60.133 I-1.946 J.029 E.02245
G1 X134.747 Y60.954 E.04468
M204 P2500
G1 E-.7 F2100
G1 X116.887 Y80.558 Z.663 F18000
M486 S-1
M486 S4
G1 X116.619 Y80.852 Z.67
G1 Z.2 F720
G1 E.7 F1500
M204 P500
;TYPE:Perimeter
;WIDTH:0.499999
G1 F2400
G1 X116.546 Y80.89 E.00313
G2 X116.384 Y81.332 I.673 J.497 E.01814
G1 X116.384 Y82.702 E.05207
G2 X116.547 Y83.145 I.835 J-.055 E.01819
G1 X116.827 Y83.29 E.01198
G1 X116.547 Y83.435 E.01198
G2 X116.384 Y83.878 I.672 J.497 E.01819
G1 X116.384 Y84.112 E.00889
G2 X112.79 Y84.139 I-1.052 J98.71 E.13661
G1 X112.072 Y84.252 E.02762
G1 X112.17 Y83.895 E.01407
G1 X112.306 Y82.978 E.03523
G1 X112.355 Y82.945 E.00225
G1 X112.432 Y82.63 E.01232
G1 X112.432 Y81.404 E.0466
G1 X112.36 Y81.099 E.01191
G1 X112.309 Y81.065 E.00233
G2 X112.07 Y79.786 I-8.422 J.914 E.0495
G2 X113.115 Y79.91 I1.327 J-6.722 E.04003
G2 X116.384 Y79.926 I2.237 J-121.986 E.12425
G2 X116.438 Y80.427 I1.542 J.088 E.01924
G1 X116.546 Y80.603 E.00785
G1 X116.823 Y80.747 E.01187
G1 X116.672 Y80.825 E.00646
M204 P2500
G1 X116.917 Y81.167 F18000
M204 P500
;TYPE:External perimeter
;WIDTH:0.542912
G1 F2400
G1 X116.895 Y81.185 E.00118
;WIDTH:0.499999
G1 X116.842 Y81.332 E.00594
G2 X116.86 Y82.791 I32.314 J.329 E.05546
;WIDTH:0.544367
G1 X116.921 Y82.859 E.00381
;WIDTH:0.588734
G1 X116.983 Y82.928 E.00421
;WIDTH:0.633101
G1 X117.044 Y82.996 E.00448
G1 X123.638 Y82.997 E.32359
;WIDTH:0.629876
G1 X123.712 Y82.999 E.00361
;WIDTH:0.629232
G1 X124.57 Y83.068 E.04196
;WIDTH:0.625477
G1 X125.241 Y83.206 E.03318
;WIDTH:0.627429
G3 X126.661 Y83.692 I-2.746 J10.358 E.073
;WIDTH:0.628079
G1 X128.473 Y84.319 E.09329
G1 X130.328 Y84.862 E.09404
;WIDTH:0.623927
G1 X130.341 Y84.865 E.00064
;WIDTH:0.62973
G1 X132.208 Y85.312 E.09367
;WIDTH:0.629878
G1 X134.107 Y85.669 E.09431
;WIDTH:0.627949
G1 X134.121 Y85.671 E.00069
;WIDTH:0.62995
G1 X136.037 Y85.936 E.09441
;WIDTH:0.630694
G1 X137.948 Y86.102 E.09375
;WIDTH:0.630822
G1 X139.879 Y86.181 E.09447
;WIDTH:0.62641
G1 X155.36 Y86.179 E.7511
;WIDTH:0.625751
G1 X155.651 Y86.179 E.0141
G1 X155.652 Y86.762 E.02825
G1 X155.36 Y86.762 E.01415
;WIDTH:0.62641
G1 X139.86 Y86.762 E.75202
;WIDTH:0.630694
G1 X137.938 Y86.69 E.094
G1 X135.987 Y86.518 E.09572
;WIDTH:0.62995
G1 X134.041 Y86.251 E.09588
;WIDTH:0.627949
G1 X134.001 Y86.244 E.00198
;WIDTH:0.62973
G1 X132.114 Y85.892 E.09366
G1 X130.206 Y85.43 E.09579
;WIDTH:0.623933
G1 X130.168 Y85.42 E.0019
;WIDTH:0.628124
G1 X128.282 Y84.872 E.09557
G1 X126.47 Y84.244 E.09332
;WIDTH:0.627272
G1 X126.439 Y84.232 E.00162
;WIDTH:0.629771
G1 X125.554 Y83.898 E.04616
;WIDTH:0.632951
G1 X124.741 Y83.691 E.04116
;WIDTH:0.635455
G2 X123.638 Y83.583 I-1.41 J8.785 E.05464
;WIDTH:0.630854
