; generated by PrusaSlicer 2.9.2 on 2025-06-26 at 21:31:23 UTC


;
;

;
;

;
;

;
;
; 

; external perimeters extrusion width = 0.50mm
; perimeters extrusion width = 0.50mm
; infill extrusion width = 0.50mm
; solid infill extrusion width = 0.50mm
; top infill extrusion width = 0.42mm
; first layer extrusion width = 0.50mm

M73 P0 R5
M73 Q0 S6
M201 X4000 Y4000 Z200 E2500 ; sets maximum accelerations, mm/sec^2
M203 X300 Y300 Z40 E100 ; sets maximum feedrates, mm / sec
M204 P4000 R1200 T4000 ; sets acceleration (P, T) and retract acceleration (R), mm/sec^2
M205 X8.00 Y8.00 Z2.00 E10.00 ; sets the jerk limits, mm/sec
M205 S0 T0 ; sets the minimum extruding and travel feed rate, mm/sec

M486 S0
M486 ABobbin_Holder_and_Clip1.stl
M486 S-1

;TYPE:Custom
M17 ; enable steppers
M862.1 P0.4 A0 F1 ; nozzle check
M862.3 P "MK4S" ; printer model check
M862.5 P2 ; g-code level check
M862.6 P"Input shaper" ; FW feature check
M115 U6.2.4+8909

M555 X93.8337 Y90.0079 W62.4128 H25.99

G90 ; use absolute coordinates
M83 ; extruder relative mode

M140 S60 ; set bed temp
M104 T0 S170 ; set extruder temp for bed leveling
M109 T0 R170 ; wait for temp

M84 E ; turn off E motor

G28 ; home all without mesh bed level

G1 X42 Y-4 Z5 F4800

M302 S155 ; lower cold extrusion limit to 155C


G1 E-2 F2400 ; retraction


M84 E ; turn off E motor

G29 P9 X10 Y-4 W32 H4

M106 S100

G0 Z40 F10000

M190 S60 ; wait for bed temp

M107

;
; MBL
;
M84 E ; turn off E motor
G29 P1 ; invalidate mbl & probe print area
G29 P1 X0 Y0 W50 H20 C ; probe near purge place
G29 P3.2 ; interpolate mbl probes
G29 P3.13 ; extrapolate mbl outside probe area
G29 A ; activate mbl

; prepare for purge
M104 S230
G0 X0 Y-4 Z15 F4800 ; move away and ready for the purge
M73 Q0 S5
M109 S230

G92 E0
M569 S0 E ; set spreadcycle mode for extruder

;
; Extrude purge line
;
G92 E0 ; reset extruder position
G1 E2 F2400 ; deretraction after the initial one before nozzle cleaning
G0 E7 X15 Z0.2 F500 ; purge
G0 X25 E4 F500 ; purge
M73 P1 R5
M73 Q1 S5
G0 X35 E4 F650 ; purge
G0 X45 E4 F800 ; purge
M73 P2 R5
M73 Q2 S5
G0 X48 Z0.05 F8000 ; wipe, move close to the bed
G0 X51 Z0.2 F8000 ; wipe, move quickly away from the bed

G92 E0
M221 S100 ; set flow to 100%
G21 ; set units to millimeters
G90 ; use absolute coordinates
M83 ; use relative distances for extrusion
M572 S0.036 ; Filament gcode

M142 S36 ; set heatbreak target temp
M107
;LAYER_CHANGE
;Z:0.2
;HEIGHT:0.2
G1 E-.7 F2100
G1 Z.8 F720
M486 S0
G1 X133.377 Y103.844 F18000
G1 Z.2 F720
G1 E.7 F1500
M204 P500
;TYPE:Perimeter
;WIDTH:0.499999
G1 F2400
G1 X133.141 Y103.734 E.0099
G1 X133.453 Y103.589 E.01308
G2 X133.616 Y103.146 I-.672 J-.497 E.01819
G1 X133.616 Y102.912 E.00889
G2 X137.21 Y102.885 I1.052 J-98.719 E.13661
G1 X137.928 Y102.772 E.02762
G1 X137.83 Y103.128 E.01403
G1 X137.694 Y104.046 E.03527
G1 X137.645 Y104.079 E.00225
G1 X137.568 Y104.394 E.01232
G1 X137.568 Y105.62 E.0466
G1 X137.64 Y105.925 E.01191
G1 X137.691 Y105.959 E.00233
G2 X137.93 Y107.238 I8.422 J-.914 E.0495
G2 X136.885 Y107.114 I-1.327 J6.722 E.04003
G2 X133.616 Y107.098 I-2.237 J122.002 E.12425
G2 X133.562 Y106.597 I-1.542 J-.088 E.01924
G1 X133.454 Y106.421 E.00785
G1 X133.145 Y106.277 E.01296
G1 X133.454 Y106.134 E.01294
G2 X133.616 Y105.692 I-.673 J-.497 E.01814
G1 X133.616 Y104.322 E.05207
G2 X133.453 Y103.879 I-.835 J.055 E.01819
G1 X133.431 Y103.869 E.00092
M204 P2500
M204 T4000
G1 X133.078 Y104.172 F18000
M204 P500
;TYPE:External perimeter
;WIDTH:0.543618
G1 F2400
G1 X133.07 Y104.165 E.00044
;WIDTH:0.587237
G1 X133 Y104.096 E.00445
;WIDTH:0.630856
G1 X132.93 Y104.028 E.00477
G1 X126.362 Y104.027 E.32109
;WIDTH:0.629877
G1 X126.288 Y104.025 E.00361
;WIDTH:0.629233
G1 X125.43 Y103.956 E.04196
;WIDTH:0.625478
G1 X124.759 Y103.818 E.03318
;WIDTH:0.627429
G3 X123.339 Y103.332 I2.746 J-10.358 E.073
;WIDTH:0.628079
G1 X121.527 Y102.705 E.09329
G1 X119.672 Y102.162 E.09404
;WIDTH:0.623927
G1 X119.659 Y102.159 E.00064
;WIDTH:0.62973
G1 X117.792 Y101.712 E.09367
;WIDTH:0.629877
G1 X115.893 Y101.355 E.09431
;WIDTH:0.627949
G1 X115.879 Y101.353 E.00069
;WIDTH:0.62995
G1 X113.963 Y101.088 E.09441
;WIDTH:0.630693
G1 X112.052 Y100.922 E.09375
;WIDTH:0.630821
G1 X110.121 Y100.843 E.09447
;WIDTH:0.62641
G1 X94.639 Y100.845 E.75115
;WIDTH:0.625717
G1 X94.349 Y100.845 E.01405
M73 Q3 S5
G1 X94.347 Y100.262 E.02825
G1 X94.639 Y100.262 E.01415
M73 P3 R5
;WIDTH:0.62641
G1 X110.14 Y100.262 E.75207
;WIDTH:0.630693
G1 X112.062 Y100.334 E.094
G1 X114.013 Y100.506 E.09572
;WIDTH:0.62995
G1 X115.959 Y100.773 E.09588
;WIDTH:0.627949
G1 X115.999 Y100.78 E.00198
;WIDTH:0.62973
G1 X117.886 Y101.132 E.09366
G1 X119.794 Y101.594 E.09579
;WIDTH:0.623932
G1 X119.832 Y101.604 E.0019
;WIDTH:0.628123
G1 X121.718 Y102.152 E.09557
G1 X123.53 Y102.78 E.09332
;WIDTH:0.627272
G1 X123.561 Y102.791 E.0016
;WIDTH:0.629771
G1 X124.446 Y103.126 E.04618
;WIDTH:0.63295
G1 X125.259 Y103.333 E.04116
;WIDTH:0.635455
G2 X126.362 Y103.44 I1.41 J-8.785 E.05463
;WIDTH:0.630855
G1 X132.93 Y103.44 E.32109
G1 X132.988 Y103.391 E.00371
;WIDTH:0.587237
G1 X133.046 Y103.343 E.00341
;WIDTH:0.543618
G1 X133.104 Y103.294 E.00316
;WIDTH:0.499999
G1 X133.158 Y103.146 E.00599
G1 X133.158 Y102.455 E.02626
G2 X137.151 Y102.431 I1.23 J-130.926 E.15177
G2 X138.224 Y102.21 I-.43 J-4.788 E.04173
;WIDTH:0.472784
G1 X138.274 Y102.093 E.00455
;WIDTH:0.442746
G1 X138.324 Y101.975 E.00426
;WIDTH:0.428806
G1 X138.471 Y101.497 E.01605
G1 X138.926 Y100.402 E.03805
;WIDTH:0.42859
G1 X139.5 Y99.363 E.03807
;WIDTH:0.428385
G1 X140.187 Y98.397 E.03799
;WIDTH:0.428138
G1 X140.979 Y97.513 E.03802
;WIDTH:0.42721
G1 X141.864 Y96.723 E.03791
;WIDTH:0.426633
G1 X142.831 Y96.037 E.03783
;WIDTH:0.425671
G1 X143.87 Y95.464 E.03776
;WIDTH:0.425072
G1 X144.805 Y95.073 E.0322
;WIDTH:0.424027
G1 X144.957 Y95.013 E.00518
G1 X145.982 Y94.715 E.03383
;WIDTH:0.422775
G1 X146.097 Y94.684 E.00376
G1 X147.191 Y94.497 E.03506
;WIDTH:0.422154
G1 X148.418 Y94.42 E.03877
;WIDTH:0.420824
G1 X148.481 Y94.42 E.00198
;WIDTH:0.420556
G1 X149.511 Y94.486 E.03241
;WIDTH:0.425277
G1 X149.929 Y94.525 E.01335
;WIDTH:0.429573
G1 X150.999 Y94.728 E.03501
G1 X151.766 Y94.968 E.02584
;WIDTH:0.453362
G1 X153.041 Y95.409 E.04604
;WIDTH:0.459492
G1 X153.123 Y95.438 E.00301
;WIDTH:0.485474
G1 X153.503 Y95.562 E.01471
;WIDTH:0.511456
G1 X153.884 Y95.686 E.01561
;WIDTH:0.512914
G1 X154.452 Y95.789 E.02256
G1 X154.828 Y95.748 E.01478
;WIDTH:0.510172
G1 X155.154 Y95.591 E.01406
;WIDTH:0.496397
G1 X155.502 Y95.222 E.01913
;WIDTH:0.478406
G1 X155.587 Y95.027 E.0077
;WIDTH:0.456616
G1 X155.737 Y94.386 E.02265
;WIDTH:0.430663
G1 X155.863 Y94.386 E.00406
G1 X156.02 Y94.686 E.01092
G1 X156.026 Y94.857 E.00552
;WIDTH:0.456616
G1 X155.982 Y95.137 E.00975
;WIDTH:0.478406
G1 X155.838 Y95.496 E.01401
;WIDTH:0.5021
G1 X155.467 Y95.931 E.02183
;WIDTH:0.508608
G1 X154.972 Y96.192 E.02167
;WIDTH:0.514677
G1 X154.466 Y96.264 E.02005
;WIDTH:0.524277
G1 X153.941 Y96.191 E.02122
G1 X153.712 Y96.119 E.00961
;WIDTH:0.508093
G1 X153.314 Y95.959 E.01659
;WIDTH:0.481524
G1 X152.915 Y95.799 E.01568
;WIDTH:0.454954
G1 X151.641 Y95.311 E.04674
;WIDTH:0.408191
G1 X151.62 Y95.304 E.00067
;WIDTH:0.417406
G1 X150.568 Y95.021 E.03392
G1 X149.49 Y94.85 E.03399
;WIDTH:0.420556
G1 X148.459 Y94.797 E.03242
;WIDTH:0.420824
G1 X148.44 Y94.797 E.0006
;WIDTH:0.422154
G1 X147.256 Y94.868 E.0374
;WIDTH:0.422775
G1 X146.09 Y95.075 E.0374
;WIDTH:0.424027
G1 X144.954 Y95.417 E.03759
;WIDTH:0.425072
G1 X143.862 Y95.889 E.0378
;WIDTH:0.416779
G1 X142.836 Y96.483 E.03685
;WIDTH:0.415886
G1 X141.886 Y97.193 E.03678
;WIDTH:0.4153
G1 X141.024 Y98.009 E.03675
;WIDTH:0.414842
G1 X140.263 Y98.918 E.03666
;WIDTH:0.414481
G1 X139.612 Y99.91 E.03666
;WIDTH:0.413691
G1 X139.082 Y100.971 E.03656
;WIDTH:0.413465
G1 X138.677 Y102.086 E.03655
;WIDTH:0.456458
G1 X138.581 Y102.349 E.00963
;WIDTH:0.499999
G1 X138.282 Y103.196 E.03414
G1 X138.128 Y104.238 E.04003
G2 X138.026 Y104.394 I.059 J.15 E.00755
G2 X138.049 Y105.722 I20.438 J.297 E.05049
G1 X138.128 Y105.774 E.00359
G2 X138.332 Y107.013 I10.594 J-1.108 E.04775
G1 X138.495 Y107.427 E.01691
;WIDTH:0.457378
G1 X138.658 Y107.841 E.01533
;WIDTH:0.428806
G2 X139.267 Y109.421 I14.523 J-4.692 E.05436
;WIDTH:0.428589
G1 X139.819 Y110.421 E.03663
;WIDTH:0.428385
G1 X140.478 Y111.353 E.03659
;WIDTH:0.428138
G1 X141.239 Y112.206 E.03662
;WIDTH:0.42721
G1 X142.089 Y112.969 E.0365
;WIDTH:0.426633
G1 X143.02 Y113.631 E.03645
;WIDTH:0.425672
G1 X144.019 Y114.186 E.03637
;WIDTH:0.425072
G1 X144.951 Y114.584 E.0322
;WIDTH:0.424029
G1 X146.088 Y114.927 E.03763
;WIDTH:0.422775
G1 X147.255 Y115.134 E.03744
;WIDTH:0.422153
G1 X148.439 Y115.205 E.0374
;WIDTH:0.420827
G1 X148.802 Y115.201 E.01141
;WIDTH:0.414822
G1 X149.889 Y115.1 E.03376
;WIDTH:0.432274
G2 X151.228 Y114.816 I-4.887 J-26.377 E.04432
;WIDTH:0.420073
G1 X152.29 Y114.46 E.03513
;WIDTH:0.42183
G1 X152.312 Y114.451 E.00075
;WIDTH:0.454325
G1 X152.738 Y114.263 E.01593
;WIDTH:0.486819
G1 X153.164 Y114.074 E.0172
;WIDTH:0.509831
G1 X153.775 Y113.857 E.02517
;WIDTH:0.51869
G1 X154.333 Y113.748 E.02249
G1 X154.745 Y113.76 E.01631
;WIDTH:0.515911
G1 X155.229 Y113.915 E.01999
;WIDTH:0.512903
G1 X155.629 Y114.229 E.01987
;WIDTH:0.49801
G1 X155.856 Y114.542 E.01463
;WIDTH:0.478062
G1 X156.008 Y114.966 E.0163
;WIDTH:0.445309
G1 X155.987 Y115.478 E.01715
G1 X155.881 Y115.61 E.00566
G1 X155.777 Y115.595 E.00352
G1 X155.749 Y115.495 E.00347
;WIDTH:0.448922
G1 X155.567 Y114.916 E.02049
;WIDTH:0.492794
G1 X155.371 Y114.616 E.0134
;WIDTH:0.496465
G1 X155.139 Y114.415 E.01158
;WIDTH:0.499788
G1 X154.849 Y114.265 E.0124
;WIDTH:0.51869
G1 X154.408 Y114.217 E.01755
G1 X153.77 Y114.344 E.02573
;WIDTH:0.506361
G1 X153.112 Y114.561 E.0267
;WIDTH:0.469795
G1 X152.409 Y114.817 E.02656
;WIDTH:0.420073
G1 X151.348 Y115.168 E.03505
M73 Q4 S5
;WIDTH:0.432274
G1 X150.971 Y115.279 E.01272
G1 X149.959 Y115.465 E.03331
;WIDTH:0.42967
G1 X149.546 Y115.529 E.01344
G1 X148.418 Y115.582 E.03631
;WIDTH:0.422153
G1 X147.193 Y115.506 E.0387
;WIDTH:0.422775
G1 X146.107 Y115.319 E.03481
M73 P4 R5
G1 X145.986 Y115.288 E.00395
;WIDTH:0.424029
G1 X144.967 Y114.991 E.03364
G1 X144.81 Y114.931 E.00533
;WIDTH:0.425072
G1 X143.87 Y114.538 E.03237
G1 X143.678 Y114.438 E.00688
;WIDTH:0.416779
G1 X142.617 Y113.82 E.03817
;WIDTH:0.415886
G1 X141.634 Y113.083 E.0381
;WIDTH:0.4153
G1 X140.743 Y112.237 E.03804
;WIDTH:0.414843
G1 X139.956 Y111.293 E.03801
;WIDTH:0.414481
G1 X139.284 Y110.264 E.03797
;WIDTH:0.413692
G1 X138.736 Y109.165 E.03786
;WIDTH:0.428806
G1 X138.464 Y108.485 E.0235
;WIDTH:0.455788
G1 X138.345 Y108.14 E.01253
;WIDTH:0.482769
G1 X138.227 Y107.794 E.01337
;WIDTH:0.499999
G1 X138.172 Y107.764 E.00238
G2 X136.875 Y107.571 I-1.594 J6.249 E.04992
G2 X133.158 Y107.555 I-2.515 J151.98 E.14127
G1 X133.141 Y106.774 E.02969
;WIDTH:0.542912
G1 X133.07 Y106.706 E.00409
;WIDTH:0.585825
G1 X133 Y106.638 E.00441
;WIDTH:0.628737
G1 X132.93 Y106.57 E.00475
;WIDTH:0.629593
G1 X126.322 Y106.572 E.32235
;WIDTH:0.629259
G1 X125.521 Y106.63 E.03915
;WIDTH:0.625908
G1 X124.799 Y106.774 E.03569
;WIDTH:0.638185
G1 X123.533 Y107.232 E.06664
;WIDTH:0.627995
G3 X119.84 Y108.41 I-17.135 J-47.355 E.18863
;WIDTH:0.622518
G1 X119.797 Y108.422 E.00215
;WIDTH:0.62343
G1 X118.702 Y108.685 E.05436
;WIDTH:0.629606
G3 X116.005 Y109.236 I-9.871 J-41.466 E.13431
;WIDTH:0.623884
G1 X115.959 Y109.243 E.00225
;WIDTH:0.630935
G1 X114.053 Y109.502 E.09405
G1 X112.103 Y109.673 E.09571
;WIDTH:0.629879
G1 X109.765 Y109.753 E.11417
;WIDTH:0.626583
G1 X109.631 Y109.754 E.0065
;WIDTH:0.630785
G1 X94.353 Y109.752 E.74681
G1 X94.354 Y109.164 E.02874
G1 X109.632 Y109.172 E.74681
;WIDTH:0.626583
G1 X109.745 Y109.17 E.00548
;WIDTH:0.629932
G1 X112.052 Y109.089 E.11267
;WIDTH:0.631027
G2 X115.878 Y108.668 I-3.902 J-53.138 E.18827
;WIDTH:0.623892
G1 X115.894 Y108.666 E.00078
;WIDTH:0.629606
G2 X118.563 Y108.122 I-9.777 J-54.78 E.13289
;WIDTH:0.623463
G1 X119.661 Y107.858 E.05451
;WIDTH:0.622518
G1 X119.674 Y107.855 E.00064
;WIDTH:0.627995
G2 X123.342 Y106.682 I-14.821 J-52.672 E.18739
;WIDTH:0.625942
G1 X123.355 Y106.677 E.00068
;WIDTH:0.638185
G3 X124.527 Y106.245 I6.298 J15.286 E.06184
;WIDTH:0.632136
G1 X125.074 Y106.113 E.02757
;WIDTH:0.635718
G3 X126.359 Y105.984 I1.475 J8.229 E.06372
;WIDTH:0.629593
G1 X132.93 Y105.984 E.32055
;WIDTH:0.628737
G1 X132.988 Y105.936 E.00367
;WIDTH:0.585825
G1 X133.046 Y105.887 E.00343
;WIDTH:0.542912
G1 X133.105 Y105.839 E.00316
;WIDTH:0.499999
G1 X133.158 Y105.692 E.00594
G2 X133.14 Y104.233 I-32.314 J-.329 E.05546
;WIDTH:0.543618
G1 X133.121 Y104.214 E.00112
M204 P2500
G1 X132.761 Y104.04 F18000
G1 E-.7 F2100
G1 X137.543 Y103.82 Z.284 F18000
G1 Z.2 F720
G1 E.7 F1500
M204 P500
;TYPE:Solid infill
;WIDTH:0.505767
G1 F6000
G1 X137.005 Y103.282 E.02928
G1 X136.364 Y103.296 E.02468
G1 X137.227 Y104.159 E.04697
G1 X137.181 Y104.33 E.00682
G1 X137.181 Y104.767 E.01682
G1 X135.714 Y103.3 E.07984
G1 X135.059 Y103.3 E.02521
G1 X137.18 Y105.421 E.11544
G1 X137.181 Y105.684 E.01012
G1 X137.296 Y106.126 E.01758
G3 X137.334 Y106.229 I-.058 J.08 E.00448
G1 X134.405 Y103.3 E.15942
G1 X133.975 Y103.3 E.01655
M73 P5 R5
M73 Q5 S5
G1 X133.938 Y103.488 E.00737
G1 X137.185 Y106.735 E.17673
G1 X136.513 Y106.717 E.02587
G1 X133.979 Y104.184 E.13789
G1 X134.004 Y104.306 E.00479
G1 X134.004 Y104.863 E.02144
G1 X135.851 Y106.71 E.10053
G1 X135.196 Y106.71 E.02521
G1 X134.004 Y105.518 E.06488
G3 X133.926 Y106.094 I-1.946 J.029 E.02245
G1 X134.747 Y106.915 E.04468
M204 P2500
M106 S114.75
;LAYER_CHANGE
;Z:0.45
;HEIGHT:0.25
;BEFORE_LAYER_CHANGE
G92 E0.0
;0.45
M201 X3999.96 Y3999.96

G1 E-.7 F2100
G1 X134.747 Y106.915 Z.2 F18000
G1 X133.206 Y104.131 Z.45 F9193.495
;AFTER_LAYER_CHANGE
;0.45
M74 W0.0394717

M104 S225 ; set temperature
G1 X133.206 Y104.131 F18000
G1 Z.45 F720
G1 E.7 F1500
;TYPE:Perimeter
;WIDTH:0.499999
G1 F4511.06
G1 X133.169 Y104.086 E.0027
G1 F4480.735
G1 X132.735 Y103.941 E.02123
;WIDTH:0.470476
G1 F4687.225
G1 X126.373 Y103.941 E.27563
G1 F3852.512
G1 X125.891 Y103.915 E.02091
;WIDTH:0.464826
G1 F3832.59
G1 X125.094 Y103.807 E.03437
;WIDTH:0.470105
G1 F3863.073
G1 X124.331 Y103.616 E.03405
G1 F3983.647
G1 X123.368 Y103.259 E.04446
;WIDTH:0.462808
G1 F4059.496
G1 X123.359 Y103.255 E.00042
;WIDTH:0.471521
G1 F4237.867
G1 X121.675 Y102.665 E.0775
G1 F4479.934
G1 X121.538 Y102.621 E.00625
;WIDTH:0.468003
G1 F4671.13
G1 X119.695 Y102.082 E.0827
;WIDTH:0.473904
G1 F4780.587
G1 X119.329 Y101.989 E.0165
G1 F4800
G1 X117.81 Y101.632 E.06816
;WIDTH:0.461816
G1 X117.779 Y101.625 E.00135
;WIDTH:0.476476
G1 X116.935 Y101.459 E.0378
G1 X115.906 Y101.274 E.04595
;WIDTH:0.461534
G1 X115.875 Y101.269 E.00133
;WIDTH:0.475468
G1 X113.96 Y101.006 E.08475
;WIDTH:0.4712
G1 F4757.119
G1 X112.073 Y100.838 E.08222
G1 F4605.296
G1 X112.026 Y100.836 E.00204
;WIDTH:0.470143
G1 F4356.297
G1 X110.121 Y100.768 E.08252
;WIDTH:0.471917
G1 F3979.964
G1 X109.615 Y100.763 E.022
G1 F3894.725
G1 X94.643 Y100.761 E.65089
;WIDTH:0.470515
G1 F3479.311
G1 X94.435 Y100.761 E.00901
G1 F3498.655
G1 X94.435 Y100.345 E.01802
G1 F3457.761
G1 X94.644 Y100.345 E.00906
;WIDTH:0.471917
G1 F3688.81
G1 X109.615 Y100.345 E.65085
G1 F3748.742
G1 X109.621 Y100.345 E.00026
G1 F3843.617
G1 X110.134 Y100.357 E.02231
;WIDTH:0.470143
G1 F4311.45
G1 X112.04 Y100.419 E.08255
;WIDTH:0.4712
G1 F4587.152
G1 X112.104 Y100.422 E.00278
G1 F4751.288
G1 X113.993 Y100.597 E.08233
;WIDTH:0.464346
G1 F4800
G1 X114.035 Y100.601 E.0018
;WIDTH:0.475468
G3 X115.934 Y100.866 I-3.099 J29.182 E.08408
;WIDTH:0.461534
G1 X115.976 Y100.872 E.0018
;WIDTH:0.476476
G3 X117.889 Y101.231 I-3.261 J22.651 E.08557
;WIDTH:0.473904
G1 X119.423 Y101.58 E.06872
G1 F4785.135
G1 X119.808 Y101.686 E.01744
;WIDTH:0.468003
G1 F4685.764
G1 X121.654 Y102.223 E.0828
;WIDTH:0.471521
G1 F4512.41
G1 X121.808 Y102.269 E.00698
G1 F4307.413
G1 X123.497 Y102.87 E.07786
;WIDTH:0.470105
G1 F4104.854
G1 X124.474 Y103.225 E.045
;WIDTH:0.475369
G1 F4031.443
G1 X124.845 Y103.325 E.01684
G1 F4003.445
G1 X125.596 Y103.469 E.03352
G1 F4026.581
G1 X126.373 Y103.524 E.03414
;WIDTH:0.470476
G1 F4699.355
