; generated by PrusaSlicer 2.9.0 on 2025-02-21 at 00:16:04 UTC


;
;

;
;

;
;

;
;

;
;

;
;
; 

; external perimeters extrusion width = 0.90mm
; perimeters extrusion width = 0.90mm
; infill extrusion width = 0.45mm
; solid infill extrusion width = 0.45mm
; top infill extrusion width = 0.42mm
; first layer extrusion width = 0.50mm

M73 P0 R4
M73 C2
M73 Q0 S5
M73 D2
M201 X4000 Y4000 Z200 E2500 ; sets maximum accelerations, mm/sec^2
M203 X300 Y300 Z40 E100 ; sets maximum feedrates, mm / sec
M204 P4000 R1200 T4000 ; sets acceleration (P, T) and retract acceleration (R), mm/sec^2
M205 X8.00 Y8.00 Z2.00 E10.00 ; sets the jerk limits, mm/sec
M205 S0 T0 ; sets the minimum extruding and travel feed rate, mm/sec

M486 S0
M486 Aeasy_gyro_modified.stl
M486 S-1

;TYPE:Custom
M17 ; enable steppers
M862.1 P0.4 A0 F1 ; nozzle check
M862.3 P "MK4S" ; printer model check
M862.5 P2 ; g-code level check
M862.6 P"Input shaper" ; FW feature check
M115 U6.1.3+7898

M555 X107.744 Y83.7475 W34.5118 H38.505

G90 ; use absolute coordinates
M83 ; extruder relative mode

M140 S60 ; set bed temp
M104 T0 S170 ; set extruder temp for bed leveling
M109 T0 R170 ; wait for temp

M84 E ; turn off E motor

G28 ; home all without mesh bed level

G1 X42 Y-4 Z5 F4800

M302 S160 ; lower cold extrusion limit to 160C


G1 E-2 F2400 ; retraction


M84 E ; turn off E motor

G29 P9 X10 Y-4 W32 H4

M106 S100

G0 Z40 F10000

M190 S60 ; wait for bed temp

M107

;
; MBL
;
M84 E ; turn off E motor
G29 P1 ; invalidate mbl & probe print area
G29 P1 X0 Y0 W50 H20 C ; probe near purge place
G29 P3.2 ; interpolate mbl probes
G29 P3.13 ; extrapolate mbl outside probe area
G29 A ; activate mbl

; prepare for purge
M104 S230
G0 X0 Y-4 Z15 F4800 ; move away and ready for the purge
M109 S230

G92 E0
M569 S0 E ; set spreadcycle mode for extruder

;
; Extrude purge line
;
G92 E0 ; reset extruder position
G1 E2 F2400 ; deretraction after the initial one before nozzle cleaning
G0 E7 X15 Z0.2 F500 ; purge
G0 X25 E4 F500 ; purge
M73 P1 R4
M73 Q1 S5
G0 X35 E4 F650 ; purge
M73 P2 R4
M73 Q2 S5
G0 X45 E4 F800 ; purge
M73 Q2 S4
G0 X48 Z0.05 F8000 ; wipe, move close to the bed
G0 X51 Z0.2 F8000 ; wipe, move quickly away from the bed

G92 E0
M221 S100 ; set flow to 100%
G21 ; set units to millimeters
G90 ; use absolute coordinates
M83 ; use relative distances for extrusion
M572 S0.036 ; Filament gcode

M142 S36 ; set heatbreak target temp
M107
;LAYER_CHANGE
;Z:0.2
;HEIGHT:0.2
G1 E-.7 F2100
G1 Z.8 F720
M486 S0
G1 X114.78 Y105.282 F18000
G1 Z.2 F720
M73 P3 R4
G1 E.7 F1500
M204 P500
;TYPE:External perimeter
;WIDTH:0.499999
G1 F2400
G3 X118.597 Y97.028 I10.219 J-.283 E.35817
M73 Q3 S4
G1 X119.056 Y96.68 E.02189
G3 X114.782 Y105.342 I5.943 J8.319 E2.05899
M204 P4000
G1 X114.777 Y104.942 F18000
M204 T4000
G1 X114.248 Y105.282
M204 P500
;TYPE:Perimeter
;WIDTH:0.654296
G1 F2400
G3 X135.742 Y104.402 I10.753 J-.282 E1.70112
M73 P4 R4
;WIDTH:0.654614
G1 X135.759 Y105 E.03043
G1 X135.759 Y105.022 E.00112
;WIDTH:0.654296
G3 X114.25 Y105.342 I-10.758 J-.022 E1.69917
M73 Q4 S4
M204 P4000
G1 X114.25 Y105.342 F18000
G1 X113.716 Y104.662
M204 P500
;TYPE:External perimeter
;WIDTH:0.499999
G1 F2400
G3 X136.131 Y103.094 I11.286 J.341 E1.26232
G3 X136.293 Y105.015 I-12.128 J1.994 E.07334
G3 X113.714 Y104.722 I-11.291 J-.012 E1.35907
M73 P5 R4
M204 P4000
G1 X113.732 Y104.322 F18000
G1 E-.7 F2100
G1 X137.904 Y106.697 Z.624 F18000
G1 Z.2 F720
G1 E.7 F1500
M204 P500
G1 F2400
G3 X114.826 Y96.88 I-12.905 J-1.698 E1.82247
M73 Q5 S4
G1 X115.214 Y96.417 E.02296
G3 X137.911 Y106.637 I9.785 J8.582 E1.26026
M204 P4000
G1 X137.854 Y107.033 F18000
G1 X138.421 Y106.777
M204 P500
;TYPE:Perimeter
;WIDTH:0.629098
G1 F2400
G3 X138.516 Y104.219 I-13.42 J-1.777 E4.02075
M73 P6 R4
M73 Q6 S4
;WIDTH:0.629306
G1 X138.538 Y104.84 E.0303
G1 X138.538 Y104.858 E.00088
;WIDTH:0.629098
G3 X138.429 Y106.717 I-13.537 J.142 E.09084
M204 P4000
G1 E-.7 F2100
G1 X138.429 Y106.717 F18000
G1 X123.025 Y91.085 Z.583
G1 Z.2 F720
G1 E.7 F1500
M204 P500
;TYPE:External perimeter
;WIDTH:0.499999
G1 F2400
G3 X138.984 Y103.538 I1.977 J13.919 E.85887
M73 P7 R4
G3 X139.059 Y104.846 I-17.219 J1.654 E.04981
G3 X122.966 Y91.094 I-14.057 J.158 E2.4463
M73 Q7 S4
M204 P4000
G1 X123.363 Y91.042 F18000
G1 E-.7 F2100
G1 X126.203 Y117.409 Z.663 F18000
G1 X126.557 Y120.697 Z.715
G1 Z.2 F720
G1 E.7 F1500
M204 P500
G1 F2400
G3 X122.196 Y120.524 I-1.56 J-15.776 E.1664
G3 X120.373 Y120.082 I3.979 J-20.357 E.07132
G3 X114.89 Y117.11 I4.672 J-15.166 E.23859
G3 X112.309 Y114.37 I10.682 J-12.649 E.14337
G1 X111.951 Y113.866 E.0235
G3 X110.991 Y112.254 I17.323 J-11.41 E.07133
G3 X109.237 Y105.632 I14.085 J-7.275 E.26243
M73 P8 R4
G3 X109.274 Y103.756 I20.734 J-.534 E.07134
G3 X109.534 Y101.888 I16.916 J1.409 E.07172
G3 X110.013 Y100.074 I20.273 J4.382 E.07133
G3 X119.177 Y90.339 I15.002 J4.94 E.52468
G3 X120.959 Y89.751 I7.379 J19.384 E.07134
G3 X127.804 Y89.476 I4.044 J15.328 E.26243
G3 X129.627 Y89.918 I-3.979 J20.356 E.07132
G3 X136.04 Y93.731 I-4.661 J15.139 E.28625
G3 X137.3 Y95.122 I-14.726 J14.606 E.07136
G3 X138.049 Y96.134 I-14.938 J11.831 E.04786
G3 X139.009 Y97.746 I-17.323 J11.41 E.07133
G3 X140.763 Y104.368 I-14.085 J7.275 E.26243
G3 X140.726 Y106.244 I-20.734 J.534 E.07134
G3 X140.466 Y108.112 I-16.916 J-1.409 E.07172
G3 X139.987 Y109.926 I-20.273 J-4.382 E.07133
G3 X130.823 Y119.661 I-15.002 J-4.94 E.52468
G3 X129.041 Y120.249 I-7.379 J-19.383 E.07134
G3 X126.616 Y120.691 I-4.044 J-15.328 E.09378
M73 Q8 S4
M204 P4000
G1 X126.218 Y120.726 F18000
G1 X126.598 Y121.21
M204 P500
;TYPE:Perimeter
;WIDTH:0.61579
G1 F2400
G3 X122.086 Y121.028 I-1.601 J-16.295 E.21579
;WIDTH:0.615932
G1 X121.436 Y120.896 E.0316
;WIDTH:0.628224
G1 X120.199 Y120.567 E.0623
;WIDTH:0.615792
G3 X113.585 Y116.623 I4.838 J-15.629 E.37029
;WIDTH:0.615936
G1 X113.122 Y116.149 E.03157
;WIDTH:0.628224
G1 X112.283 Y115.182 E.06231
;WIDTH:0.61579
G3 X111.515 Y114.139 I15.528 J-12.255 E.06171
;WIDTH:0.615934
G1 X111.154 Y113.583 E.03159
;WIDTH:0.628226
G1 X110.523 Y112.469 E.06231
;WIDTH:0.615792
G3 X108.722 Y105.633 I14.56 J-7.491 E.33941
;WIDTH:0.615936
G1 X108.71 Y104.97 E.03159
;WIDTH:0.628226
G1 X108.762 Y103.691 E.0623
;WIDTH:0.615792
G3 X109.033 Y101.768 I17.514 J1.489 E.09255
M73 P9 R4
;WIDTH:0.615932
G1 X109.178 Y101.121 E.03159
;WIDTH:0.628224
G1 X109.532 Y99.89 E.06234
;WIDTH:0.615792
G3 X119.005 Y89.853 I15.484 J5.125 E.67881
;WIDTH:0.615932
G1 X119.626 Y89.622 E.03157
;WIDTH:0.628222
G1 X120.85 Y89.247 E.0623
;WIDTH:0.61579
G3 X127.914 Y88.972 I4.153 J15.838 E.33942
;WIDTH:0.61593
G1 X128.564 Y89.104 E.0316
;WIDTH:0.628224
G1 X129.801 Y89.433 E.0623
;WIDTH:0.615788
G3 X136.415 Y93.377 I-4.838 J15.628 E.37029
;WIDTH:0.615932
G1 X136.878 Y93.851 E.03157
;WIDTH:0.628224
G1 X137.717 Y94.818 E.06231
;WIDTH:0.61579
G3 X138.485 Y95.861 I-15.528 J12.255 E.06171
;WIDTH:0.615932
G1 X138.846 Y96.417 E.03159
;WIDTH:0.628224
G1 X139.477 Y97.531 E.06231
;WIDTH:0.615792
G3 X141.278 Y104.367 I-14.56 J7.491 E.33941
;WIDTH:0.615934
G1 X141.291 Y105 E.03017
G1 X141.29 Y105.03 E.00143
;WIDTH:0.628224
G1 X141.238 Y106.309 E.0623
;WIDTH:0.615792
G3 X140.967 Y108.232 I-17.514 J-1.489 E.09255
;WIDTH:0.61593
G1 X140.822 Y108.879 E.03159
;WIDTH:0.628224
G1 X140.468 Y110.11 E.06234
;WIDTH:0.615792
G3 X130.995 Y120.147 I-15.484 J-5.125 E.67881
;WIDTH:0.61593
G1 X130.374 Y120.378 E.03157
;WIDTH:0.628222
G1 X129.15 Y120.753 E.0623
;WIDTH:0.61579
G3 X126.657 Y121.204 I-4.153 J-15.838 E.1208
M204 P4000
G1 E-.7 F2100
G1 X126.657 Y121.204 F18000
G1 X137.899 Y115.775 Z.418
G1 Z.2 F720
M73 C1
G1 E.7 F1500
M204 P500
;TYPE:External perimeter
;WIDTH:0.499999
G1 F2400
G3 X141.754 Y103.69 I-12.898 J-10.772 E3.51851
M73 P10 R4
M73 Q9 S4
G3 X141.806 Y105.01 I-20.579 J1.462 E.05022
G3 X137.938 Y115.729 I-16.805 J-.007 E.44186
M204 P4000
G1 X137.678 Y116.033 F18000
M106 S127.5
;LAYER_CHANGE
;Z:0.4
;HEIGHT:0.2
;BEFORE_LAYER_CHANGE
G92 E0.0
;0.4
M201 X3999.9 Y3999.9

G1 E-.7 F2100
G1 X137.678 Y116.033 Z.2 F18000
G1 X114.671 Y105.282 Z.643
;AFTER_LAYER_CHANGE
;0.4
M74 W0.0949419

G1 X114.671 Y105.282
G1 Z.4 F720
G1 E.7 F1500
;WIDTH:1.00042
G1 F6240
G3 X115.378 Y101.231 I10.435 J-.267 E.32956
;WIDTH:1.00165
G3 X115.875 Y100.149 I12.441 J5.065 E.09495
;WIDTH:1.00042
G3 X119.481 Y96.263 I9.185 J4.907 E.42677
;WIDTH:1.00165
G3 X120.523 Y95.686 I7.009 J11.426 E.09498
M73 Q10 S4
;WIDTH:1.00042
G1 X121.067 Y95.443 E.04744
;WIDTH:1.00165
G3 X122.192 Y95.054 I4.947 J12.491 E.09492
;WIDTH:1.00042
G1 X122.219 Y95.047 E.00222
;WIDTH:1.00042
G3 X123.946 Y94.719 I2.935 J10.767 E.1401
;WIDTH:1.00165
G3 X125.135 Y94.666 I1.192 J13.38 E.09491
;WIDTH:1.00042
G3 X129.719 Y95.806 I-.161 J10.439 E.37936
;WIDTH:1.00165
G3 X130.746 Y96.41 I-6.292 J11.868 E.09501
;WIDTH:1.00042
G3 X134.912 Y107.924 I-5.759 J8.595 E1.0432
;WIDTH:1.00165
G3 X134.51 Y109.045 I-12.834 J-3.973 E.09497
;WIDTH:1.00042
G3 X128.093 Y114.861 I-9.531 J-4.068 E.71134
M73 P11 R4
;WIDTH:1.00152
G3 X126.938 Y115.151 I-4.186 J-14.211 E.09495
;WIDTH:1.00042
G3 X125.163 Y115.333 I-2.021 J-10.953 E.14221
;WIDTH:1.00165
G3 X123.973 Y115.283 I-.033 J-13.434 E.09498
;WIDTH:1.00042
G3 X120.018 Y114.054 I1.067 J-10.412 E.33192
;WIDTH:1.00152
G3 X119.009 Y113.421 I7.367 J-12.85 E.09497
;WIDTH:1.00042
G3 X115.388 Y108.795 I6.046 J-8.464 E.47417
;WIDTH:1.00165
G3 X115.025 Y107.698 I12.215 J-4.648 E.09215
;WIDTH:1.00042
G1 X114.878 Y107.084 E.05027
;WIDTH:1.00165
G3 X114.705 Y105.906 I13.163 J-2.53 E.09495
;WIDTH:1.00042
G3 X114.672 Y105.342 I10.401 J-.891 E.04499
G1 X114.669 Y104.942 F18000
G1 X113.717 Y104.662
;WIDTH:1.00042
G1 F6240
G3 X136.13 Y103.098 I11.285 J.338 E2.64465
G1 X136.22 Y103.741 E.05169
;WIDTH:1.0006
G1 X136.274 Y104.364 E.0498
G1 X136.275 Y104.391 E.00215
;WIDTH:1.00042
G3 X113.715 Y104.722 I-11.273 J.609 E2.89383
G1 X113.733 Y104.322 F18000
G1 E-.7 F2100
G1 X137.996 Y106.685 Z.826 F18000
G1 Z.4 F720
G1 E.7 F1500
;WIDTH:0.989921
G1 F6240
G3 X137.008 Y110.255 I-13.025 J-1.685 E.29266
;WIDTH:0.991335
G3 X136.458 Y111.364 I-16.343 J-7.401 E.09764
;WIDTH:0.989921
G3 X123.467 Y118.017 I-11.464 J-6.376 E1.21876
;WIDTH:0.991333
G3 X122.245 Y117.815 I2.325 J-17.786 E.0977
;WIDTH:0.989922
G3 X112.65 Y100.608 I2.761 J-12.818 E1.75521
;WIDTH:0.991335
G3 X113.097 Y99.514 I16.245 J5.996 E.09322
;WIDTH:0.989922
G3 X114.371 Y97.33 I12.25 J5.682 E.19939
;WIDTH:0.990054
G1 X114.378 Y97.321 E.0009
G1 X114.745 Y96.836 E.0479
;WIDTH:0.989922
G3 X123.752 Y91.952 I10.269 J8.189 E.8288
;WIDTH:0.991334
G3 X124.934 Y91.894 I1.443 J17.267 E.09334
;WIDTH:0.98992
G3 X136.595 Y98.888 I.061 J13.116 E1.12561
;WIDTH:0.991333
G3 X137.12 Y100.009 I-15.973 J8.162 E.09764
;WIDTH:0.989921
G3 X138.004 Y106.626 I-12.149 J4.991 E.5315
G1 X137.947 Y107.022 F18000
G1 E-.7 F2100
G1 X123.026 Y91.087 Z.781 F18000
G1 Z.4 F720
G1 E.7 F1500
M73 Q11 S4
G1 F6240
G3 X139.031 Y104.204 I1.975 J13.913 E1.83147
M73 P12 R4
;WIDTH:0.990053
G1 X139.054 Y104.845 E.05051
G1 X139.053 Y104.868 E.00181
;WIDTH:0.989921
G3 X122.966 Y91.095 I-14.052 J.132 E5.06407
G1 X123.363 Y91.044 F18000
G1 E-.7 F2100
G1 X126.218 Y117.409 Z.863 F18000
G1 X126.583 Y120.776 Z.916
G1 Z.4 F720
G1 E.7 F1500
;WIDTH:0.9894
G1 F6240
G1 X125.943 Y120.82 E.05049
;WIDTH:0.991597
G1 X125.353 Y120.842 E.04657
;WIDTH:1.00446
G1 X124.064 Y120.828 E.10306
;WIDTH:0.984247
G3 X122.81 Y120.703 I1.271 J-19.208 E.09866
;WIDTH:0.985346
G3 X121.569 Y120.48 I3.194 J-21.27 E.09882
;WIDTH:0.984246
G3 X116.899 Y118.629 I3.496 J-15.644 E.39482
;WIDTH:0.985346
G3 X115.885 Y117.972 I10.803 J-17.775 E.09469
;WIDTH:0.984247
G3 X114.366 Y116.761 I9.713 J-13.734 E.15214
;WIDTH:0.985346
G3 X113.466 Y115.879 I14.59 J-15.801 E.09876
;WIDTH:0.984246
G3 X111.888 Y113.914 I12.053 J-11.296 E.19745
;WIDTH:0.985347
G3 X111.221 Y112.845 I17.913 J-11.906 E.09875
;WIDTH:0.984247
G3 X110.386 Y111.149 I15.128 J-8.509 E.14804
;WIDTH:0.985346
G3 X109.943 Y109.968 I19.872 J-8.12 E.09886
;WIDTH:0.984246
G3 X109.343 Y102.498 I15.13 J-4.974 E.59212
;WIDTH:0.985224
G3 X109.592 Y101.262 I23.572 J4.093 E.0988
;WIDTH:0.984246
G3 X110.129 Y99.503 I16.304 J4.019 E.14402
;WIDTH:0.985313
G3 X110.634 Y98.292 I19.292 J7.327 E.10283
;WIDTH:0.984247
G3 X113.453 Y94.135 I14.497 J6.797 E.39476
;WIDTH:0.985223
G3 X114.353 Y93.252 I17.202 J16.628 E.0988
;WIDTH:0.984246
G3 X118.006 Y90.771 I10.753 J11.907 E.34674
;WIDTH:0.984171
G3 X124.586 Y89.152 I7.001 J14.265 E.53445
;WIDTH:0.991598
G1 X125.884 Y89.17 E.1024
;WIDTH:0.984244
G3 X127.19 Y89.297 I-1.149 J18.682 E.10273
;WIDTH:0.985345
G3 X128.431 Y89.52 I-3.194 J21.27 E.09882
;WIDTH:0.984246
G3 X133.056 Y91.345 I-3.476 J15.586 E.39076
;WIDTH:0.985312
G3 X134.158 Y92.057 I-10.643 J17.678 E.10283
;WIDTH:0.984245
G3 X135.595 Y93.205 I-9.758 J13.681 E.14403
;WIDTH:0.985311
G3 X136.534 Y94.121 I-13.926 J15.229 E.10281
;WIDTH:0.984245
G3 X138.112 Y96.086 I-12.113 J11.344 E.19745
;WIDTH:0.985346
G3 X138.779 Y97.155 I-17.883 J11.888 E.09875
;WIDTH:0.984245
G3 X139.614 Y98.851 I-15.128 J8.509 E.14804
;WIDTH:0.985345
G3 X140.057 Y100.032 I-19.872 J8.12 E.09886
;WIDTH:0.984245
G3 X140.247 Y109.348 I-15.104 J4.969 E.74019
;WIDTH:0.985344
G3 X139.871 Y110.497 I-19.949 J-5.901 E.09475
;WIDTH:0.984244
G3 X136.547 Y115.865 I-14.933 J-5.533 E.49749
;WIDTH:0.985223
G3 X135.647 Y116.748 I-17.202 J-16.628 E.0988
;WIDTH:0.984245
G3 X130.857 Y119.734 I-10.723 J-11.87 E.44413
;WIDTH:0.985345
G3 X129.668 Y120.152 I-7.737 J-20.072 E.09878
;WIDTH:0.984245
G1 X129.062 Y120.326 E.04935
;WIDTH:0.985344
G3 X127.882 Y120.59 I-5.132 J-20.163 E.09477
;WIDTH:0.984246
G3 X126.643 Y120.769 I-3.298 J-18.423 E.098
G1 X126.244 Y120.799 F18000
G1 E-.7 F2100
G1 X137.889 Y115.766 Z.621 F18000
G1 Z.4 F720
G1 E.7 F1500
;WIDTH:0.984339
G1 F6240
G3 X126.624 Y121.717 I-12.896 J-10.773 E1.02288
;WIDTH:0.9894
G1 X125.992 Y121.765 E.04988
;WIDTH:0.991597
G1 X125.324 Y121.79 E.05273
G1 X124.548 Y121.789 E.06121
;WIDTH:0.984246
G3 X124.027 Y88.232 I.454 J-16.79 E4.01799
M73 P13 R4
M73 Q12 S4
;WIDTH:1.00446
G1 X124.899 Y88.216 E.06973
G1 X125.443 Y88.212 E.0435
;WIDTH:0.986609
G1 X126.027 Y88.237 E.04587
;WIDTH:0.984245
G3 X141.797 Y105.009 I-1.031 J16.768 E1.98514
;WIDTH:0.984339
G3 X137.927 Y115.72 I-16.804 J-.016 E.90951
G1 X137.667 Y116.025 F18000
M106 S252.45
;LAYER_CHANGE
;Z:0.6
;HEIGHT:0.2
;BEFORE_LAYER_CHANGE
G92 E0.0
;0.6
M201 X3999.77 Y3999.77

G1 E-.7 F2100
G1 X137.667 Y116.025 Z.4 F18000
G1 X126.065 Y120.842 Z.619
;AFTER_LAYER_CHANGE
;0.6
M74 W0.215113

G1 X126.065 Y120.842
G1 Z.6 F720
G1 E.7 F1500
;WIDTH:0.994656
G1 F7197
G1 X126.044 Y120.844 E.00167
G1 X125.774 Y120.741 E.02287
;WIDTH:0.947328
G1 F6872.57
G1 X125.503 Y120.637 E.02183
;WIDTH:0.899999
G1 F6541.935
G1 X125.287 Y120.59 E.01575
G1 X124.806 Y120.579 E.03429
G1 F6687.119
G1 X124.316 Y120.678 E.03563
;WIDTH:0.944826
G1 F7197
G1 X124.139 Y120.763 E.01473
;WIDTH:0.989653
G1 X123.963 Y120.847 E.01535
G1 X123.433 Y120.808 E.04184
;WIDTH:0.982531
G1 X122.805 Y120.733 E.04941
;WIDTH:0.98862
G1 X121.572 Y120.508 E.09856
;WIDTH:0.982064
G1 X120.948 Y120.36 E.05008
;WIDTH:0.98253
G3 X117.433 Y118.968 I4.149 J-15.607 E.29605
;WIDTH:0.988716
G1 X116.355 Y118.327 E.09863
;WIDTH:0.982623
G3 X113.443 Y115.9 I8.814 J-13.531 E.29688
G1 X113.022 Y115.43 E.0493
;WIDTH:0.982062
G1 X112.614 Y114.947 E.04937
;WIDTH:0.982532
G1 X112.228 Y114.447 E.04935
;WIDTH:0.988714
G1 X111.523 Y113.41 E.09861
;WIDTH:0.982624
G3 X109.728 Y109.374 I13.653 J-8.489 E.34624
G1 X109.57 Y108.763 E.04931
;WIDTH:0.982063
G1 X109.429 Y108.147 E.04935
;WIDTH:0.982531
G3 X109.318 Y102.465 I15.664 J-3.148 E.44639
M73 P13 R3
;WIDTH:0.981971
G1 X109.56 Y101.264 E.09566
;WIDTH:0.98253
G3 X109.908 Y100.04 I18.327 J4.55 E.09944
G1 X110.121 Y99.445 E.04938
;WIDTH:0.988621
G1 X110.602 Y98.287 E.0986
;WIDTH:0.982625
G3 X111.186 Y97.157 I17.277 J8.195 E.09941
G1 X111.511 Y96.615 E.04938
;WIDTH:0.982063
G1 X111.853 Y96.084 E.04932
;WIDTH:0.982531
G3 X114.823 Y92.802 I13.289 J9.044 E.34693
G3 X115.809 Y92.043 I12.255 J14.897 E.09723
G1 X116.333 Y91.691 E.04932
;WIDTH:0.982063
G1 X116.868 Y91.354 E.04938
;WIDTH:0.98253
G3 X121.544 Y89.495 I8.187 J13.782 E.39478
G1 X122.164 Y89.373 E.04937
