; generated by PrusaSlicer 2.9.0 on 2025-02-21 at 00:20:12 UTC


;
;

;
;

;
;

;
;

;
;

;
;
; 

; external perimeters extrusion width = 1.00mm
; perimeters extrusion width = 0.45mm
; infill extrusion width = 0.45mm
; solid infill extrusion width = 0.45mm
; top infill extrusion width = 0.42mm
; first layer extrusion width = 1.00mm

M73 P0 R3
M73 Q0 S3
M201 X4000 Y4000 Z200 E2500 ; sets maximum accelerations, mm/sec^2
M203 X300 Y300 Z40 E100 ; sets maximum feedrates, mm / sec
M204 P4000 R1200 T4000 ; sets acceleration (P, T) and retract acceleration (R), mm/sec^2
M205 X8.00 Y8.00 Z2.00 E10.00 ; sets the jerk limits, mm/sec
M205 S0 T0 ; sets the minimum extruding and travel feed rate, mm/sec

M486 S0
M486 Anested-rings.stl
M486 S-1

;TYPE:Custom
M17 ; enable steppers
M862.1 P0.4 A0 F1 ; nozzle check
M862.3 P "MK4S" ; printer model check
M862.5 P2 ; g-code level check
M862.6 P"Input shaper" ; FW feature check
M115 U6.1.3+7898

M555 X108.413 Y84.4125 W33.175 H37.175

G90 ; use absolute coordinates
M83 ; extruder relative mode

M140 S60 ; set bed temp
M104 T0 S170 ; set extruder temp for bed leveling
M109 T0 R170 ; wait for temp

M84 E ; turn off E motor

G28 ; home all without mesh bed level

G1 X42 Y-4 Z5 F4800

M302 S160 ; lower cold extrusion limit to 160C


G1 E-2 F2400 ; retraction


M84 E ; turn off E motor

G29 P9 X10 Y-4 W32 H4

M106 S100

G0 Z40 F10000

M190 S60 ; wait for bed temp

M107

;
; MBL
;
M84 E ; turn off E motor
G29 P1 ; invalidate mbl & probe print area
G29 P1 X0 Y0 W50 H20 C ; probe near purge place
G29 P3.2 ; interpolate mbl probes
G29 P3.13 ; extrapolate mbl outside probe area
G29 A ; activate mbl

; prepare for purge
M104 S230
G0 X0 Y-4 Z15 F4800 ; move away and ready for the purge
M109 S230

G92 E0
M569 S0 E ; set spreadcycle mode for extruder

;
; Extrude purge line
;
G92 E0 ; reset extruder position
G1 E2 F2400 ; deretraction after the initial one before nozzle cleaning
M73 P1 R3
M73 Q1 S3
G0 E7 X15 Z0.2 F500 ; purge
G0 X25 E4 F500 ; purge
M73 P2 R3
M73 Q2 S3
G0 X35 E4 F650 ; purge
G0 X45 E4 F800 ; purge
M73 P3 R3
M73 Q3 S3
G0 X48 Z0.05 F8000 ; wipe, move close to the bed
G0 X51 Z0.2 F8000 ; wipe, move quickly away from the bed

G92 E0
M221 S100 ; set flow to 100%
G21 ; set units to millimeters
G90 ; use absolute coordinates
M83 ; use relative distances for extrusion
M572 S0.036 ; Filament gcode

M142 S36 ; set heatbreak target temp
M107
;LAYER_CHANGE
;Z:0.2
;HEIGHT:0.2
G1 E-.7 F2100
G1 Z.8 F720
M486 S0
G1 X140.53 Y100.848 F18000
G1 Z.2 F720
M73 P4 R3
M73 Q4 S3
G1 E.7 F1500
M204 P500
;TYPE:External perimeter
;WIDTH:0.999656
G1 F2400
G3 X140.82 Y102.081 I-23.678 J6.215 E.10078
G3 X141.039 Y103.75 I-19.238 J3.366 E.13395
;WIDTH:0.99982
G1 X141.082 Y104.579 E.06605
G1 X141.082 Y104.591 E.00095
;WIDTH:0.99966
G3 X140.639 Y108.768 I-16.464 J.366 E.33507
;WIDTH:1.01043
G3 X140.014 Y110.777 I-22.749 J-5.976 E.16932
;WIDTH:0.99966
G3 X139.325 Y112.32 I-17.872 J-7.062 E.13448
;WIDTH:0.999896
G1 X138.703 Y113.427 E.10104
;WIDTH:0.99966
G3 X134.096 Y118.268 I-13.811 J-8.53 E.53547
G3 X132.292 Y119.339 I-13.388 J-20.495 E.16695
G3 X129.953 Y120.306 I-7.763 J-15.482 E.20153
G3 X127.919 Y120.82 I-7.016 J-23.454 E.16695
G3 X121.232 Y120.639 I-2.914 J-15.966 E.53601
;WIDTH:1.01043
G3 X119.223 Y120.014 I5.976 J-22.749 E.16932
;WIDTH:0.999662
G3 X117.68 Y119.325 I7.062 J-17.872 E.13448
;WIDTH:0.999896
G1 X116.573 Y118.703 E.10104
;WIDTH:0.999662
G3 X111.732 Y114.096 I8.529 J-13.811 E.53547
G3 X110.661 Y112.292 I20.495 J-13.388 E.16695
G3 X109.694 Y109.953 I15.482 J-7.763 E.20153
G3 X109.18 Y107.919 I23.454 J-7.016 E.16695
G3 X109.361 Y101.232 I15.966 J-2.914 E.53601
;WIDTH:1.01044
G3 X109.986 Y99.223 I22.749 J5.976 E.16932
;WIDTH:0.999664
G3 X110.675 Y97.68 I17.872 J7.062 E.13448
;WIDTH:0.999896
G1 X111.297 Y96.573 E.10104
;WIDTH:0.999662
G3 X115.904 Y91.732 I13.811 J8.529 E.53547
G3 X117.708 Y90.661 I13.388 J20.495 E.16695
G3 X120.849 Y89.458 I7.511 J14.918 E.26803
M73 P5 R3
;WIDTH:1.00517
G3 X122.901 Y89.053 I5.007 J19.953 E.16742
M73 Q5 S3
;WIDTH:1.01069
G3 X124.604 Y88.918 I2.707 J23.358 E.1375
;WIDTH:0.999502
G1 X125.434 Y88.919 E.06602
;WIDTH:1.00516
G3 X127.516 Y89.113 I-.866 J20.552 E.16738
G3 X129.163 Y89.463 I-3.233 J19.259 E.13476
;WIDTH:1.01048
G3 X130.777 Y89.986 I-6.458 J22.7 E.13653
;WIDTH:0.999656
G3 X132.32 Y90.675 I-7.15 J18.085 E.13447
G3 X134.122 Y91.749 I-11.522 J21.377 E.16694
G3 X138.268 Y95.904 I-9.266 J13.394 E.46952
G3 X139.339 Y97.708 I-20.495 J13.388 E.16695
G3 X140.306 Y100.047 I-15.482 J7.763 E.20153
G3 X140.515 Y100.79 I-23.454 J7.016 E.0614
M204 P4000
G1 X140.614 Y101.178 F18000
G1 E-.7 F2100
M204 T4000
G1 X114.449 Y96.855 Z.663 F18000
G1 X114.387 Y96.844 Z.664
G1 Z.2 F720
G1 E.7 F1500
M204 P500
;WIDTH:0.999702
G1 F2400
G3 X117.433 Y93.957 I10.702 J8.241 E.33524
G1 X118.328 Y93.397 E.08399
;WIDTH:0.995624
G1 X118.936 Y93.071 E.05465
;WIDTH:0.999662
G3 X121.547 Y92.066 I6.083 J11.92 E.22298
;WIDTH:1.00424
G3 X123.253 Y91.729 I4.162 J16.585 E.13906
;WIDTH:1.00881
G3 X124.673 Y91.617 I2.246 J19.369 E.11443
;WIDTH:0.999524
G1 X125.363 Y91.618 E.05488
;WIDTH:1.00424
G3 X127.094 Y91.78 I-.72 J17.083 E.13903
;WIDTH:1.00881
G3 X128.487 Y92.075 I-3.347 J19.206 E.11438
;WIDTH:0.999656
G3 X131.094 Y93.081 I-3.667 J13.388 E.22268
;WIDTH:0.999814
G1 X132.015 Y93.598 E.08404
;WIDTH:0.9997
G3 X136.043 Y97.433 I-7.1 J11.491 E.44565
G1 X136.603 Y98.328 E.08399
;WIDTH:0.995622
G1 X136.929 Y98.936 E.05465
;WIDTH:0.999654
G3 X137.738 Y100.881 I-12.051 J6.147 E.16775
G3 X138.165 Y102.573 I-19.524 J5.836 E.13887
G3 X138.347 Y103.962 I-16.011 J2.799 E.11148
;WIDTH:0.99982
G1 X138.383 Y104.65 E.05482
G1 X138.383 Y104.662 E.00095
;WIDTH:0.999698
G3 X138.217 Y107.117 I-14.219 J.269 E.196
;WIDTH:0.995472
G3 X137.923 Y108.476 I-14.88 J-2.502 E.11017
;WIDTH:0.999656
G3 X136.919 Y111.094 I-12.936 J-3.459 E.22347
;WIDTH:0.999814
G1 X136.402 Y112.015 E.08404
;WIDTH:0.9997
G3 X132.567 Y116.043 I-11.491 J-7.1 E.44565
M73 P6 R3
G1 X131.672 Y116.603 E.08399
M73 Q6 S3
;WIDTH:0.995622
G1 X131.064 Y116.929 E.05465
;WIDTH:0.999658
G3 X129.119 Y117.738 I-6.147 J-12.051 E.16775
G3 X127.427 Y118.165 I-5.836 J-19.524 E.13887
G3 X122.542 Y118.159 I-2.426 J-13.333 E.39075
G3 X120.851 Y117.728 I4.187 J-19.943 E.13887
G3 X118.906 Y116.919 I4.528 J-13.633 E.16773
;WIDTH:0.999814
G1 X117.985 Y116.402 E.08404
;WIDTH:0.999702
G3 X113.957 Y112.567 I7.1 J-11.491 E.44565
G1 X113.397 Y111.672 E.08399
;WIDTH:0.995622
G1 X113.071 Y111.064 E.05465
;WIDTH:0.9997
G3 X112.262 Y109.119 I12.051 J-6.147 E.16776
G3 X111.835 Y107.427 I19.523 J-5.836 E.13887
G3 X111.656 Y103.931 I13.501 J-2.444 E.27926
G1 X111.783 Y102.883 E.08399
;WIDTH:0.995476
G3 X112.077 Y101.524 I14.88 J2.502 E.11017
;WIDTH:0.999658
G3 X113.081 Y98.906 I12.936 J3.459 E.22347
;WIDTH:0.999814
G1 X113.598 Y97.985 E.08404
;WIDTH:0.999702
G3 X114.35 Y96.892 I11.491 J7.1 E.10559
M204 P4000
G1 X114.598 Y96.578 F18000
G1 E-.7 F2100
G1 X120.903 Y114.867 Z.538 F18000
G1 Z.2 F720
G1 E.7 F1500
M204 P500
;WIDTH:0.99966
G1 F2400
G3 X116.514 Y111.496 I4.1 J-9.881 E.44532
;WIDTH:1.00332
G3 X115.746 Y110.343 I10.941 J-8.122 E.11068
;WIDTH:1.00677
G3 X115.232 Y109.336 I13.574 J-7.564 E.09063
;WIDTH:0.999654
G1 X115.018 Y108.818 E.04459
;WIDTH:1.00332
G3 X114.61 Y107.495 I12.857 J-4.695 E.11061
;WIDTH:1.00676
G3 X114.403 Y106.383 I15.165 J-3.398 E.09067
;WIDTH:0.999694
G3 X114.449 Y103.307 I10.775 J-1.374 E.24557
;WIDTH:0.996386
G3 X114.684 Y102.223 I11.859 J1.997 E.08797
;WIDTH:0.999662
G3 X118.504 Y96.514 I10.33 J2.78 E.55632
;WIDTH:1.00332
G3 X119.657 Y95.746 I8.121 J10.941 E.11068
;WIDTH:1.00677
G3 X120.664 Y95.232 I7.564 J13.574 E.09063
;WIDTH:0.999654
G1 X121.182 Y95.018 E.04459
;WIDTH:1.00332
G3 X123.605 Y94.406 I3.945 J10.508 E.19999
;WIDTH:1.00691
G3 X124.742 Y94.316 I1.785 J15.379 E.09144
;WIDTH:0.999546
G1 X125.292 Y94.317 E.04375
;WIDTH:1.00332
G3 X126.672 Y94.446 I-.574 J13.614 E.11073
M73 P7 R3
;WIDTH:1.00691
G3 X127.787 Y94.683 I-2.657 J15.253 E.09139
;WIDTH:0.99969
G3 X134.401 Y99.917 I-2.809 J10.344 E.68965
M73 Q7 S3
G1 X134.765 Y100.666 E.06625
;WIDTH:0.999274
G1 X134.982 Y101.182 E.04451
;WIDTH:1.00332
G3 X135.39 Y102.505 I-12.856 J4.695 E.11061
;WIDTH:1.00676
G3 X135.597 Y103.617 I-15.164 J3.398 E.09067
;WIDTH:0.999654
G1 X135.655 Y104.174 E.04455
;WIDTH:0.99982
G1 X135.684 Y104.72 E.0435
G1 X135.684 Y104.733 E.00103
;WIDTH:0.99969
G3 X135.551 Y106.693 I-11.361 J.212 E.15648
;WIDTH:0.996384
G3 X135.316 Y107.777 I-11.859 J-1.997 E.08797
;WIDTH:0.99966
G3 X131.496 Y113.486 I-10.33 J-2.78 E.55632
;WIDTH:1.00332
G3 X130.343 Y114.254 I-8.121 J-10.941 E.11068
;WIDTH:1.00676
G3 X129.336 Y114.768 I-7.564 J-13.574 E.09063
;WIDTH:0.999654
G1 X128.818 Y114.982 E.04459
;WIDTH:1.00332
G3 X127.495 Y115.39 I-4.695 J-12.856 E.11061
;WIDTH:1.00676
G3 X126.383 Y115.597 I-3.398 J-15.165 E.09067
;WIDTH:0.999692
G3 X123.307 Y115.551 I-1.374 J-10.775 E.24557
;WIDTH:0.996384
G3 X122.223 Y115.316 I1.997 J-11.859 E.08797
;WIDTH:0.99966
G3 X120.959 Y114.89 I2.78 J-10.33 E.10618
M204 P4000
G1 X120.592 Y114.731 F18000
G1 E-.7 F2100
G1 X130.177 Y111.075 Z.379 F18000
G1 Z.2 F720
G1 E.7 F1500
M204 P500
;WIDTH:0.989026
G1 F2400
G3 X130.165 Y111.085 I-5.657 J-6.488 E.00123
G1 X129.505 Y111.589 E.06533
;WIDTH:0.991124
G1 X128.963 Y111.929 E.05045
;WIDTH:1.00699
G1 X128.441 Y112.204 E.0473
;WIDTH:1.00988
G3 X127.27 Y112.654 I-4.248 J-9.302 E.10093
;WIDTH:1.00696
G1 X126.641 Y112.813 E.05201
;WIDTH:0.99197
G1 X126.017 Y112.916 E.04991
;WIDTH:0.98903
G3 X124.355 Y112.955 I-1.058 J-9.64 E.13095
;WIDTH:0.991122
G1 X123.72 Y112.879 E.05042
;WIDTH:0.994206
G3 X122.122 Y112.445 I1.618 J-9.107 E.13116
;WIDTH:0.994462
G3 X120.809 Y111.792 I3.374 J-8.443 E.11615
;WIDTH:0.989028
G3 X118.915 Y110.165 I4.604 J-7.272 E.19712
G1 X118.411 Y109.505 E.06533
;WIDTH:0.991124
G1 X118.071 Y108.963 E.05045
;WIDTH:1.00699
G1 X117.796 Y108.441 E.0473
;WIDTH:1.00989
G3 X117.346 Y107.27 I9.302 J-4.248 E.10093
;WIDTH:1.00696
G1 X117.187 Y106.641 E.05201
;WIDTH:0.99197
G1 X117.084 Y106.017 E.04991
;WIDTH:0.989034
G3 X117.045 Y104.355 I9.64 J-1.058 E.13095
;WIDTH:0.991122
G1 X117.121 Y103.72 E.05042
;WIDTH:0.99421
G3 X117.555 Y102.122 I9.107 J1.618 E.13116
;WIDTH:0.994462
G3 X118.208 Y100.809 I8.443 J3.374 E.11615
;WIDTH:0.98903
G3 X119.835 Y98.915 I7.272 J4.604 E.19712
G1 X120.495 Y98.411 E.06533
;WIDTH:0.991124
G1 X121.037 Y98.071 E.05045
;WIDTH:1.00699
G1 X121.559 Y97.796 E.0473
;WIDTH:1.00988
G3 X122.73 Y97.346 I4.248 J9.302 E.10093
;WIDTH:1.00688
G3 X124.374 Y97.04 I2.615 J9.479 E.1342
;WIDTH:1.00953
G3 X125.832 Y97.06 I.587 J10.38 E.11729
;WIDTH:1.00695
G1 X126.66 Y97.19 E.06719
;WIDTH:1.00947
G3 X128.25 Y97.707 I-2.369 J9.991 E.13452
;WIDTH:1.00963
G3 X130.79 Y99.506 I-3.519 J7.661 E.25164
G3 X132.111 Y101.374 I-6.251 J5.821 E.18446
M73 P8 R3
;WIDTH:1.00977
G3 X132.654 Y102.73 I-9.076 J4.421 E.11753
;WIDTH:1.00688
G3 X132.96 Y104.374 I-9.485 J2.616 E.1342
;WIDTH:1.00442
G1 X132.979 Y104.816 E.03537
;WIDTH:0.989026
G1 X132.955 Y105.645 E.06524
;WIDTH:0.991122
G1 X132.879 Y106.28 E.05042
M73 Q8 S3
;WIDTH:0.994204
G3 X132.445 Y107.878 I-9.107 J-1.618 E.13116
;WIDTH:0.994462
G3 X131.792 Y109.191 I-8.443 J-3.374 E.11615
;WIDTH:0.989026
G3 X130.222 Y111.035 I-7.272 J-4.604 E.19116
M204 P4000
G1 X129.906 Y111.281 F18000
M106 S127.5
;LAYER_CHANGE
;Z:0.5
;HEIGHT:0.3
;BEFORE_LAYER_CHANGE
G92 E0.0
;0.5
M201 X3999.92 Y3999.92

G1 E-.7 F2100
G1 X129.906 Y111.281 Z.2 F18000
G1 X140.746 Y100.768 Z.5
;AFTER_LAYER_CHANGE
;0.5
M74 W0.0717487

M104 S225 ; set temperature
G1 X140.746 Y100.768
G1 Z.5 F720
G1 E.7 F1500
;WIDTH:0.999656
G1 F3733
G3 X140.752 Y100.792 I-15.641 J4.23 E.00289
;WIDTH:1.00515
G1 X141.031 Y102.032 E.14914
G1 X141.164 Y102.872 E.09979
;WIDTH:1.01063
G1 X141.251 Y103.721 E.10072
G1 X141.301 Y104.573 E.10073
;WIDTH:0.999825
G1 X141.301 Y104.586 E.00152
;WIDTH:0.999659
G3 X140.85 Y108.823 I-16.619 J.374 E.49842
;WIDTH:0.999203
G1 X140.513 Y110.021 E.1451
;WIDTH:0.999653
G3 X138.184 Y114.594 I-15.744 J-5.138 E.60107
;WIDTH:1.01059
G3 X136.819 Y116.233 I-19.08 J-14.503 E.25181
;WIDTH:0.999656
G3 X133.503 Y118.913 I-12.077 J-11.554 E.49872
G1 X132.351 Y119.552 E.15367
;WIDTH:0.995329
G1 X131.619 Y119.895 E.09386
;WIDTH:0.999656
G3 X129.208 Y120.752 I-6.616 J-14.79 E.2988
;WIDTH:1.00515
G1 X127.968 Y121.031 E.14914
G1 X127.128 Y121.164 E.09979
;WIDTH:1.01063
G1 X126.279 Y121.251 E.10072
G1 X125.414 Y121.301 E.10226
;WIDTH:0.999659
G3 X121.177 Y120.85 I-.374 J-16.619 E.49842
;WIDTH:0.999205
G1 X119.979 Y120.513 E.1451
;WIDTH:0.999655
G3 X115.406 Y118.184 I5.138 J-15.744 E.60107
;WIDTH:1.01059
G3 X113.767 Y116.819 I14.503 J-19.08 E.25181
;WIDTH:0.999656
G3 X111.087 Y113.503 I11.554 J-12.077 E.49872
G1 X110.448 Y112.351 E.15367
;WIDTH:0.995333
G1 X110.105 Y111.619 E.09386
;WIDTH:0.999656
G3 X109.248 Y109.208 I14.79 J-6.616 E.2988
;WIDTH:1.00515
G1 X108.969 Y107.968 E.14914
G1 X108.836 Y107.128 E.09979
;WIDTH:1.01063
G1 X108.749 Y106.279 E.10073
G1 X108.699 Y105.414 E.10226
;WIDTH:0.999659
G3 X109.15 Y101.177 I16.619 J-.375 E.49842
;WIDTH:0.999205
G1 X109.487 Y99.979 E.1451
;WIDTH:0.999656
G3 X111.816 Y95.406 I15.744 J5.138 E.60107
;WIDTH:1.01059
G3 X113.181 Y93.767 I19.08 J14.503 E.25181
;WIDTH:0.999656
G3 X116.497 Y91.087 I12.077 J11.554 E.49872
G1 X117.649 Y90.448 E.15367
;WIDTH:0.995333
G1 X118.381 Y90.105 E.09386
;WIDTH:0.999656
G3 X120.792 Y89.248 I6.616 J14.79 E.2988
;WIDTH:1.00515
G1 X122.032 Y88.969 E.14914
G1 X122.872 Y88.836 E.09979
;WIDTH:1.01135
G1 X123.721 Y88.75 E.10079
G1 X124.63 Y88.699 E.10753
;WIDTH:0.999139
G1 X125.439 Y88.701 E.09432
;WIDTH:1.00515
G1 X126.708 Y88.786 E.14924
G3 X128.39 Y89.053 I-2.251 J19.646 E.1999
;WIDTH:1.01063
G1 X129.219 Y89.255 E.1007
G1 X130.051 Y89.496 E.10223
;WIDTH:0.999653
G3 X134.594 Y91.816 I-5.181 J15.757 E.59743
;WIDTH:1.01059
G3 X136.233 Y93.181 I-14.503 J19.08 E.25181
;WIDTH:0.999655
G3 X138.913 Y96.497 I-11.554 J12.077 E.49872
G1 X139.552 Y97.649 E.15367
M73 P9 R3
;WIDTH:0.995329
G1 X139.895 Y98.381 E.09386
;WIDTH:0.999656
G3 X140.73 Y100.711 I-14.79 J6.616 E.28901
G1 X140.821 Y101.1 F18000
G1 E-.7 F2100
G1 X114.656 Y96.783 Z.963 F18000
G1 X114.216 Y96.71 Z.971
M73 Q9 S3
G1 Z.5 F720
G1 E.7 F1500
G1 F3733
G3 X116.733 Y94.194 I10.775 J8.259 E.41635
G1 X117.633 Y93.564 E.12815
;WIDTH:0.995821
G1 X118.21 Y93.215 E.07834
;WIDTH:0.999655
G3 X121.491 Y91.856 I6.783 J11.733 E.41546
;WIDTH:1.00422
G1 X122.524 Y91.623 E.12413
G1 X123.224 Y91.512 E.08308
;WIDTH:1.0094
G1 X123.933 Y91.441 E.08399
G1 X124.694 Y91.398 E.08984
;WIDTH:0.999216
G1 X125.368 Y91.4 E.07859
;WIDTH:1.00423
G1 X126.425 Y91.471 E.12418
G1 X127.128 Y91.564 E.08313
;WIDTH:1.0094
G1 X127.828 Y91.696 E.08396
G1 X128.57 Y91.871 E.08986
;WIDTH:0.999655
G3 X131.194 Y92.886 I-3.741 J13.578 E.32875
G1 X132.151 Y93.427 E.12824
;WIDTH:0.996128
G1 X132.713 Y93.798 E.07826
;WIDTH:0.999655
G3 X135.806 Y96.733 I-7.682 J11.193 E.49946
G1 X136.436 Y97.633 E.12815
;WIDTH:0.995817
G1 X136.787 Y98.209 E.07836
;WIDTH:0.995595
G3 X137.43 Y99.479 I-13.156 J7.45 E.1654
;WIDTH:0.999655
G3 X137.946 Y100.814 I-13.155 J5.854 E.16703
G3 X138.38 Y102.533 I-20.772 J6.166 E.20688
G3 X138.565 Y103.945 I-16.272 J2.845 E.16617
;WIDTH:0.999819
G1 X138.602 Y104.644 E.08167
G1 X138.602 Y104.656 E.0014
;WIDTH:0.999656
G3 X138.374 Y107.498 I-14.15 J.299 E.33316
G3 X137.936 Y109.216 I-21.196 J-4.492 E.20688
G3 X137.114 Y111.194 I-13.892 J-4.615 E.25009
G1 X136.573 Y112.151 E.12824
;WIDTH:0.996128
G1 X136.202 Y112.713 E.07826
;WIDTH:0.999655
G3 X133.267 Y115.806 I-11.193 J-7.682 E.49946
G1 X132.367 Y116.436 E.12815
;WIDTH:0.995815
G1 X131.79 Y116.785 E.07834
;WIDTH:0.999655
G3 X129.186 Y117.946 I-6.829 J-11.821 E.33319
G3 X127.467 Y118.38 I-6.166 J-20.772 E.20688
G3 X122.502 Y118.374 I-2.466 J-13.551 E.58236
G3 X120.784 Y117.936 I4.492 J-21.196 E.20688
G3 X118.806 Y117.114 I4.615 J-13.892 E.25009
G1 X117.849 Y116.573 E.12824
;WIDTH:0.996131
G1 X117.287 Y116.202 E.07826
;WIDTH:0.999655
G3 X114.194 Y113.267 I7.682 J-11.193 E.49946
G1 X113.564 Y112.367 E.12815
;WIDTH:0.995818
G1 X113.215 Y111.79 E.07834
;WIDTH:0.999655
