; generated by PrusaSlicer 2.9.2 on 2025-07-30 at 18:13:39 UTC


;
;

;
;

;
;

;
;
; 

; external perimeters extrusion width = 1.10mm
; perimeters extrusion width = 0.45mm
; infill extrusion width = 0.45mm
; solid infill extrusion width = 0.45mm
; top infill extrusion width = 0.42mm
; first layer extrusion width = 0.50mm

M73 P0 R4
M73 C2
M73 Q0 S5
M73 D2
M201 X4000 Y4000 Z200 E2500 ; sets maximum accelerations, mm/sec^2
M203 X300 Y300 Z40 E100 ; sets maximum feedrates, mm / sec
M204 P4000 R1200 T4000 ; sets acceleration (P, T) and retract acceleration (R), mm/sec^2
M205 X8.00 Y8.00 Z2.00 E10.00 ; sets the jerk limits, mm/sec
M205 S0 T0 ; sets the minimum extruding and travel feed rate, mm/sec

M486 S0
M486 Anested-rings.stl
M486 S-1

;TYPE:Custom
M17 ; enable steppers
M862.1 P0.4 A0 F1 ; nozzle check
M862.3 P "MK4S" ; printer model check
M862.5 P2 ; g-code level check
M862.6 P"Input shaper" ; FW feature check
M115 U6.2.4+8909

M555 X94.6313 Y70.6313 W60.7374 H64.7374

G90 ; use absolute coordinates
M83 ; extruder relative mode

M140 S60 ; set bed temp
M104 T0 S170 ; set extruder temp for bed leveling
M109 T0 R170 ; wait for temp

M84 E ; turn off E motor

G28 ; home all without mesh bed level

G1 X42 Y-4 Z5 F4800

M302 S155 ; lower cold extrusion limit to 155C


G1 E-2 F2400 ; retraction


M84 E ; turn off E motor

G29 P9 X10 Y-4 W32 H4

M106 S100

G0 Z40 F10000

M190 S60 ; wait for bed temp

M107

;
; MBL
;
M84 E ; turn off E motor
G29 P1 ; invalidate mbl & probe print area
G29 P1 X0 Y0 W50 H20 C ; probe near purge place
G29 P3.2 ; interpolate mbl probes
G29 P3.13 ; extrapolate mbl outside probe area
G29 A ; activate mbl

; prepare for purge
M104 S230
G0 X0 Y-4 Z15 F4800 ; move away and ready for the purge
M109 S230

G92 E0
M569 S0 E ; set spreadcycle mode for extruder

;
; Extrude purge line
;
G92 E0 ; reset extruder position
G1 E2 F2400 ; deretraction after the initial one before nozzle cleaning
G0 E7 X15 Z0.2 F500 ; purge
G0 X25 E4 F500 ; purge
M73 P1 R4
M73 Q1 S5
G0 X35 E4 F650 ; purge
M73 P2 R4
M73 Q2 S5
G0 X45 E4 F800 ; purge
M73 Q2 S4
G0 X48 Z0.05 F8000 ; wipe, move close to the bed
G0 X51 Z0.2 F8000 ; wipe, move quickly away from the bed

G92 E0
M221 S100 ; set flow to 100%
G21 ; set units to millimeters
G90 ; use absolute coordinates
M83 ; use relative distances for extrusion
M572 S0.036 ; Filament gcode

M142 S36 ; set heatbreak target temp
M107
;LAYER_CHANGE
;Z:0.2
;HEIGHT:0.2
G1 E-.7 F2100
G1 Z.8 F720
G1 X101.94 Y85.629 F18000
G1 Z.2 F720
G1 E.7 F1500
M204 P500
;TYPE:Skirt/Brim
;WIDTH:0.5
G1 F2400
M73 P3 R4
G3 X106.136 Y81.492 I24.066 J20.215 E.22428
G3 X117.065 Y75.923 I19.429 J24.617 E.46921
M73 Q3 S4
G3 X128.284 Y75.039 I8.043 J30.442 E.43002
G3 X139.499 Y78.576 I-3.679 J31.214 E.44959
G3 X148.508 Y86.136 I-15.343 J27.43 E.44963
G3 X154.077 Y97.065 I-24.617 J19.429 E.46921
G3 X154.961 Y108.284 I-30.442 J8.043 E.43002
G3 X151.424 Y119.499 I-31.214 J-3.679 E.44959
G3 X143.864 Y128.508 I-27.43 J-15.343 E.44963
G3 X132.935 Y134.077 I-19.429 J-24.617 E.46921
G3 X121.716 Y134.961 I-8.043 J-30.442 E.43002
M73 P4 R4
G3 X110.501 Y131.424 I3.679 J-31.214 E.44959
M73 Q4 S4
G3 X101.492 Y123.864 I15.343 J-27.43 E.44963
G3 X95.923 Y112.935 I24.617 J-19.429 E.46921
G3 X95.039 Y101.716 I30.442 J-8.043 E.43002
G3 X98.576 Y90.501 I31.214 J3.679 E.44959
G3 X101.902 Y85.675 I27.43 J15.343 E.22308
M204 P4000
G1 E-.7 F2100
M204 T4000
M486 S0
G1 X118.294 Y100.638 Z.587 F18000
G1 Z.2 F720
G1 E.7 F1500
M204 P500
;TYPE:External perimeter
;WIDTH:0.503718
G1 F2400
G1 X118.527 Y100.294 E.01592
;WIDTH:0.505099
G3 X119.957 Y98.786 I7.283 J5.473 E.08004
;WIDTH:0.503655
G1 X120.455 Y98.408 E.02395
;WIDTH:0.495463
G3 X121.735 Y97.69 I5.406 J8.131 E.05528
;WIDTH:0.494439
G1 X122.515 Y97.39 E.03138
;WIDTH:0.4971
G3 X124.151 Y97.039 I2.799 J9.061 E.06327
;WIDTH:0.495463
G1 X124.79 Y96.997 E.0241
;WIDTH:0.497095
G3 X126.447 Y97.126 I.098 J9.478 E.06285
;WIDTH:0.495464
G3 X127.861 Y97.523 I-1.927 J9.572 E.05532
;WIDTH:0.494358
G1 X128.624 Y97.861 E.03133
;WIDTH:0.495908
G1 X129.176 Y98.168 E.02379
;WIDTH:0.503716
G1 X129.706 Y98.527 E.02453
;WIDTH:0.505096
G3 X131.214 Y99.957 I-5.473 J7.283 E.08004
;WIDTH:0.503654
G1 X131.592 Y100.455 E.02395
;WIDTH:0.495462
G3 X132.31 Y101.735 I-8.131 J5.406 E.05528
;WIDTH:0.494361
G3 X132.828 Y103.324 I-8.953 J3.801 E.06281
;WIDTH:0.497098
G3 X133.003 Y104.781 I-9.287 J1.851 E.05547
;WIDTH:0.49436
G3 X132.874 Y106.447 I-9.726 J.086 E.0628
;WIDTH:0.497098
G3 X132.477 Y107.861 I-9.288 J-1.844 E.05552
;WIDTH:0.494358
G1 X132.139 Y108.624 E.03133
;WIDTH:0.495908
G1 X131.832 Y109.176 E.02379
;WIDTH:0.503716
G1 X131.473 Y109.706 E.02453
;WIDTH:0.505097
G3 X130.043 Y111.214 I-7.283 J-5.473 E.08004
;WIDTH:0.503654
G1 X129.545 Y111.592 E.02395
M73 P5 R4
;WIDTH:0.495462
G3 X128.265 Y112.31 I-5.406 J-8.131 E.05528
;WIDTH:0.494363
G3 X126.676 Y112.828 I-3.801 J-8.953 E.06281
;WIDTH:0.4971
G3 X125.219 Y113.003 I-1.851 J-9.287 E.05548
;WIDTH:0.49436
G3 X123.553 Y112.874 I-.086 J-9.726 E.0628
;WIDTH:0.4971
G3 X122.139 Y112.477 I1.844 J-9.288 E.05552
;WIDTH:0.494361
G1 X121.376 Y112.139 E.03133
;WIDTH:0.49591
G1 X120.824 Y111.832 E.02379
;WIDTH:0.503718
G1 X120.294 Y111.473 E.02453
;WIDTH:0.505098
G3 X119.489 Y110.807 I7.928 J-10.405 E.04016
;WIDTH:0.497164
G3 X118.408 Y109.545 I6.639 J-6.775 E.06284
;WIDTH:0.495463
G3 X117.69 Y108.265 I8.131 J-5.406 E.05528
;WIDTH:0.494363
G3 X117.172 Y106.676 I8.953 J-3.801 E.06281
;WIDTH:0.497099
G3 X116.997 Y105.219 I9.287 J-1.851 E.05547
;WIDTH:0.49436
G3 X117.126 Y103.553 I9.726 J-.086 E.0628
;WIDTH:0.497099
G3 X117.523 Y102.139 I9.288 J1.844 E.05552
;WIDTH:0.49436
G1 X117.861 Y101.376 E.03133
M73 Q5 S4
;WIDTH:0.495908
G1 X118.168 Y100.824 E.02379
;WIDTH:0.503718
G1 X118.261 Y100.688 E.00631
M204 P4000
G1 X118.485 Y100.357 F18000
G1 X117.912 Y100.39
M204 P500
G1 F2400
G1 X118.156 Y100.021 E.01695
;WIDTH:0.505101
G3 X119.681 Y98.417 I7.498 J5.601 E.08526
;WIDTH:0.503614
G1 X120.401 Y97.896 E.03404
G1 X121.168 Y97.453 E.03393
;WIDTH:0.505075
G3 X123.467 Y96.677 I4.104 J8.358 E.09351
;WIDTH:0.503652
G1 X124.348 Y96.561 E.03404
;WIDTH:0.504993
G3 X125.894 Y96.584 I.617 J10.623 E.05946
;WIDTH:0.503614
G3 X127.414 Y96.892 I-1.184 J9.734 E.05947
;WIDTH:0.49587
G1 X128.053 Y97.113 E.02547
;WIDTH:0.494359
G1 X128.855 Y97.473 E.033
;WIDTH:0.495508
G1 X129.445 Y97.803 E.02544
;WIDTH:0.503716
G1 X129.979 Y98.156 E.02453
;WIDTH:0.505101
G3 X131.583 Y99.681 I-5.601 J7.498 E.08526
;WIDTH:0.503613
G1 X132.104 Y100.401 E.03404
G1 X132.547 Y101.168 E.03393
;WIDTH:0.505075
G1 X132.905 Y101.979 E.03407
G1 X133.177 Y102.821 E.034
G3 X133.439 Y104.345 I-10.277 J2.547 E.05948
;WIDTH:0.502393
G1 X133.455 Y104.802 E.01747
;WIDTH:0.494445
G1 X133.429 Y105.687 E.03324
G1 X133.311 Y106.564 E.03322
;WIDTH:0.497245
G3 X132.887 Y108.053 I-9.028 J-1.769 E.05856
;WIDTH:0.494358
G1 X132.527 Y108.855 E.033
;WIDTH:0.495508
G1 X132.197 Y109.445 E.02544
;WIDTH:0.503716
G1 X131.844 Y109.979 E.02453
;WIDTH:0.505101
G3 X130.319 Y111.583 I-7.498 J-5.601 E.08526
;WIDTH:0.503613
G3 X129.026 Y112.44 I-6.047 J-7.721 E.05948
;WIDTH:0.495869
G1 X128.418 Y112.735 E.02545
;WIDTH:0.494445
G1 X127.591 Y113.05 E.03323
G1 X126.735 Y113.277 E.03325
;WIDTH:0.497245
G3 X125.198 Y113.455 I-1.82 J-9.017 E.05852
;WIDTH:0.494446
G1 X124.313 Y113.429 E.03324
G1 X123.436 Y113.311 E.03322
;WIDTH:0.497245
G3 X121.947 Y112.887 I1.769 J-9.028 E.05856
;WIDTH:0.494359
G1 X121.145 Y112.527 E.033
;WIDTH:0.495509
G1 X120.555 Y112.197 E.02544
;WIDTH:0.503718
G1 X120.021 Y111.844 E.02453
;WIDTH:0.505102
G3 X118.417 Y110.319 I5.601 J-7.498 E.08526
;WIDTH:0.503614
G3 X117.56 Y109.026 I7.721 J-6.047 E.05948
;WIDTH:0.495869
G1 X117.265 Y108.418 E.02545
;WIDTH:0.494445
G1 X116.95 Y107.591 E.03323
G1 X116.723 Y106.735 E.03325
;WIDTH:0.497245
G3 X116.545 Y105.198 I9.017 J-1.82 E.05852
;WIDTH:0.494446
G1 X116.571 Y104.313 E.03324
G1 X116.689 Y103.436 E.03322
;WIDTH:0.497245
G3 X117.113 Y101.947 I9.028 J1.769 E.05856
;WIDTH:0.494359
G1 X117.473 Y101.145 E.033
;WIDTH:0.495509
G1 X117.803 Y100.555 E.02544
;WIDTH:0.503718
G1 X117.879 Y100.44 E.00528
M204 P4000
G1 X118.1 Y100.106 F18000
G1 E-.7 F2100
G1 X125.838 Y94.426 Z.368 F18000
G1 Z.2 F720
G1 E.7 F1500
M204 P500
;WIDTH:0.498152
G1 F2400
G3 X128.007 Y94.827 I-.893 J10.899 E.08364
;WIDTH:0.499868
G3 X135.376 Y102.789 I-3.019 J10.185 E.43262
;WIDTH:0.503464
G3 X135.576 Y104.162 I-17.187 J3.201 E.05315
;WIDTH:0.499852
G3 X135.577 Y105.827 I-11.399 J.839 E.06332
;WIDTH:0.503634
G3 X135.429 Y106.933 I-17.875 J-1.826 E.04275
;WIDTH:0.501678
G3 X135.091 Y108.273 I-13.683 J-2.733 E.05274
;WIDTH:0.49985
G3 X132.307 Y112.691 I-10.177 J-3.327 E.20043
G3 X129.323 Y114.688 I-7.419 J-7.859 E.13706
M73 P6 R4
;WIDTH:0.503461
G3 X128.278 Y115.087 I-6.72 J-16.032 E.04284
;WIDTH:0.50171
G3 X125.838 Y115.576 I-3.412 J-10.701 E.09513
;WIDTH:0.499852
G3 X124.173 Y115.577 I-.839 J-11.399 E.06332
;WIDTH:0.503634
G3 X123.067 Y115.429 I1.826 J-17.875 E.04275
;WIDTH:0.501678
G3 X121.727 Y115.091 I2.733 J-13.683 E.05274
;WIDTH:0.499852
G3 X116.583 Y111.458 I3.31 J-10.145 E.24289
;WIDTH:0.499929
G1 X116.26 Y111.014 E.02086
;WIDTH:0.503464
G3 X115.55 Y109.822 I14.654 J-9.536 E.05314
;WIDTH:0.499853
G1 X115.311 Y109.32 E.02112
;WIDTH:0.503462
G3 X114.913 Y108.278 I16.132 J-6.752 E.04272
;WIDTH:0.501709
G3 X114.425 Y105.838 I10.701 J-3.412 E.09512
;WIDTH:0.499853
G3 X114.423 Y104.173 I11.398 J-.839 E.06332
;WIDTH:0.503636
G3 X114.571 Y103.067 I17.875 J1.826 E.04275
;WIDTH:0.501679
G3 X114.909 Y101.727 I13.683 J2.733 E.05274
M73 Q6 S4
;WIDTH:0.499851
G3 X122.789 Y94.626 I10.098 J3.283 E.422
;WIDTH:0.498152
G3 X123.885 Y94.451 I2.509 J12.175 E.04203
;WIDTH:0.500063
G3 X125.272 Y94.395 I1.225 J13.097 E.05279
;WIDTH:0.49993
G1 X125.778 Y94.423 E.01926
M204 P4000
G1 X126.176 Y94.461 F18000
G1 E-.7 F2100
G1 X122.978 Y115.875 Z.578 F18000
G1 Z.2 F720
G1 E.7 F1500
M204 P500
;WIDTH:0.498194
G1 F2400
G3 X122.123 Y115.679 I2.268 J-11.861 E.03321
;WIDTH:0.499851
G3 X120.48 Y115.1 I2.775 J-10.493 E.06626
;WIDTH:0.503443
G3 X119.203 Y114.426 I6.206 J-13.298 E.05532
;WIDTH:0.499867
G3 X115.415 Y110.517 I5.785 J-9.398 E.20898
G3 X114.568 Y108.682 I9.388 J-5.446 E.0769
;WIDTH:0.498195
G3 X114.033 Y106.429 I10.541 J-3.692 E.08782
;WIDTH:0.49987
G3 X114.077 Y103.248 I10.779 J-1.443 E.12131
;WIDTH:0.498194
G3 X114.321 Y102.123 I11.909 J1.998 E.04359
;WIDTH:0.499851
G3 X114.9 Y100.48 I10.493 J2.775 E.06626
;WIDTH:0.503444
G3 X115.574 Y99.203 I13.298 J6.206 E.05532
;WIDTH:0.499859
G3 X119.236 Y95.555 I9.476 J5.849 E.1982
;WIDTH:0.503443
G3 X120.515 Y94.884 I7.41 J12.573 E.05533
;WIDTH:0.49986
G3 X122.156 Y94.307 I4.73 J10.824 E.06615
;WIDTH:0.501709
G3 X123.562 Y94.029 I3.38 J13.403 E.0547
;WIDTH:0.503546
G3 X124.738 Y93.938 I1.706 J14.378 E.04519
;WIDTH:0.499794
G1 X125.31 Y93.939 E.02173
;WIDTH:0.501708
G3 X127.87 Y94.314 I-.375 J11.505 E.09891
;WIDTH:0.503461
G3 X128.982 Y94.676 I-3.946 J14.01 E.04479
;WIDTH:0.499851
G1 X129.52 Y94.9 E.02214
;WIDTH:0.503442
G3 X130.797 Y95.574 I-6.205 J13.298 E.05532
;WIDTH:0.499859
G3 X134.445 Y99.236 I-5.849 J9.476 E.1982
;WIDTH:0.503442
G3 X135.116 Y100.515 I-12.573 J7.41 E.05533
;WIDTH:0.499931
G3 X135.967 Y103.571 I-10.095 J4.458 E.12097
G3 X136.062 Y104.716 I-11.279 J1.513 E.04368
;WIDTH:0.499868
G3 X135.923 Y106.752 I-11.702 J.225 E.07764
;WIDTH:0.498193
G3 X135.679 Y107.877 I-11.909 J-1.998 E.04359
;WIDTH:0.499851
G3 X135.1 Y109.52 I-10.493 J-2.775 E.06626
;WIDTH:0.503443
G3 X134.426 Y110.797 I-13.298 J-6.205 E.05532
;WIDTH:0.499859
G3 X130.764 Y114.445 I-9.476 J-5.849 E.1982
;WIDTH:0.503442
G3 X129.479 Y115.118 I-7.366 J-12.493 E.05557
M73 P7 R4
;WIDTH:0.499866
G1 X128.682 Y115.432 E.03255
;WIDTH:0.498195
G3 X126.429 Y115.967 I-3.692 J-10.541 E.08782
;WIDTH:0.49987
G3 X123.248 Y115.923 I-1.443 J-10.779 E.12131
;WIDTH:0.498194
G3 X123.037 Y115.886 I1.998 J-11.909 E.00811
M204 P4000
G1 X122.646 Y115.806 F18000
G1 E-.7 F2100
G1 X120.586 Y117.448 Z.246 F18000
G1 Z.2 F720
G1 E.7 F1500
M204 P500
;WIDTH:0.499853
G1 F2400
G3 X119.009 Y116.772 I4.806 J-13.398 E.06523
;WIDTH:0.504563
G3 X117.808 Y116.075 I10.66 J-19.761 E.05331
;WIDTH:0.502117
G3 X116.958 Y115.476 I10.178 J-15.325 E.03971
;WIDTH:0.499671
G1 X116.426 Y115.048 E.02593
;WIDTH:0.499853
G3 X114.12 Y112.485 I8.71 J-10.159 E.13136
;WIDTH:0.497707
G3 X113.396 Y111.307 I12.834 J-8.7 E.05231
;WIDTH:0.499877
G1 X112.937 Y110.381 E.03927
G3 X112.081 Y107.752 I12.581 J-5.55 E.10523
;WIDTH:0.504364
G3 X111.833 Y106.042 I21.486 J-3.997 E.06632
M73 Q7 S4
;WIDTH:0.499853
G3 X111.831 Y103.97 I14.196 J-1.043 E.07879
;WIDTH:0.504564
G3 X112.016 Y102.594 I22.337 J2.286 E.0533
;WIDTH:0.502117
G3 X112.436 Y100.924 I17.045 J3.404 E.06578
;WIDTH:0.499851
G3 X113.228 Y99.009 I13.514 J4.469 E.07881
;WIDTH:0.504563
G3 X113.925 Y97.808 I19.761 J10.66 E.05331
;WIDTH:0.502117
G3 X114.952 Y96.426 I14.445 J9.669 E.06577
;WIDTH:0.499852
G3 X116.419 Y94.962 I10.453 J9 E.07882
;WIDTH:0.497706
G3 X118.094 Y93.742 I9.062 J10.685 E.07843
;WIDTH:0.500102
G3 X119.622 Y92.936 I8.381 J14.037 E.0657
;WIDTH:0.499853
G3 X122.248 Y92.083 I5.461 J12.354 E.10509
;WIDTH:0.497706
G3 X123.613 Y91.865 I3.126 J15.186 E.05229
;WIDTH:0.500103
G3 X125.339 Y91.796 I1.523 J16.286 E.0657
;WIDTH:0.499943
G1 X126.03 Y91.834 E.0263
;WIDTH:0.497708
G3 X128.077 Y92.156 I-1.146 J13.956 E.07843
;WIDTH:0.500102
G3 X129.728 Y92.666 I-3.999 J15.851 E.06572
;WIDTH:0.499852
G3 X130.991 Y93.228 I-5.879 J14.922 E.05254
;WIDTH:0.504562
G3 X132.192 Y93.925 I-10.66 J19.761 E.05331
;WIDTH:0.502116
G3 X133.574 Y94.952 I-9.669 J14.446 E.06577
;WIDTH:0.499852
G3 X135.038 Y96.419 I-9 J10.453 E.07882
;WIDTH:0.497706
G3 X136.258 Y98.094 I-10.685 J9.062 E.07843
;WIDTH:0.500102
G3 X137.064 Y99.622 I-14.037 J8.381 E.0657
;WIDTH:0.499852
G3 X137.919 Y102.248 I-12.592 J5.55 E.1051
;WIDTH:0.504364
G3 X138.167 Y103.958 I-21.486 J3.997 E.06632
;WIDTH:0.499851
G3 X138.169 Y106.03 I-14.195 J1.043 E.07879
;WIDTH:0.504561
G3 X137.984 Y107.406 I-22.337 J-2.286 E.0533
;WIDTH:0.502115
G3 X137.564 Y109.076 I-17.045 J-3.404 E.06578
;WIDTH:0.499851
G3 X136.772 Y110.991 I-13.514 J-4.469 E.07881
;WIDTH:0.504561
G3 X136.075 Y112.192 I-19.761 J-10.66 E.05331
;WIDTH:0.502115
G3 X135.048 Y113.574 I-14.445 J-9.669 E.06577
;WIDTH:0.499852
G3 X133.581 Y115.038 I-10.453 J-9 E.07882
;WIDTH:0.497706
G3 X131.906 Y116.258 I-9.062 J-10.685 E.07843
;WIDTH:0.500102
G3 X130.378 Y117.064 I-8.381 J-14.037 E.0657
;WIDTH:0.499852
G3 X127.752 Y117.919 I-5.55 J-12.592 E.1051
;WIDTH:0.504363
G1 X127.075 Y118.038 E.02637
G3 X124.654 Y118.201 I-2.134 J-13.64 E.09322
;WIDTH:0.502155
G3 X123.276 Y118.093 I.568 J-16.023 E.0528
G3 X120.924 Y117.564 I2.029 J-14.529 E.09216
;WIDTH:0.499853
G3 X120.642 Y117.468 I4.468 J-13.514 E.01132
M204 P4000
G1 X120.268 Y117.328 F18000
G1 E-.7 F2100
G1 X125.718 Y91.375 Z.663 F18000
G1 X125.721 Y91.356
G1 Z.2 F720
G1 E.7 F1500
M204 P500
;WIDTH:0.502154
G1 F2400
G3 X127.847 Y91.635 I-.854 J14.755 E.08195
;WIDTH:0.504457
G3 X129.251 Y92.013 I-3.951 J17.492 E.05582
M73 P8 R4
;WIDTH:0.499873
G3 X131.225 Y92.835 I-4.636 J13.913 E.08132
G1 X132.159 Y93.363 E.04077
;WIDTH:0.497754
G3 X133.326 Y94.173 I-7.917 J12.663 E.05375
;WIDTH:0.499851
G3 X134.927 Y95.609 I-8.128 J10.671 E.0818
;WIDTH:0.502154
G3 X136.463 Y97.563 I-10.845 J10.109 E.09502
;WIDTH:0.504458
G3 X137.189 Y98.823 I-15.162 J9.575 E.05582
;WIDTH:0.499931
G3 X138.372 Y102.182 I-12.5 J6.287 E.1357
G3 X138.625 Y103.946 I-22.382 J4.112 E.06774
G1 X138.661 Y104.648 E.02671
;WIDTH:0.499873
G3 X138.49 Y107.161 I-14.429 J.281 E.09583
;WIDTH:0.497753
G3 X138.189 Y108.549 I-14.728 J-2.468 E.05373
;WIDTH:0.499872
G3 X137.165 Y111.225 I-13.021 J-3.449 E.10907
G1 X136.637 Y112.159 E.04077
;WIDTH:0.497753
G3 X135.827 Y113.326 I-12.663 J-7.917 E.05375
;WIDTH:0.499851
G3 X134.391 Y114.927 I-10.671 J-8.128 E.0818
;WIDTH:0.502154
G3 X132.437 Y116.463 I-10.109 J-10.845 E.09502
;WIDTH:0.504458
G3 X131.177 Y117.189 I-9.575 J-15.162 E.05582
;WIDTH:0.499871
G3 X127.818 Y118.372 I-6.287 J-12.5 E.13568
M73 Q8 S4
G3 X126.048 Y118.625 I-4.082 J-22.195 E.06795
G1 X124.988 Y118.662 E.0403
;WIDTH:0.497753
