; generated by PrusaSlicer 2.9.1 on 2025-03-20 at 17:51:11 UTC


;
;
; 

; external perimeters extrusion width = 0.45mm
; perimeters extrusion width = 0.45mm
; infill extrusion width = 0.45mm
; solid infill extrusion width = 0.45mm
; top infill extrusion width = 0.40mm
; first layer extrusion width = 0.42mm

M73 P0 R23
M73 Q0 S24
M201 X1000 Y1000 Z200 E5000 ; sets maximum accelerations, mm/sec^2
M203 X200 Y200 Z12 E120 ; sets maximum feedrates, mm / sec
M204 S1250 T1250 ; sets acceleration (S) and retract acceleration (R), mm/sec^2
M205 X8.00 Y8.00 Z0.40 E4.50 ; sets the jerk limits, mm/sec
M205 S0 T0 ; sets the minimum extruding and travel feed rate, mm/sec

; printing object Lizard.stl id:0 copy 0
; stop printing object Lizard.stl id:0 copy 0

;TYPE:Custom
M862.3 P "MK3S" ; printer model check
M862.1 P0.4 ; nozzle diameter check
M115 U3.14.1 ; tell printer latest fw version
G90 ; use absolute coordinates
M83 ; extruder relative mode
M104 S215 ; set extruder temp
M140 S60 ; set bed temp
M190 S60 ; wait for bed temp
M109 S215 ; wait for extruder temp
G28 W ; home all without mesh bed level
G80 X87.9392 Y32.1959 W82.7052 H30.8929 ; mesh bed levelling

G1 Z0.2 F720
G1 Y-3 F1000 ; go outside print area
G92 E0
G1 X60 E9 F1000 ; intro line
G1 X100 E12.5 F1000 ; intro line
M73 Q0 S23

G92 E0
M221 S95

; Don't change E values below. Excessive value can damage the printer.
M907 E430 ; set extruder motor current
G21 ; set units to millimeters
G90 ; use absolute coordinates
M83 ; use relative distances for extrusion

M900 K0.05 ; Filament gcode LA 1.5
M900 K30 ; Filament gcode LA 1.0




M107
;LAYER_CHANGE
;Z:0.2
;HEIGHT:0.2
G1 E-.8 F2100
G1 Z.6 F720
G1 X88.508 Y45.831 F10800
G1 Z.2 F720
G1 E.8 F2100
M204 S800
;TYPE:Skirt/Brim
;WIDTH:0.42
G1 F1200
G1 X89.127 Y44.878 E.03563
G1 X89.729 Y44.283 E.02654
G1 X100.338 Y35.219 E.43751
G1 X101.113 Y34.744 E.0285
G1 X102.047 Y34.522 E.0301
G1 X130.262 Y32.389 E.88719
G1 X133.347 Y32.843 E.09777
G1 X168.462 Y44.603 E1.16111
G1 X169.011 Y44.898 E.01954
G1 X169.53 Y45.326 E.02109
G1 X169.921 Y45.808 E.01946
G1 X170.245 Y46.437 E.02218
G1 X170.416 Y47.075 E.02071
G1 X170.455 Y47.795 E.02261
G1 X170.378 Y48.423 E.01984
G1 X170.193 Y48.988 E.01864
G1 X169.869 Y49.566 E.02078
G1 X169.415 Y50.085 E.02162
G1 X168.904 Y50.469 E.02004
G1 X168.249 Y50.779 E.02272
G1 X133.387 Y62.442 E1.15262
G1 X132.854 Y62.568 E.01717
G1 X130.083 Y62.9 E.0875
G1 X102.034 Y60.756 E.88202
G1 X101.359 Y60.628 E.02154
M73 P1 R23
M73 Q1 S23
G1 X100.888 Y60.437 E.01594
G1 X100.323 Y60.059 E.02131
G1 X89.651 Y50.945 E.44003
G1 X88.93 Y50.17 E.03319
G1 X88.438 Y49.303 E.03126
G1 X88.157 Y48.202 E.03563
G1 X88.181 Y46.912 E.04045
G1 X88.491 Y45.888 E.03355
M204 S1000
;WIPE_START
G1 F8640
G1 X88.508 Y45.831 E-.01373
G1 X89.127 Y44.878 E-.26239
G1 X89.729 Y44.283 E-.19544
G1 X90.811 Y43.359 E-.32844
;WIPE_END
G1 Z.6 F720
; printing object Lizard.stl id:0 copy 0
G1 X130.102 Y55.436 F10800
G1 Z.2 F720
G1 E.8 F2100
M204 S800
;TYPE:External perimeter
;WIDTH:0.553676
G1 F1200
G1 X130.195 Y55.927 E.02122
M204 S1000
;WIPE_START
G1 F8640
G1 X130.102 Y55.436 E-.11539
;WIPE_END
G1 E-.68461 F2100
G1 Z.6 F720
G1 X131.663 Y56.047 F10800
G1 Z.2 F720
G1 E.8 F2100
M204 S800
;WIDTH:0.51434
G1 F1200
G1 X131.383 Y56.328 E.01555
M204 S1000
;WIPE_START
G1 F8640
G1 X131.663 Y56.047 E-.0916
;WIPE_END
G1 E-.7084 F2100
G1 Z.6 F720
G1 X132.001 Y57.497 F10800
G1 Z.2 F720
G1 E.8 F2100
M204 S800
;WIDTH:0.594812
G1 F1200
G1 X132.359 Y57.468 E.01648
M204 S1000
;WIPE_START
G1 F8640
G1 X132.001 Y57.497 E-.08293
;WIPE_END
G1 E-.71707 F2100
G1 Z.6 F720
G1 X130.941 Y56.795 F10800
G1 Z.2 F720
G1 E.8 F2100
M204 S800
;TYPE:Perimeter
;WIDTH:0.419999
G1 F1200
G1 X130.978 Y57.047 E.00799
G1 X131.082 Y57.322 E.00922
G1 X131.318 Y57.536 E.00999
G1 X131.119 Y57.779 E.00985
G1 X131.015 Y58.129 E.01145
G1 X130.789 Y58.14 E.00709
G1 X130.491 Y58.248 E.00994
G1 X130.436 Y58.007 E.00775
G1 X130.115 Y57.588 E.01655
G1 X129.728 Y57.368 E.01396
G1 X130.001 Y57.223 E.00969
G1 X130.25 Y56.95 E.01159
G1 X130.379 Y56.626 E.01093
G1 X130.466 Y56.686 E.00331
G1 X130.883 Y56.782 E.01342
M204 S1000
;WIPE_START
G1 F8640
G1 X130.941 Y56.795 E-.01372
G1 X130.978 Y57.047 E-.05881
G1 X131.082 Y57.322 E-.06789
G1 X131.318 Y57.536 E-.07356
G1 X131.119 Y57.779 E-.07252
G1 X131.015 Y58.129 E-.08431
G1 X130.789 Y58.14 E-.05225
G1 X130.491 Y58.248 E-.07319
G1 X130.436 Y58.007 E-.05708
G1 X130.115 Y57.588 E-.12188
G1 X129.728 Y57.368 E-.10279
G1 X129.812 Y57.323 E-.022
;WIPE_END
G1 Z.6 F720
G1 X125.935 Y56.591 F10800
G1 Z.2 F720
G1 E.8 F2100
M204 S800
;WIDTH:0.49482
G1 F1200
G1 X125.878 Y56.591 E.00214
G1 X125.85 Y56.64 E.00212
G1 X125.878 Y56.688 E.00209
G1 X125.935 Y56.688 E.00214
G1 X125.963 Y56.64 E.00209
M204 S1000
;WIPE_START
G1 F8640
G1 X125.935 Y56.688 E-.01283
G1 X125.878 Y56.688 E-.01316
G1 X125.85 Y56.64 E-.01283
G1 X125.878 Y56.591 E-.01303
G1 X125.935 Y56.591 E-.01316
;WIPE_END
G1 E-.73499 F2100
G1 Z.6 F720
G1 X127.861 Y50.745 F10800
G1 Z.2 F720
G1 E.8 F2100
M204 S800
;TYPE:External perimeter
;WIDTH:0.503177
G1 F1200
G1 X127.851 Y51.257 E.0196
;WIDTH:0.537271
G1 X127.923 Y51.762 E.02097
G1 X128.003 Y51.929 E.00761
;WIDTH:0.498181
G1 X128.083 Y52.096 E.00701
;WIDTH:0.45909
G1 X128.163 Y52.262 E.00638
;WIDTH:0.419999
G1 X128.138 Y52.519 E.0081
;WIDTH:0.456912
G1 X128.057 Y52.681 E.00623
;WIDTH:0.493825
G1 X127.976 Y52.843 E.00679
;WIDTH:0.530738
G1 X127.797 Y53.247 E.01792
;WIDTH:0.500137
G1 X127.699 Y53.49 E.00996
;WIDTH:0.469536
G1 X127.444 Y54.024 E.02099
;WIDTH:0.435539
G1 X126.978 Y54.842 E.03073
;WIDTH:0.426151
G1 X126.57 Y55.491 E.02443
;WIDTH:0.46896
G1 X126.295 Y56.05 E.02207
G1 X126.295 Y56.463 E.01463
;WIDTH:0.419999
G1 X126.445 Y56.759 E.0104
;WIDTH:0.428069
G1 X126.675 Y56.93 E.00918
G1 X127.152 Y57.052 E.01577
;WIDTH:0.42292
G1 X127.648 Y57.12 E.01582
;WIDTH:0.420005
G1 X128.452 Y57.174 E.02527
;WIDTH:0.429273
G1 X129.031 Y57.19 E.01861
G1 X129.27 Y57.161 E.00773
;WIDTH:0.424552
G1 X129.732 Y56.948 E.01614
;WIDTH:0.419999
G1 X129.942 Y56.731 E.00947
G1 X130.038 Y56.435 E.00976
;WIDTH:0.454242
G1 X130.09 Y56.266 E.00605
;WIDTH:0.488484
G1 X130.142 Y56.096 E.00659
;WIDTH:0.522726
G1 X130.195 Y55.927 E.00707
G1 X130.234 Y55.999 E.00327
;WIDTH:0.501523
G1 X130.424 Y56.169 E.00972
;WIDTH:0.460761
G1 X130.615 Y56.34 E.00891
;WIDTH:0.419999
G1 X130.97 Y56.423 E.01143
;WIDTH:0.4667
G1 X131.175 Y56.377 E.0074
;WIDTH:0.513401
G1 X131.381 Y56.331 E.00826
G1 X131.362 Y56.378 E.00198
;WIDTH:0.500925
G1 X131.338 Y56.575 E.00756
;WIDTH:0.460462
G1 X131.314 Y56.772 E.00689
;WIDTH:0.419999
G1 X131.368 Y57.061 E.00922
G1 X131.595 Y57.274 E.00976
;WIDTH:0.463703
G1 X131.696 Y57.329 E.00402
;WIDTH:0.507406
G1 X131.798 Y57.385 E.00449
;WIDTH:0.551109
G1 X131.899 Y57.441 E.00488
;WIDTH:0.594812
G1 X132.001 Y57.497 E.00534
G1 X131.953 Y57.522 E.00248
;WIDTH:0.568944
G1 X131.906 Y57.547 E.00233
;WIDTH:0.543076
G1 X131.77 Y57.66 E.00735
;WIDTH:0.502051
G1 X131.635 Y57.773 E.00672
;WIDTH:0.461025
G1 X131.499 Y57.886 E.00615
;WIDTH:0.419999
G1 X131.422 Y58.041 E.00543
G1 X131.387 Y58.333 E.00922
G1 X131.56 Y58.732 E.01364
;WIDTH:0.414395
G1 X131.317 Y58.564 E.00913
;WIDTH:0.419999
G1 X130.977 Y58.506 E.01081
G1 X130.714 Y58.548 E.00835
G1 X130.5 Y58.773 E.00974
;WIDTH:0.40214
G1 X130.431 Y58.971 E.00626
;WIDTH:0.420813
G1 X130.44 Y59.926 E.03001
;WIDTH:0.418595
G1 X130.288 Y60.169 E.00895
G1 X130.137 Y60.209 E.00488
G1 X130.065 Y59.912 E.00955
;WIDTH:0.420813
G1 X130.053 Y59.32 E.01861
G1 X130.135 Y58.759 E.01782
;WIDTH:0.419999
G1 X130.112 Y58.232 E.01654
G1 X129.909 Y57.913 E.01186
G1 X129.485 Y57.665 E.0154
;WIDTH:0.429273
G1 X129.016 Y57.576 E.01534
G1 X128.418 Y57.546 E.01924
;WIDTH:0.419882
G1 X127.585 Y57.492 E.02616
G1 X126.927 Y57.389 E.02088
;WIDTH:0.423653
G1 X126.293 Y57.222 E.02076
G1 X125.763 Y57.028 E.01787
;WIDTH:0.419999
G1 X125.481 Y56.851 E.01044
G1 X125.436 Y56.712 E.00458
G1 X125.629 Y56.266 E.01524
;WIDTH:0.46896
G1 X125.92 Y55.849 E.01801
G1 X126.261 Y55.266 E.02393
;WIDTH:0.424349
G1 X126.819 Y54.371 E.03345
;WIDTH:0.438223
G1 X127.11 Y53.815 E.02063
;WIDTH:0.469536
G1 X127.306 Y53.324 E.01875
;WIDTH:0.500137
G1 X127.367 Y53.098 E.0089
;WIDTH:0.530738
G1 X127.427 Y52.872 E.00948
G1 X127.402 Y52.7 E.00705
;WIDTH:0.493825
G1 X127.378 Y52.527 E.00655
;WIDTH:0.456912
G1 X127.353 Y52.355 E.00598
;WIDTH:0.466004
G1 X127.366 Y52.159 E.00691
;WIDTH:0.512009
G1 X127.38 Y51.963 E.00766
;WIDTH:0.558013
G1 X127.397 Y51.505 E.01963
;WIDTH:0.525128
G1 X127.402 Y51.244 E.01047
;WIDTH:0.503177
G1 X127.407 Y50.704 E.02067
G1 X127.861 Y50.686 E.01739
M204 S1000
;WIPE_START
G1 F8640
G1 X127.861 Y50.745 E-.01362
G1 X127.851 Y51.257 E-.11824
G1 X127.923 Y51.762 E-.11779
G1 X128.003 Y51.929 E-.04276
G1 X128.083 Y52.096 E-.04276
G1 X128.163 Y52.262 E-.04255
G1 X128.138 Y52.519 E-.05962
G1 X128.057 Y52.681 E-.04182
G1 X127.976 Y52.843 E-.04182
G1 X127.797 Y53.247 E-.10203
G1 X127.699 Y53.49 E-.0605
G1 X127.482 Y53.945 E-.11649
;WIPE_END
G1 Z.6 F720
G1 X131.879 Y59.082 F10800
G1 Z.2 F720
G1 E.8 F2100
M204 S800
;WIDTH:0.454514
G1 F1200
G1 X132.324 Y59.319 E.01726
G1 X132.623 Y59.63 E.01476
;WIDTH:0.453672
G1 X132.668 Y59.784 E.00548
G1 X132.528 Y59.882 E.00584
G1 X132.357 Y59.906 E.0059
;WIDTH:0.454514
G1 X132.101 Y59.664 E.01206
G1 X131.907 Y59.205 E.01705
G1 X131.76 Y58.997 E.00872
;WIDTH:0.418717
G1 X131.614 Y58.789 E.00794
;WIDTH:0.418414
G1 X131.747 Y58.935 E.00617
;WIDTH:0.453908
G1 X131.839 Y59.037 E.00469
M204 S1000
;WIPE_START
G1 F8640
G1 X131.879 Y59.082 E-.0139
G1 X132.324 Y59.319 E-.11642
G1 X132.623 Y59.63 E-.09962
G1 X132.668 Y59.784 E-.03705
G1 X132.528 Y59.882 E-.03946
G1 X132.357 Y59.906 E-.03987
G1 X132.101 Y59.664 E-.08134
G1 X131.907 Y59.205 E-.11506
G1 X131.76 Y58.997 E-.05881
G1 X131.614 Y58.789 E-.05868
G1 X131.747 Y58.935 E-.0456
G1 X131.839 Y59.037 E-.03172
;WIPE_END
G1 E-.06247 F2100
G1 Z.6 F720
G1 X132.359 Y57.468 F10800
G1 Z.2 F720
G1 E.8 F2100
M204 S800
;WIDTH:0.584944
G1 F1200
G1 X132.524 Y57.402 E.00801
;WIDTH:0.537667
G1 X132.689 Y57.336 E.00731
;WIDTH:0.490389
G1 X132.855 Y57.27 E.00665
;WIDTH:0.443111
G1 X133.258 Y57.272 E.01341
;WIDTH:0.438258
G1 X133.525 Y57.452 E.01059
G1 X133.477 Y57.531 E.00304
G1 X133.283 Y57.666 E.00777
;WIDTH:0.443111
G1 X132.866 Y57.65 E.01389
;WIDTH:0.490389
G1 X132.697 Y57.589 E.00669
;WIDTH:0.537667
G1 X132.528 Y57.529 E.00738
;WIDTH:0.584944
G1 X132.416 Y57.489 E.00536
M204 S1000
;WIPE_START
G1 F8640
G1 X132.359 Y57.468 E-.01403
G1 X132.524 Y57.402 E-.04103
G1 X132.689 Y57.336 E-.04103
G1 X132.855 Y57.27 E-.04125
G1 X133.258 Y57.272 E-.09305
G1 X133.525 Y57.452 E-.07435
G1 X133.477 Y57.531 E-.02134
G1 X133.283 Y57.666 E-.05457
G1 X132.866 Y57.65 E-.09636
G1 X132.697 Y57.589 E-.04149
G1 X132.528 Y57.529 E-.04141
G1 X132.416 Y57.489 E-.02746
;WIPE_END
G1 E-.21263 F2100
G1 Z.6 F720
G1 X131.663 Y56.047 F10800
G1 Z.2 F720
G1 E.8 F2100
M204 S800
;WIDTH:0.492014
G1 F1200
G1 X131.736 Y55.967 E.00404
;WIDTH:0.476935
G1 X132.003 Y55.544 E.01805
;WIDTH:0.436604
G1 X132.291 Y55.347 E.01142
G1 X132.506 Y55.362 E.00706
G1 X132.527 Y55.428 E.00227
G1 X132.49 Y55.619 E.00637
G1 X132.237 Y55.837 E.01093
;WIDTH:0.464309
G1 X131.95 Y55.942 E.01071
;WIDTH:0.492014
G1 X131.719 Y56.027 E.00919
M204 S1000
;WIPE_START
G1 F8640
G1 X131.663 Y56.047 E-.01373
G1 X131.736 Y55.967 E-.02501
G1 X132.003 Y55.544 E-.1155
G1 X132.291 Y55.347 E-.08057
G1 X132.506 Y55.362 E-.04976
G1 X132.527 Y55.428 E-.01599
G1 X132.49 Y55.619 E-.04492
G1 X132.237 Y55.837 E-.07711
G1 X131.95 Y55.942 E-.07056
G1 X131.719 Y56.027 E-.05683
;WIPE_END
G1 E-.25002 F2100
G1 Z.6 F720
G1 X130.102 Y55.436 F10800
G1 Z.2 F720
G1 E.8 F2100
M204 S800
;WIDTH:0.553676
G1 F1200
G1 X130.058 Y55.344 E.00433
;WIDTH:0.509498
G1 X130.015 Y55.251 E.00398
;WIDTH:0.46532
G1 X129.972 Y55.158 E.0036
;WIDTH:0.421142
G1 X129.929 Y55.065 E.00322
;WIDTH:0.376964
G1 X129.903 Y54.871 E.00544
G1 X129.966 Y54.834 E.00203
G1 X130.023 Y54.72 E.00354
G1 X130.143 Y54.729 E.00334
G1 X130.171 Y54.776 E.00152
G1 X130.265 Y54.846 E.00326
G1 X130.25 Y54.957 E.00311
;WIDTH:0.421142
G1 X130.213 Y55.077 E.00395
;WIDTH:0.46532
G1 X130.176 Y55.197 E.00441
;WIDTH:0.509498
G1 X130.139 Y55.317 E.00487
;WIDTH:0.553676
G1 X130.119 Y55.379 E.00277
M204 S1000
;WIPE_START
G1 F8640
G1 X130.102 Y55.436 E-.01373
G1 X130.058 Y55.344 E-.02355
G1 X130.015 Y55.251 E-.02366
G1 X129.972 Y55.158 E-.02366
G1 X129.929 Y55.065 E-.02366
G1 X129.903 Y54.871 E-.0452
G1 X129.966 Y54.834 E-.01687
G1 X130.023 Y54.72 E-.02943
G1 X130.143 Y54.729 E-.02779
G1 X130.171 Y54.776 E-.01263
G1 X130.265 Y54.846 E-.02706
G1 X130.25 Y54.957 E-.02586
G1 X130.213 Y55.077 E-.029
G1 X130.176 Y55.197 E-.029
G1 X130.139 Y55.317 E-.029
G1 X130.119 Y55.379 E-.01504
;WIPE_END
G1 E-.40486 F2100
G1 Z.6 F720
G1 X130.465 Y56.922 F10800
G1 Z.2 F720
G1 E.8 F2100
M204 S800
;TYPE:Solid infill
;WIDTH:0.495415
G1 F1200
G1 X130.647 Y57.104 E.00968
G1 X130.709 Y57.347 E.00944
G1 X130.852 Y57.571 E.01
G1 X130.749 Y57.812 E.00986
G1 X130.72 Y57.817 E.00111
G1 X130.179 Y57.276 E.02879
M204 S1000
;WIPE_START
G1 F8640
G1 X130.72 Y57.817 E-.17666
G1 X130.749 Y57.812 E-.00679
G1 X130.852 Y57.571 E-.06052
G1 X130.709 Y57.347 E-.06136
G1 X130.647 Y57.104 E-.05791
G1 X130.465 Y56.922 E-.05943
;WIPE_END
G1 E-.37733 F2100
G1 Z.6 F720
G1 X130.098 Y39.664 F10800
G1 Z.2 F720
G1 E.8 F2100
M204 S800
;TYPE:External perimeter
;WIDTH:0.4933
G1 F1200
G1 X130.115 Y39.533 E.00495
M204 S1000
;WIPE_START
G1 F8640
G1 X130.098 Y39.664 E-.0305
;WIPE_END
G1 E-.7695 F2100
G1 Z.6 F720
G1 X131.65 Y39.254 F10800
G1 Z.2 F720
G1 E.8 F2100
M204 S800
;WIDTH:0.480958
G1 F1200
G1 X131.444 Y39.061 E.01028
M204 S1000
;WIPE_START
G1 F8640
G1 X131.65 Y39.254 E-.06518
;WIPE_END
G1 E-.73482 F2100
G1 Z.6 F720
G1 X132.03 Y37.792 F10800
G1 Z.2 F720
G1 E.8 F2100
M204 S800
;WIDTH:0.596432
G1 F1200
G1 X132.401 Y37.82 E.01712
M204 S1000
;WIPE_START
G1 F8640
G1 X132.03 Y37.792 E-.08591
;WIPE_END
G1 E-.71409 F2100
G1 Z.6 F720
G1 X131.584 Y36.493 F10800
G1 Z.2 F720
G1 E.8 F2100
M204 S800
;WIDTH:0.395602
G1 F1200
G1 X131.515 Y36.559 E.0028
M204 S1000
G1 X131.925 Y36.135 F10800
M204 S800
;WIDTH:0.456137
G1 F1200
G1 X131.754 Y36.314 E.00851
;WIDTH:0.425086
G1 X131.584 Y36.493 E.00784
;WIDTH:0.422142
G1 X131.695 Y36.352 E.00566
;WIDTH:0.450249
G1 X131.807 Y36.211 E.0061
;WIDTH:0.456137
G1 X132.014 Y35.704 E.01882
;WIDTH:0.459118
G1 X132.238 Y35.429 E.01227
G1 X132.388 Y35.368 E.0056
G1 X132.6 Y35.489 E.00845
G1 X132.578 Y35.65 E.00562
G1 X132.363 Y35.904 E.01152
;WIDTH:0.456137
G1 X131.978 Y36.107 E.01495
M204 S1000
;WIPE_START
G1 F8640
G1 X131.925 Y36.135 E-.01384
G1 X131.754 Y36.314 E-.05716
G1 X131.584 Y36.493 E-.057
G1 X131.695 Y36.352 E-.04144
G1 X131.807 Y36.211 E-.04158
G1 X132.014 Y35.704 E-.12645
G1 X132.238 Y35.429 E-.0819
G1 X132.388 Y35.368 E-.03739
G1 X132.6 Y35.489 E-.05636
G1 X132.578 Y35.65 E-.03752
G1 X132.363 Y35.904 E-.07684
G1 X131.978 Y36.107 E-.1005
;WIPE_END
G1 E-.07202 F2100
G1 Z.6 F720
G1 X130.982 Y37.163 F10800
G1 Z.2 F720
G1 E.8 F2100
M204 S800
;TYPE:Perimeter
;WIDTH:0.419999
G1 F1200
G1 X131.079 Y37.506 E.01118
G1 X131.283 Y37.754 E.01007
G1 X131.091 Y37.902 E.0076
G1 X130.985 Y38.067 E.00615
G1 X130.898 Y38.494 E.01366
G1 X130.66 Y38.518 E.0075
G1 X130.36 Y38.641 E.01017
G1 X130.145 Y38.263 E.01363
G1 X129.707 Y37.907 E.0177
G1 X130.127 Y37.65 E.01544
G1 X130.335 Y37.38 E.01069
G1 X130.464 Y37.048 E.01117
G1 X130.567 Y37.103 E.00366
G1 X130.923 Y37.154 E.01128
M204 S1000
;WIPE_START
G1 F8640
G1 X130.982 Y37.163 E-.01378
G1 X131.079 Y37.506 E-.08231
G1 X131.283 Y37.754 E-.07415
G1 X131.091 Y37.902 E-.05598
G1 X130.985 Y38.067 E-.04528
G1 X130.898 Y38.494 E-.10062
G1 X130.66 Y38.518 E-.05523
G1 X130.36 Y38.641 E-.07487
G1 X130.145 Y38.263 E-.10041
G1 X129.707 Y37.907 E-.13033
G1 X129.954 Y37.755 E-.06704
;WIPE_END
G1 Z.6 F720
G1 X125.904 Y38.599 F10800
G1 Z.2 F720
G1 E.8 F2100
M204 S800
;WIDTH:0.501836
G1 F1200
G1 X125.846 Y38.599 E.00221
G1 X125.818 Y38.649 E.00219
G1 X125.846 Y38.698 E.00215
G1 X125.904 Y38.698 E.00221
G1 X125.932 Y38.649 E.00215
M204 S1000
;WIPE_START
G1 F8640
