; generated by PrusaSlicer 2.9.1 on 2025-03-20 at 17:49:05 UTC


;
;

;
;

;
;

;
;

;
;
; 

; external perimeters extrusion width = 0.45mm
; perimeters extrusion width = 0.45mm
; infill extrusion width = 0.45mm
; solid infill extrusion width = 0.45mm
; top infill extrusion width = 0.42mm
; first layer extrusion width = 0.50mm

M73 P0 R10
M73 Q0 S12
M201 X4000 Y4000 Z200 E2500 ; sets maximum accelerations, mm/sec^2
M203 X300 Y300 Z40 E100 ; sets maximum feedrates, mm / sec
M204 P4000 R1200 T4000 ; sets acceleration (P, T) and retract acceleration (R), mm/sec^2
M205 X8.00 Y8.00 Z2.00 E10.00 ; sets the jerk limits, mm/sec
M205 S0 T0 ; sets the minimum extruding and travel feed rate, mm/sec

M486 S0
M486 ALizard.stl
M486 S-1

;TYPE:Custom
M17 ; enable steppers
M862.1 P0.4 A0 F1 ; nozzle check
M862.3 P "MK4S" ; printer model check
M862.5 P2 ; g-code level check
M862.6 P"Input shaper" ; FW feature check
M115 U6.2.2+8853

M555 X90.7115 Y30.6446 W77.2488 H29.9958

G90 ; use absolute coordinates
M83 ; extruder relative mode

M140 S60 ; set bed temp
M104 T0 S170 ; set extruder temp for bed leveling
M109 T0 R170 ; wait for temp

M84 E ; turn off E motor

G28 ; home all without mesh bed level

G1 X42 Y-4 Z5 F4800

M302 S160 ; lower cold extrusion limit to 160C


G1 E-2 F2400 ; retraction


M84 E ; turn off E motor

G29 P9 X10 Y-4 W32 H4

M106 S100

G0 Z40 F10000

M190 S60 ; wait for bed temp

M107

;
; MBL
;
M84 E ; turn off E motor
G29 P1 ; invalidate mbl & probe print area
G29 P1 X0 Y0 W50 H20 C ; probe near purge place
G29 P3.2 ; interpolate mbl probes
G29 P3.13 ; extrapolate mbl outside probe area
G29 A ; activate mbl

; prepare for purge
M104 S230
G0 X0 Y-4 Z15 F4800 ; move away and ready for the purge
M109 S230

G92 E0
M569 S0 E ; set spreadcycle mode for extruder

;
; Extrude purge line
;
G92 E0 ; reset extruder position
G1 E2 F2400 ; deretraction after the initial one before nozzle cleaning
G0 E7 X15 Z0.2 F500 ; purge
G0 X25 E4 F500 ; purge
G0 X35 E4 F650 ; purge
G0 X45 E4 F800 ; purge
M73 P1 R10
G0 X48 Z0.05 F8000 ; wipe, move close to the bed
M73 Q1 S12
G0 X51 Z0.2 F8000 ; wipe, move quickly away from the bed

G92 E0
M221 S100 ; set flow to 100%
G21 ; set units to millimeters
G90 ; use absolute coordinates
M83 ; use relative distances for extrusion
M572 S0.036 ; Filament gcode

M142 S36 ; set heatbreak target temp
M107
;LAYER_CHANGE
;Z:0.2
;HEIGHT:0.2
G1 E-.7 F2100
G1 Z.8 F720
M486 S0
G1 X130.129 Y55.53 F18000
G1 Z.2 F720
G1 E.7 F1500
M204 P500
;TYPE:External perimeter
;WIDTH:0.512456
G1 F2400
G1 X130.163 Y55.807 E.0109
M204 P4000
G1 E-.7 F2100
M204 T4000
G1 X131.685 Y56.047 Z.227 F18000
G1 Z.2 F720
G1 E.7 F1500
M204 P500
;WIDTH:0.49653
G1 F2400
G1 X131.501 Y56.197 E.00895
M204 P4000
G1 X131.685 Y56.047 F18000
M204 P500
G1 F2400
G1 X131.816 Y55.856 E.00874
;WIDTH:0.482808
G1 X132.205 Y55.325 E.02408
;WIDTH:0.473341
G3 X132.523 Y55.396 I-.099 J1.187 E.0117
G1 X132.508 Y55.675 E.01
G1 X132.375 Y55.763 E.00571
;WIDTH:0.482808
G1 X131.876 Y55.934 E.01929
;WIDTH:0.49653
G1 X131.737 Y56.016 E.00609
M204 P4000
G1 X131.944 Y55.674 F18000
G1 E-.7 F2100
G1 X130.749 Y56.981 Z.231 F18000
G1 Z.2 F720
G1 E.7 F1500
M204 P500
;TYPE:Perimeter
;WIDTH:0.67675
G1 F2400
G1 X130.82 Y57.208 E.01254
G1 X131.036 Y57.556 E.02159
G1 X130.844 Y57.923 E.02183
G1 X130.605 Y57.99 E.01308
G1 X130.404 Y57.672 E.01983
G1 X130.057 Y57.356 E.02473
G1 X130.229 Y57.215 E.01172
G1 X130.452 Y56.892 E.02069
G1 X130.691 Y56.964 E.01316
M204 P4000
G1 E-.7 F2100
G1 X125.966 Y56.585 Z.283 F18000
G1 Z.2 F720
G1 E.7 F1500
M204 P500
;WIDTH:0.39723
G1 F2400
G1 X125.9 Y56.624 E.00226
G1 X125.966 Y56.662 E.00224
G1 X125.988 Y56.624 E.00129
M204 P4000
G1 E-.7 F2100
G1 X127.854 Y50.689 Z.309 F18000
G1 Z.2 F720
G1 E.7 F1500
M204 P500
;TYPE:External perimeter
;WIDTH:0.508537
G1 F2400
G1 X127.863 Y50.689 E.00035
G1 X127.857 Y51.111 E.01634
;WIDTH:0.537974
G1 X127.886 Y51.404 E.01212
;WIDTH:0.572167
G1 X127.914 Y51.697 E.01295
;WIDTH:0.603357
G1 X127.989 Y52.011 E.01504
;WIDTH:0.634546
G1 X128.063 Y52.326 E.01592
G1 X128.009 Y52.572 E.01239
;WIDTH:0.603099
G1 X127.954 Y52.819 E.01179
;WIDTH:0.571651
G1 X127.849 Y53.126 E.01426
;WIDTH:0.539289
G1 X127.743 Y53.432 E.01337
;WIDTH:0.506926
G1 X127.318 Y54.332 E.0384
;WIDTH:0.498016
G1 X126.982 Y54.91 E.0253
;WIDTH:0.505182
G1 X126.484 Y55.723 E.03665
G1 X126.311 Y56.206 E.01972
;WIDTH:0.500177
G1 X126.328 Y56.483 E.01055
;WIDTH:0.50799
G1 X126.468 Y56.742 E.01139
;WIDTH:0.510057
G1 X126.706 Y56.903 E.01116
G1 X127.168 Y57.005 E.01838
;WIDTH:0.50904
G1 X127.706 Y57.09 E.02111
;WIDTH:0.505397
G1 X128.46 Y57.129 E.02903
;WIDTH:0.509108
G1 X129.036 Y57.155 E.02235
G1 X129.557 Y57.031 E.02076
;WIDTH:0.499999
G1 X129.844 Y56.827 E.01338
G1 X130.104 Y56.398 E.01907
G1 X130.167 Y56.11 E.0112
;WIDTH:0.499126
G1 X130.166 Y55.818 E.01108
;WIDTH:0.497803
G1 X130.236 Y55.998 E.0073
;WIDTH:0.499999
G1 X130.525 Y56.325 E.01659
G1 X130.899 Y56.456 E.01506
G1 X131.247 Y56.388 E.01348
;WIDTH:0.496719
G1 X131.48 Y56.222 E.0108
G1 X131.321 Y56.483 E.01153
;WIDTH:0.499999
G1 X131.286 Y56.893 E.01564
G1 X131.442 Y57.2 E.01309
G1 X131.774 Y57.403 E.01479
;WIDTH:0.534947
G1 X131.97 Y57.441 E.00817
;WIDTH:0.569894
G1 X132.166 Y57.479 E.00875
G1 X131.959 Y57.559 E.00972
;WIDTH:0.534947
G1 X131.752 Y57.639 E.00908
;WIDTH:0.499999
G2 X131.355 Y58.161 I.367 J.691 E.02572
G1 X131.41 Y58.564 E.01546
G1 X131.329 Y58.525 E.00342
G1 X130.902 Y58.466 E.01638
G1 X130.577 Y58.607 E.01346
G1 X130.494 Y58.74 E.00596
;WIDTH:0.454405
G1 X130.455 Y58.962 E.00771
;WIDTH:0.424626
G1 X130.417 Y59.184 E.00715
;WIDTH:0.444256
G1 X130.447 Y59.563 E.01269
;WIDTH:0.493666
G1 X130.476 Y59.942 E.01425
G3 X130.162 Y60.19 I-1.018 J-.966 E.01505
G1 X130.053 Y60.044 E.00683
G1 X130.03 Y59.585 E.01722
;WIDTH:0.486338
G1 X130.049 Y59.415 E.00631
;WIDTH:0.451345
G1 X130.067 Y59.244 E.00584
;WIDTH:0.416352
G1 X130.086 Y59.074 E.00531
;WIDTH:0.420222
G1 X130.116 Y58.891 E.00582
;WIDTH:0.459085
G1 X130.147 Y58.708 E.00642
;WIDTH:0.497947
G1 X130.177 Y58.524 E.00705
;WIDTH:0.499999
G1 X130.061 Y58.137 E.01535
G1 X129.812 Y57.84 E.01473
;WIDTH:0.502905
G1 X129.314 Y57.648 E.02041
;WIDTH:0.509108
G2 X128.431 Y57.591 I-1.327 J13.666 E.03431
;WIDTH:0.505397
G1 X127.601 Y57.528 E.03201
;WIDTH:0.50904
G1 X127.069 Y57.46 E.02079
;WIDTH:0.510057
G3 X126 Y57.121 I.879 J-4.628 E.04366
;WIDTH:0.503402
G1 X125.551 Y56.867 E.01975
;WIDTH:0.499999
G1 X125.481 Y56.759 E.00489
G1 X125.564 Y56.482 E.01099
;WIDTH:0.500177
G1 X125.806 Y55.994 E.02071
;WIDTH:0.505182
G3 X126.808 Y54.308 I27.015 J14.922 E.0754
;WIDTH:0.509587
G1 X127.073 Y53.791 E.02254
;WIDTH:0.513577
G1 X127.341 Y53.183 E.026
;WIDTH:0.542614
G1 X127.394 Y52.932 E.01066
;WIDTH:0.571651
G1 X127.447 Y52.681 E.01128
;WIDTH:0.59678
G1 X127.448 Y52.439 E.01115
;WIDTH:0.621908
G1 X127.434 Y51.938 E.02413
;WIDTH:0.582342
G1 X127.421 Y51.679 E.01163
;WIDTH:0.542776
G1 X127.407 Y51.42 E.01078
;WIDTH:0.508537
G1 X127.407 Y50.707 E.0276
G1 X127.794 Y50.692 E.01499
M204 P4000
G1 X127.859 Y51.086 F18000
G1 E-.7 F2100
G1 X132.274 Y57.482 Z.336 F18000
G1 Z.2 F720
G1 E.7 F1500
M204 P500
;WIDTH:0.570704
G1 F2400
G1 X132.321 Y57.47 E.00213
;WIDTH:0.563596
G1 X132.694 Y57.356 E.01689
;WIDTH:0.538437
G1 X133.068 Y57.242 E.01611
;WIDTH:0.513278
G1 X133.229 Y57.239 E.0063
G1 X133.489 Y57.442 E.0129
G1 X133.424 Y57.568 E.00554
G1 X133.176 Y57.711 E.0112
G1 X132.737 Y57.563 E.01812
;WIDTH:0.541991
G1 X132.506 Y57.523 E.00973
;WIDTH:0.570704
G1 X132.333 Y57.493 E.00771
M204 P4000
G1 X132.706 Y57.348 F18000
G1 E-.7 F2100
G1 X131.915 Y59.143 Z.234 F18000
G1 Z.2 F720
G1 E.7 F1500
M204 P500
;WIDTH:0.51796
G1 F2400
G1 X131.994 Y59.202 E.00389
G1 X132.518 Y59.448 E.02287
G3 X132.657 Y59.767 I-.376 J.354 E.01402
G3 X132.355 Y59.905 I-.39 J-.455 E.01329
G3 X132.143 Y59.717 I.079 J-.302 E.01162
G1 X131.937 Y59.199 E.02202
M204 P4000
G1 X132.308 Y59.347 F18000
G1 E-.7 F2100
G1 X130.129 Y55.53 Z.277 F18000
G1 Z.2 F720
G1 E.7 F1500
M204 P500
;WIDTH:0.512456
G1 F2400
G1 X130.062 Y55.375 E.00659
;WIDTH:0.466577
G1 X129.995 Y55.22 E.00595
;WIDTH:0.420697
G1 X129.929 Y55.065 E.00529
;WIDTH:0.374817
G1 X129.902 Y54.87 E.00543
G2 X130.024 Y54.724 I-.079 J-.19 E.00546
G1 X130.143 Y54.729 E.00329
G2 X130.262 Y54.843 I.241 J-.133 E.00462
G1 X130.245 Y54.978 E.00376
;WIDTH:0.420697
G1 X130.206 Y55.162 E.00591
;WIDTH:0.466577
G1 X130.168 Y55.346 E.00662
;WIDTH:0.512456
G1 X130.141 Y55.472 E.00503
M204 P4000
G1 X129.948 Y55.122 F18000
G1 E-.7 F2100
G1 X130.077 Y39.793 Z.468 F18000
G1 Z.2 F720
G1 E.7 F1500
M204 P500
;WIDTH:0.516054
G1 F2400
G1 X130.129 Y39.449 E.01369
M204 P4000
G1 E-.7 F2100
G1 X131.65 Y39.258 Z.227 F18000
G1 Z.2 F720
G1 E.7 F1500
M204 P500
;WIDTH:0.49162
G1 F2400
G1 X131.415 Y39.018 E.01253
M204 P4000
G1 X131.65 Y39.258 F18000
M204 P500
;WIDTH:0.489738
G1 F2400
G1 X131.754 Y39.304 E.00423
;WIDTH:0.482816
G1 X132.322 Y39.51 E.0221
;WIDTH:0.466229
G1 X132.467 Y39.611 E.00622
G3 X132.469 Y39.905 I-.6 J.15 E.01045
G1 X132.197 Y39.967 E.00982
G1 X132.077 Y39.834 E.00631
;WIDTH:0.489738
G1 X131.686 Y39.306 E.02441
M204 P4000
G1 X132.071 Y39.415 F18000
G1 E-.7 F2100
G1 X130.408 Y38.387 Z.234 F18000
G1 Z.2 F720
G1 E.7 F1500
M204 P500
;TYPE:Perimeter
;WIDTH:0.68144
G1 F2400
G1 X130.056 Y37.917 E.03118
G1 X130.355 Y37.604 E.02298
;WIDTH:0.650938
G1 X130.525 Y37.301 E.01757
;WIDTH:0.640562
G1 X130.835 Y37.335 E.0155
G2 X131.017 Y37.738 I1.489 J-.43 E.02205
;WIDTH:0.650938
G1 X130.847 Y37.951 E.01378
;WIDTH:0.68144
G1 X130.725 Y38.297 E.01948
G1 X130.466 Y38.371 E.0143
M204 P4000
G1 E-.7 F2100
G1 X125.928 Y38.61 Z.279 F18000
M73 P2 R10
G1 Z.2 F720
G1 E.7 F1500
M204 P500
;WIDTH:0.401696
G1 F2400
G1 X125.86 Y38.648 E.00232
G1 X125.928 Y38.687 E.00234
G1 X125.95 Y38.648 E.00134
M204 P4000
G1 E-.7 F2100
G1 X127.808 Y44.582 Z.309 F18000
G1 Z.2 F720
G1 E.7 F1500
M204 P500
;TYPE:External perimeter
;WIDTH:0.51201
G1 F2400
G1 X127.368 Y44.573 E.01717
G1 X127.355 Y44.335 E.0093
;WIDTH:0.541376
G1 X127.357 Y43.913 E.01749
;WIDTH:0.570742
G1 X127.358 Y43.492 E.01848
;WIDTH:0.596715
G1 X127.394 Y43.195 E.01378
;WIDTH:0.622688
G2 X127.401 Y42.681 I-1.229 J-.273 E.02496
;WIDTH:0.587132
G1 X127.372 Y42.464 E.00991
;WIDTH:0.551576
G1 X127.343 Y42.247 E.00926
;WIDTH:0.51602
G1 X127.047 Y41.504 E.03146
;WIDTH:0.504669
G1 X126.55 Y40.609 E.03931
;WIDTH:0.513861
G3 X125.646 Y39.072 I40.831 J-25.064 E.06983
;WIDTH:0.499999
G1 X125.449 Y38.581 E.02011
G1 X125.456 Y38.478 E.00392
G1 X125.753 Y38.264 E.01391
;WIDTH:0.522237
G3 X126.875 Y37.856 I2.825 J6.033 E.04765
;WIDTH:0.499688
G3 X128.331 Y37.695 I2.445 J15.392 E.05566
;WIDTH:0.528197
G1 X129.217 Y37.661 E.03578
G1 X129.692 Y37.493 E.02033
;WIDTH:0.499999
G1 X129.968 Y37.238 E.01428
G1 X130.107 Y36.863 E.0152
G1 X130.121 Y36.686 E.00675
;WIDTH:0.450254
G1 X130.075 Y36.391 E.01011
;WIDTH:0.423652
G1 X130.03 Y36.095 E.00948
;WIDTH:0.43321
G1 X130.014 Y35.929 E.00541
;WIDTH:0.469371
G1 X129.999 Y35.763 E.00591
;WIDTH:0.505532
G1 X129.983 Y35.596 E.00645
;WIDTH:0.505949
G3 X130.105 Y35.111 I1.063 J.007 E.01944
G3 X130.423 Y35.327 I-.161 J.579 E.01507
G1 X130.435 Y35.602 E.0106
;WIDTH:0.505532
G1 X130.415 Y35.768 E.00643
;WIDTH:0.469371
G1 X130.396 Y35.934 E.00592
;WIDTH:0.43321
G1 X130.376 Y36.1 E.00543
;WIDTH:0.423652
G1 X130.412 Y36.318 E.00699
;WIDTH:0.450254
G1 X130.449 Y36.535 E.00746
;WIDTH:0.498224
G1 X130.545 Y36.659 E.00594
;WIDTH:0.499999
G1 X130.707 Y36.782 E.00773
G1 X131.003 Y36.826 E.01137
G1 X131.365 Y36.724 E.01429
G1 X131.308 Y36.947 E.00875
G1 X131.374 Y37.314 E.01417
G1 X131.619 Y37.591 E.01405
;WIDTH:0.538455
G1 X131.838 Y37.692 E.00994
;WIDTH:0.57691
G1 X132.057 Y37.792 E.01069
G1 X131.82 Y37.866 E.01102
;WIDTH:0.538455
G1 X131.584 Y37.94 E.01019
;WIDTH:0.499999
G1 X131.327 Y38.182 E.01342
G1 X131.234 Y38.601 E.01631
G1 X131.37 Y38.972 E.01502
G1 X131.035 Y38.838 E.01371
G1 X130.662 Y38.869 E.01423
G1 X130.328 Y39.097 E.01537
;WIDTH:0.504226
G1 X130.129 Y39.449 E.01551
G1 X130.137 Y39.172 E.01063
;WIDTH:0.500951
G1 X129.991 Y38.744 E.01722
;WIDTH:0.499999
G1 X129.686 Y38.342 E.01918
;WIDTH:0.518958
G1 X129.273 Y38.164 E.0178
G1 X128.853 Y38.132 E.01667
;WIDTH:0.504616
G1 X127.966 Y38.168 E.03408
;WIDTH:0.496626
G1 X126.994 Y38.294 E.03698
;WIDTH:0.522237
G1 X126.507 Y38.462 E.02053
M73 Q2 S12
G1 X126.324 Y38.705 E.01212
;WIDTH:0.500642
G1 X126.263 Y38.964 E.01013
;WIDTH:0.513861
G1 X126.341 Y39.361 E.01584
G1 X126.47 Y39.615 E.01116
;WIDTH:0.507205
G1 X127.166 Y40.755 E.05156
G1 X127.546 Y41.493 E.03205
;WIDTH:0.526958
G1 X127.714 Y41.926 E.01869
;WIDTH:0.5568
G1 X127.881 Y42.36 E.01987
;WIDTH:0.592707
G1 X127.954 Y42.628 E.0127
;WIDTH:0.628614
G1 X128.026 Y42.896 E.01351
G1 X127.99 Y43.132 E.01163
;WIDTH:0.62442
G1 X127.936 Y43.384 E.01246
;WIDTH:0.58406
G1 X127.881 Y43.636 E.01161
;WIDTH:0.5437
G1 X127.827 Y43.888 E.01073
;WIDTH:0.51201
G1 X127.825 Y44.539 E.02539
M204 P4000
G1 X127.426 Y44.572 F18000
G1 E-.7 F2100
G1 X132.177 Y37.809 Z.344 F18000
G1 Z.2 F720
G1 E.7 F1500
M204 P500
;WIDTH:0.57186
G1 F2400
G1 X132.349 Y37.785 E.00764
;WIDTH:0.545449
G1 X132.521 Y37.76 E.00726
;WIDTH:0.519037
G1 X133.007 Y37.598 E.02028
;WIDTH:0.511798
G1 X133.22 Y37.584 E.00832
G1 X133.419 Y37.757 E.01028
G1 X133.459 Y37.851 E.00398
G1 X133.226 Y38.036 E.0116
G1 X133.017 Y38.038 E.00815
;WIDTH:0.541829
G1 X132.597 Y37.924 E.01805
;WIDTH:0.57186
G1 X132.235 Y37.825 E.01651
M204 P4000
G1 X132.624 Y37.73 F18000
G1 E-.7 F2100
G1 X131.873 Y36.144 Z.231 F18000
G1 Z.2 F720
G1 E.7 F1500
M204 P500
;WIDTH:0.516458
G1 F2400
G1 X132.134 Y35.485 E.02791
G1 X132.283 Y35.374 E.00732
G3 X132.574 Y35.462 I-.057 J.715 E.01206
G1 X132.621 Y35.588 E.0053
G3 X132.421 Y35.865 I-.63 J-.246 E.0136
G1 X131.927 Y36.116 E.02182
M204 P4000
G1 X132.032 Y35.73 F18000
G1 E-.7 F2100
G1 X130.077 Y39.793 Z.279 F18000
G1 Z.2 F720
G1 E.7 F1500
M204 P500
;WIDTH:0.516054
G1 F2400
G1 X130.088 Y39.847 E.00217
;WIDTH:0.496933
G1 X130.136 Y40.043 E.00762
;WIDTH:0.458595
G1 X130.184 Y40.239 E.00697
;WIDTH:0.420257
G1 X130.231 Y40.435 E.00632
;WIDTH:0.381919
G2 X130.116 Y40.541 I.026 J.143 E.00465
G1 X130.019 Y40.553 E.00276
G1 X129.863 Y40.43 E.0056
G1 X129.878 Y40.316 E.00324
;WIDTH:0.426631
G1 X129.944 Y40.142 E.00594
;WIDTH:0.471343
G1 X130.011 Y39.967 E.00668
;WIDTH:0.516054
G1 X130.056 Y39.849 E.00497
M204 P4000
G1 X130.185 Y40.227 F18000
G1 E-.7 F2100
G1 X103.736 Y38.302 Z.663 F18000
G1 X102.814 Y38.235 Z.679
G1 Z.2 F720
G1 E.7 F1500
M204 P500
;WIDTH:0.482228
G1 F2400
G1 X102.923 Y38.446 E.00868
M204 P4000
G1 X102.008 Y39.619 F18000
M204 P500
;WIDTH:0.65835
G1 F2400
G1 X102.318 Y39.666 E.01604
M204 P4000
G1 X102.008 Y39.619 F18000
M204 P500
;WIDTH:0.635594
G1 F2400
G1 X101.902 Y39.645 E.00538
;WIDTH:0.604459
G1 X101.797 Y39.67 E.00504
;WIDTH:0.573323
G1 X101.548 Y39.707 E.0111
;WIDTH:0.547437
G1 X101.299 Y39.743 E.01055
;WIDTH:0.521551
G1 X101.04 Y39.685 E.01056
G1 X100.83 Y39.443 E.01275
G1 X100.874 Y39.373 E.00329
G1 X101.104 Y39.246 E.01046
G1 X101.387 Y39.294 E.01142
;WIDTH:0.547437
G1 X101.604 Y39.421 E.01055
;WIDTH:0.573323
G1 X101.82 Y39.549 E.01107
;WIDTH:0.604459
G1 X101.914 Y39.584 E.00468
;WIDTH:0.635594
G1 X101.952 Y39.598 E.002
M204 P4000
G1 X101.568 Y39.711 F18000
G1 E-.7 F2100
G1 X102.511 Y41.071 Z.229 F18000
G1 Z.2 F720
G1 E.7 F1500
M204 P500
;WIDTH:0.506906
G1 F2400
G1 X102.267 Y41.307 E.0131
;WIDTH:0.501984
G1 X101.887 Y41.675 E.02019
;WIDTH:0.50121
G1 X101.759 Y41.753 E.00571
G1 X101.511 Y41.693 E.00972
G1 X101.44 Y41.635 E.00349
G1 X101.523 Y41.361 E.01091
G1 X101.627 Y41.294 E.00471
G1 X102.146 Y41.21 E.02003
;WIDTH:0.506906
G1 X102.455 Y41.093 E.01275
M204 P4000
G1 X102.187 Y41.39 F18000
G1 E-.7 F2100
G1 X103.84 Y41.736 Z.229 F18000
G1 Z.2 F720
G1 E.7 F1500
M204 P500
;WIDTH:0.537242
G1 F2400
G1 X103.867 Y41.841 E.00446
;WIDTH:0.501181
G1 X103.893 Y41.946 E.00412
;WIDTH:0.465119
G1 X103.919 Y42.052 E.00383
;WIDTH:0.429057
G1 X103.952 Y42.612 E.01801
;WIDTH:0.403269
G1 X103.887 Y42.629 E.00201
G1 X103.784 Y42.748 E.00472
G1 X103.654 Y42.729 E.00394
G2 X103.564 Y42.569 I-.273 J.048 E.00561
G1 X103.617 Y42.4 E.00531
;WIDTH:0.447927
