; generated by PrusaSlicer 2.9.0 on 2025-02-23 at 00:17:34 UTC


;
;

;
;

;
;

;
;

;
;
; 

; external perimeters extrusion width = 0.45mm
; perimeters extrusion width = 0.45mm
; infill extrusion width = 0.45mm
; solid infill extrusion width = 0.45mm
; top infill extrusion width = 0.42mm
; first layer extrusion width = 0.50mm

M73 P0 R9
M73 C0
M73 Q0 S9
M73 D0
M201 X4000 Y4000 Z200 E2500 ; sets maximum accelerations, mm/sec^2
M203 X300 Y300 Z40 E100 ; sets maximum feedrates, mm / sec
M204 P4000 R1200 T4000 ; sets acceleration (P, T) and retract acceleration (R), mm/sec^2
M205 X8.00 Y8.00 Z2.00 E10.00 ; sets the jerk limits, mm/sec
M205 S0 T0 ; sets the minimum extruding and travel feed rate, mm/sec

M486 S0
M486 Aflower_1.8.1-med-trumpet-stigma5.stl
M486 S-1

;TYPE:Custom
M17 ; enable steppers
M862.1 P0.4 A0 F1 ; nozzle check
M862.3 P "MK4S" ; printer model check
M862.5 P2 ; g-code level check
M862.6 P"Input shaper" ; FW feature check
M115 U6.1.3+7898

M555 X117.324 Y92.7277 W32 H20.567

G90 ; use absolute coordinates
M83 ; extruder relative mode

M140 S60 ; set bed temp
M104 T0 S170 ; set extruder temp for bed leveling
M109 T0 R170 ; wait for temp

M84 E ; turn off E motor

G28 ; home all without mesh bed level

G1 X42 Y-4 Z5 F4800

M302 S160 ; lower cold extrusion limit to 160C


G1 E-2 F2400 ; retraction
M73 P0 R8


M84 E ; turn off E motor

G29 P9 X10 Y-4 W32 H4

M106 S100

G0 Z40 F10000

M190 S60 ; wait for bed temp

M107

;
; MBL
;
M84 E ; turn off E motor
G29 P1 ; invalidate mbl & probe print area
G29 P1 X0 Y0 W50 H20 C ; probe near purge place
G29 P3.2 ; interpolate mbl probes
G29 P3.13 ; extrapolate mbl outside probe area
G29 A ; activate mbl

; prepare for purge
M104 S230
G0 X0 Y-4 Z15 F4800 ; move away and ready for the purge
M109 S230

G92 E0
M569 S0 E ; set spreadcycle mode for extruder

;
; Extrude purge line
;
G92 E0 ; reset extruder position
G1 E2 F2400 ; deretraction after the initial one before nozzle cleaning
G0 E7 X15 Z0.2 F500 ; purge
G0 X25 E4 F500 ; purge
M73 Q0 S8
G0 X35 E4 F650 ; purge
M73 P1 R8
M73 Q1 S8
G0 X45 E4 F800 ; purge
G0 X48 Z0.05 F8000 ; wipe, move close to the bed
G0 X51 Z0.2 F8000 ; wipe, move quickly away from the bed

G92 E0
M221 S100 ; set flow to 100%
G21 ; set units to millimeters
G90 ; use absolute coordinates
M83 ; use relative distances for extrusion
M572 S0.036 ; Filament gcode

M142 S36 ; set heatbreak target temp
M107
;LAYER_CHANGE
;Z:0.2
;HEIGHT:0.2
;CUSTOM_GCODE
M106 S255
G1 E-.7 F2100
G1 Z.8 F720
G1 X119.095 Y100.17 F18000
G1 Z.2 F720
G1 E.7 F1500
M204 P500
;TYPE:Skirt/Brim
;WIDTH:0.5
G1 F2400
G1 X119.674 Y99.692 E.02854
G1 X120.279 Y99.429 E.02507
G1 X120.921 Y99.333 E.02467
G1 X121.947 Y99.443 E.03922
G1 X123.313 Y99.807 E.05373
G1 X124.225 Y98.687 E.05489
G1 X125.023 Y97.993 E.04019
G1 X125.576 Y97.721 E.02342
G1 X126.142 Y97.595 E.02204
G1 X126.872 Y97.622 E.02776
G1 X127.842 Y97.939 E.03878
G1 X128.292 Y98.218 E.02012
G1 X128.786 Y98.737 E.02723
G1 X129.087 Y99.28 E.0236
G1 X129.339 Y100.364 E.0423
G1 X129.417 Y101.79 E.05428
G1 X130.796 Y102.328 E.05626
G1 X131.664 Y102.838 E.03826
G1 X132.129 Y103.317 E.02537
G1 X132.519 Y104.07 E.03223
G1 X132.615 Y104.562 E.01905
G1 X132.615 Y105.447 E.03364
G1 X132.413 Y106.197 E.02952
G1 X132.105 Y106.717 E.02297
G1 X131.684 Y107.146 E.02284
G1 X130.74 Y107.7 E.0416
G1 X129.418 Y108.21 E.05385
G1 X129.342 Y109.624 E.05382
G1 X129.122 Y110.652 E.03996
G1 X128.855 Y111.187 E.02272
G1 X128.438 Y111.671 E.02428
G1 X127.831 Y112.078 E.02778
G1 X126.945 Y112.376 E.03553
G1 X126.406 Y112.44 E.02063
G1 X125.646 Y112.313 E.02929
G1 X125.022 Y112.021 E.02618
G1 X124.158 Y111.243 E.04419
G1 X123.313 Y110.193 E.05122
G1 X121.952 Y110.556 E.05353
G1 X120.868 Y110.667 E.04141
G1 X120.258 Y110.564 E.02351
G1 X119.704 Y110.325 E.02293
G1 X119.102 Y109.837 E.02945
G1 X118.581 Y109.121 E.03365
G1 X118.369 Y108.665 E.01911
G1 X118.244 Y107.825 E.03228
G1 X118.35 Y107.132 E.02664
G1 X118.767 Y106.195 E.03898
G1 X119.54 Y105 E.05409
G1 X118.804 Y103.874 E.05113
G1 X118.365 Y102.917 E.04002
G1 X118.243 Y102.156 E.02929
G1 X118.317 Y101.527 E.02407
G1 X118.513 Y100.998 E.02144
G1 X119.061 Y100.22 E.03617
M204 P4000
M204 T4000
G1 X119.061 Y100.22 F18000
G1 X119.434 Y100.484
M204 P500
G1 F2400
G1 X119.451 Y100.458 E.00118
G1 X119.901 Y100.089 E.02212
G1 X120.432 Y99.861 E.02196
G1 X120.902 Y99.791 E.01806
G1 X121.855 Y99.891 E.03642
G1 X123.168 Y100.241 E.05164
G1 X123.504 Y100.397 E.01408
G1 X123.685 Y100.073 E.01411
G1 X124.562 Y98.997 E.05276
G1 X125.267 Y98.38 E.03561
G1 X125.691 Y98.164 E.01809
M73 Q2 S8
G1 X126.218 Y98.046 E.02053
G1 X126.621 Y98.042 E.01532
G1 X127.631 Y98.346 E.04009
G1 X127.984 Y98.557 E.01563
G1 X128.436 Y99.032 E.02492
G1 X128.657 Y99.436 E.0175
G1 X128.89 Y100.449 E.03951
G1 X128.96 Y101.79 E.05104
G1 X128.916 Y102.155 E.01397
M73 P2 R8
G1 X129.279 Y102.226 E.01406
G1 X130.58 Y102.731 E.05304
G1 X131.496 Y103.289 E.04076
G1 X131.768 Y103.599 E.01567
G1 X132.075 Y104.179 E.02494
G1 X132.158 Y104.586 E.01579
G1 X132.158 Y105.417 E.03158
G1 X132.002 Y105.995 E.02275
G1 X131.757 Y106.418 E.01858
G1 X131.379 Y106.803 E.02051
G1 X130.552 Y107.283 E.03634
G1 X129.279 Y107.773 E.05184
G1 X128.916 Y107.845 E.01407
G1 X128.96 Y108.213 E.01409
G1 X128.887 Y109.573 E.05176
G1 X128.682 Y110.525 E.03701
G1 X128.463 Y110.95 E.01817
G1 X128.112 Y111.35 E.02023
G1 X127.67 Y111.65 E.0203
G1 X126.823 Y111.934 E.03395
G1 X126.404 Y111.983 E.01603
G1 X125.755 Y111.868 E.02505
G1 X125.285 Y111.647 E.01974
G1 X124.498 Y110.937 E.04028
G1 X123.685 Y109.927 E.04928
G1 X123.504 Y109.603 E.01411
G1 X123.168 Y109.759 E.01408
G1 X121.86 Y110.108 E.05145
G1 X120.898 Y110.208 E.03676
G1 X120.364 Y110.118 E.02058
G1 X119.918 Y109.92 E.01855
G1 X119.454 Y109.544 E.0227
G1 X118.965 Y108.872 E.03159
G1 X118.793 Y108.493 E.01582
G1 X118.701 Y107.841 E.02503
G1 X118.74 Y107.43 E.01569
G1 X119.165 Y106.42 E.04165
G1 X119.908 Y105.272 E.05197
G1 X120.16 Y105 E.01409
G1 X119.908 Y104.728 E.01409
G1 X119.199 Y103.645 E.0492
G1 X118.788 Y102.744 E.03764
G1 X118.7 Y102.177 E.02181
G1 X118.759 Y101.646 E.02031
G1 X118.915 Y101.216 E.01738
G1 X119.399 Y100.533 E.03182
M204 P4000
G1 X119.399 Y100.533 F18000
G1 X119.771 Y100.798
M204 P500
G1 F2400
G1 X119.806 Y100.749 E.00229
G1 X120.12 Y100.49 E.01547
G1 X120.584 Y100.293 E.01916
G1 X120.884 Y100.248 E.01153
G1 X121.763 Y100.339 E.03359
G1 X123.018 Y100.673 E.04936
G1 X123.702 Y101.005 E.0289
G1 X124.06 Y100.335 E.02887
G1 X124.432 Y99.849 E.02326
G1 X124.898 Y99.307 E.02717
G1 X125.513 Y98.766 E.03113
G1 X125.806 Y98.607 E.01267
G1 X126.291 Y98.498 E.01889
G1 X126.599 Y98.499 E.01171
G1 X127.428 Y98.755 E.03298
G1 X127.68 Y98.901 E.01107
G1 X128.057 Y99.288 E.02053
G1 X128.213 Y99.554 E.01172
G1 X128.44 Y100.532 E.03816
G1 X128.487 Y101.17 E.02431
G1 X128.502 Y101.781 E.02323
G1 X128.398 Y102.531 E.02878
G1 X129.146 Y102.664 E.02887
G1 X129.714 Y102.865 E.0229
G1 X130.389 Y103.146 E.02779
G1 X131.171 Y103.611 E.03458
G1 X131.379 Y103.841 E.01179
G1 X131.639 Y104.324 E.02085
G1 X131.701 Y104.612 E.0112
G1 X131.701 Y105.387 E.02945
G1 X131.592 Y105.792 E.01594
G1 X131.378 Y106.161 E.01621
G1 X131.08 Y106.457 E.01596
G1 X130.364 Y106.866 E.03134
G1 X129.712 Y107.136 E.02682
G1 X129.146 Y107.336 E.02282
G1 X128.399 Y107.469 E.02884
G1 X128.503 Y108.222 E.02889
G1 X128.487 Y108.824 E.02289
G1 X128.433 Y109.522 E.02661
G1 X128.242 Y110.398 E.03408
G1 X128.101 Y110.67 E.01164
G1 X127.787 Y111.028 E.0181
G1 X127.537 Y111.208 E.01171
G1 X126.703 Y111.493 E.0335
G1 X126.408 Y111.523 E.01127
G1 X125.866 Y111.424 E.02094
G1 X125.58 Y111.295 E.01192
G1 X124.837 Y110.63 E.0379
G1 X124.06 Y109.665 E.04709
G1 X123.702 Y108.995 E.02887
G1 X123.018 Y109.327 E.0289
G1 X122.423 Y109.503 E.02358
G1 X121.766 Y109.661 E.02568
G1 X120.936 Y109.752 E.03173
G1 X120.521 Y109.688 E.01596
G1 X120.131 Y109.514 E.01623
G1 X119.806 Y109.251 E.01589
G1 X119.35 Y108.624 E.02947
G1 X119.231 Y108.355 E.01118
G1 X119.158 Y107.809 E.02094
G1 X119.192 Y107.5 E.01181
G1 X119.563 Y106.646 E.03539
G1 X119.929 Y106.047 E.02668
G1 X120.273 Y105.548 E.02304
G1 X120.799 Y105 E.02887
G1 X120.273 Y104.452 E.02887
G1 X119.608 Y103.441 E.04599
G1 X119.219 Y102.593 E.03546
G1 X119.157 Y102.193 E.01538
G1 X119.202 Y101.764 E.01639
G1 X119.312 Y101.442 E.01293
G1 X119.736 Y100.846 E.0278
M204 P4000
G1 X119.736 Y100.846 F18000
G1 X120.108 Y101.112
M204 P500
G1 F2400
G1 X120.159 Y101.041 E.00332
G1 X120.343 Y100.892 E.009
G1 X120.73 Y100.727 E.01599
G1 X120.911 Y100.705 E.00693
G1 X121.697 Y100.791 E.03005
G1 X122.328 Y100.945 E.02469
G1 X122.869 Y101.106 E.02145
G1 X123.72 Y101.484 E.03539
G1 X123.971 Y101.401 E.01005
G1 X124.435 Y100.597 E.03528
G1 X125.213 Y99.639 E.0469
G1 X125.794 Y99.128 E.02941
G1 X125.952 Y99.042 E.00684
G1 X126.361 Y98.951 E.01592
G1 X126.538 Y98.955 E.00673
G1 X127.263 Y99.183 E.02889
G1 X127.415 Y99.274 E.00673
G1 X127.79 Y99.733 E.02253
G1 X127.986 Y100.584 E.03319
G1 X128.031 Y101.198 E.0234
G1 X128.045 Y101.772 E.02182
G1 X127.948 Y102.693 E.0352
G1 X128.102 Y102.908 E.01005
G1 X129.013 Y103.102 E.0354
G1 X130.172 Y103.549 E.04721
G1 X130.873 Y103.961 E.0309
G1 X131.203 Y104.463 E.02283
G1 X131.244 Y104.64 E.00691
G1 X131.244 Y105.357 E.02725
G1 X131.182 Y105.589 E.00913
G1 X130.998 Y105.906 E.01393
G1 X130.827 Y106.075 E.00914
G1 X130.151 Y106.461 E.02959
G1 X129.544 Y106.711 E.02495
G1 X129.013 Y106.898 E.0214
G1 X128.105 Y107.091 E.03528
G1 X127.948 Y107.304 E.01006
G1 X128.045 Y108.23 E.03539
G1 X128.031 Y108.794 E.02144
G1 X127.978 Y109.47 E.02577
G1 X127.803 Y110.264 E.0309
G1 X127.467 Y110.701 E.02095
G1 X127.318 Y110.804 E.00688
G1 X126.585 Y111.05 E.02939
G1 X126.405 Y111.065 E.00686
G1 X125.823 Y110.905 E.02294
G1 X125.156 Y110.302 E.03417
G1 X124.435 Y109.403 E.0438
G1 X123.971 Y108.599 E.03528
G1 X123.72 Y108.516 E.01005
G1 X122.869 Y108.894 E.03539
G1 X121.701 Y109.208 E.04597
G1 X120.916 Y109.295 E.03002
G1 X120.679 Y109.258 E.00912
G1 X120.344 Y109.109 E.01393
G1 X120.158 Y108.958 E.00911
G1 X119.737 Y108.378 E.02724
G1 X119.666 Y108.21 E.00693
G1 X119.615 Y107.787 E.01619
G1 X119.638 Y107.609 E.00682
G1 X119.974 Y106.844 E.03176
G1 X120.315 Y106.292 E.02466
G1 X120.638 Y105.823 E.02164
G1 X121.259 Y105.134 E.03525
G1 X121.261 Y104.869 E.01007
G1 X120.638 Y104.177 E.03539
G1 X120.314 Y103.706 E.02173
G1 X120.004 Y103.211 E.0222
G1 X119.654 Y102.446 E.03197
G1 X119.615 Y102.208 E.00917
G1 X119.713 Y101.667 E.0209
G1 X120.074 Y101.16 E.02365
M204 P4000
G1 X120.074 Y101.16 F18000
G1 X120.442 Y101.428
M204 P500
G1 F2400
G1 X120.51 Y101.335 E.00438
G1 X120.896 Y101.163 E.01606
G1 X121.604 Y101.239 E.02706
G1 X122.214 Y101.387 E.02386
G1 X122.719 Y101.538 E.02003
G1 X123.243 Y101.799 E.02225
G1 X123.73 Y101.973 E.01966
G1 X124.248 Y101.806 E.02069
G1 X124.54 Y101.378 E.01969
G1 X124.81 Y100.858 E.02227
G1 X125.528 Y99.971 E.04337
G1 X126.071 Y99.493 E.02749
G1 X126.479 Y99.408 E.01584
G1 X127.089 Y99.607 E.02439
G1 X127.37 Y99.914 E.01582
G1 X127.531 Y100.633 E.028
G1 X127.574 Y101.226 E.0226
G1 X127.587 Y101.763 E.02042
G1 X127.501 Y102.34 E.02217
G1 X127.486 Y102.858 E.0197
G1 X127.806 Y103.298 E.02068
G1 X128.303 Y103.444 E.01969
G1 X128.88 Y103.54 E.02223
G1 X129.377 Y103.715 E.02003
G1 X129.958 Y103.953 E.02386
G1 X130.576 Y104.308 E.02709
G1 X130.787 Y104.674 E.01606
G1 X130.787 Y105.327 E.02482
G1 X130.574 Y105.693 E.01609
G1 X129.937 Y106.057 E.02788
G1 X128.88 Y106.46 E.04299
G1 X128.303 Y106.556 E.02223
G1 X127.805 Y106.702 E.01972
G1 X127.486 Y107.143 E.02069
G1 X127.501 Y107.66 E.01966
G1 X127.588 Y108.239 E.02225
G1 X127.575 Y108.766 E.02004
G1 X127.528 Y109.392 E.02386
G1 X127.381 Y110.089 E.02707
G1 X127.099 Y110.403 E.01604
G1 X126.417 Y110.608 E.02707
G1 X126.064 Y110.516 E.01386
G1 X125.477 Y109.977 E.03029
G1 X124.81 Y109.142 E.04062
G1 X124.54 Y108.622 E.02227
G1 X124.248 Y108.194 E.01969
G1 X123.73 Y108.027 E.02069
G1 X123.243 Y108.201 E.01966
G1 X122.719 Y108.462 E.02225
G1 X121.636 Y108.756 E.04265
G1 X120.896 Y108.837 E.02829
G1 X120.51 Y108.665 E.01606
G1 X120.126 Y108.137 E.02481
M73 Q3 S8
G1 X120.083 Y107.716 E.01608
G1 X120.384 Y107.047 E.02788
G1 X120.7 Y106.538 E.02277
G1 X121.002 Y106.1 E.02022
G1 X121.413 Y105.682 E.02228
G1 X121.73 Y105.272 E.0197
G1 X121.729 Y104.727 E.02071
G1 X121.413 Y104.318 E.01964
M73 P3 R8
G1 X121.002 Y103.9 E.02228
G1 X120.698 Y103.459 E.02036
G1 X120.4 Y102.982 E.02138
G1 X120.073 Y102.224 E.03138
G1 X120.126 Y101.863 E.01387
G1 X120.407 Y101.477 E.01815
M204 P4000
G1 X120.407 Y101.477 F18000
G1 X120.777 Y101.745
M204 P500
G1 F2400
G1 X120.826 Y101.677 E.00319
G1 X120.938 Y101.627 E.00466
G1 X121.54 Y101.692 E.02301
G1 X122.088 Y101.827 E.02145
G1 X122.568 Y101.97 E.01904
G1 X123.057 Y102.218 E.02084
G1 X123.765 Y102.451 E.02833
G1 X124.501 Y102.212 E.02941
G1 X124.936 Y101.607 E.02832
G1 X125.186 Y101.119 E.02084
G1 X125.49 Y100.722 E.019
G1 X125.843 Y100.302 E.02085
G1 X126.305 Y99.895 E.0234
G1 X126.423 Y99.871 E.00458
G1 X126.862 Y100.013 E.01754
G1 X126.943 Y100.102 E.00457
G1 X127.081 Y100.716 E.02392
G1 X127.118 Y101.242 E.02004
G1 X127.13 Y101.753 E.01943
G1 X127.045 Y102.293 E.02078
G1 X127.042 Y103.037 E.02828
G1 X127.498 Y103.664 E.02947
G1 X128.207 Y103.891 E.02829
G1 X128.749 Y103.978 E.02086
G1 X129.744 Y104.357 E.04047
G1 X130.268 Y104.659 E.02299
G1 X130.33 Y104.765 E.00467
G1 X130.33 Y105.235 E.01786
G1 X130.268 Y105.341 E.00467
G1 X129.724 Y105.652 E.02382
G1 X129.221 Y105.856 E.02063
G1 X128.749 Y106.022 E.01902
G1 X128.207 Y106.109 E.02086
G1 X127.498 Y106.336 E.02829
G1 X127.042 Y106.963 E.02947
G1 X127.046 Y107.707 E.02828
G1 X127.13 Y108.249 E.02085
G1 X127.118 Y108.75 E.01905
G1 X127.077 Y109.313 E.02145
G1 X126.952 Y109.905 E.023
G1 X126.87 Y109.996 E.00466
G1 X126.423 Y110.142 E.01787
G1 X126.304 Y110.116 E.00463
G1 X125.818 Y109.672 E.02502
G1 X125.491 Y109.279 E.01943
G1 X125.186 Y108.881 E.01906
G1 X124.936 Y108.393 E.02084
G1 X124.501 Y107.788 E.02832
G1 X123.765 Y107.549 E.02941
G1 X123.057 Y107.782 E.02833
G1 X122.568 Y108.03 E.02084
G1 X122.078 Y108.176 E.01943
G1 X121.57 Y108.303 E.0199
G1 X120.938 Y108.372 E.02416
G1 X120.826 Y108.323 E.00465
G1 X120.55 Y107.943 E.01785
G1 X120.537 Y107.82 E.0047
G1 X120.795 Y107.249 E.02381
G1 X121.079 Y106.794 E.02039
G1 X121.367 Y106.377 E.01926
G1 X121.754 Y105.988 E.02085
G1 X122.194 Y105.387 E.02831
G1 X122.194 Y104.613 E.02942
G1 X121.754 Y104.012 E.02831
G1 X121.367 Y103.623 E.02085
G1 X121.082 Y103.211 E.01904
G1 X120.809 Y102.778 E.01945
G1 X120.537 Y102.179 E.025
G1 X120.55 Y102.057 E.00466
G1 X120.741 Y101.794 E.01235
M204 P4000
G1 X120.741 Y101.794 F18000
M486 S0
G1 X121.557 Y102.498
M204 P500
;TYPE:External perimeter
;WIDTH:0.499999
G1 F2400
G1 X122.31 Y102.706 E.02969
G1 X122.763 Y102.939 E.01936
G1 X123.263 Y103.098 E.01994
G1 X123.883 Y103.266 E.02441
G1 X124.367 Y103.052 E.02011
G1 X124.833 Y102.958 E.01807
G1 X124.991 Y102.846 E.00736
G1 X125.588 Y102.034 E.0383
G1 X125.828 Y101.563 E.02009
G1 X126.315 Y100.953 E.02967
G1 X126.35 Y101.734 E.02971
G1 X126.269 Y102.237 E.01936
G1 X126.272 Y102.761 E.01992
G1 X126.304 Y103.402 E.02439
G1 X126.657 Y103.796 E.02011
G1 X126.891 Y104.211 E.01811
G1 X127.045 Y104.326 E.0073
G1 X128.004 Y104.643 E.03839
G1 X128.525 Y104.725 E.02005
G1 X129.256 Y105 E.02968
G1 X128.525 Y105.275 E.02968
G1 X128.021 Y105.353 E.01938
G1 X127.523 Y105.518 E.01994
G1 X126.923 Y105.746 E.02439
G1 X126.657 Y106.204 E.02013
G1 X126.335 Y106.554 E.01808
G1 X126.273 Y106.737 E.00734
G1 X126.268 Y107.747 E.03839
G1 X126.351 Y108.267 E.02001
G1 X126.315 Y109.048 E.02971
G1 X125.828 Y108.437 E.0297
G1 X125.598 Y107.982 E.01938
G1 X125.287 Y107.559 E.01995
G1 X124.885 Y107.059 E.02438
G1 X124.367 Y106.948 E.02013
G1 X123.934 Y106.75 E.0181
G1 X123.742 Y106.748 E.0073
;WIDTH:0.543921
G1 X123.253 Y106.881 E.02111
;WIDTH:0.587843
G1 X122.764 Y107.014 E.02296
;WIDTH:0.618851
G1 X122.288 Y107.239 E.02521
G1 X121.694 Y107.402 E.0295
G1 X122.033 Y106.887 E.02953
G1 X122.384 Y106.516 E.02446
;WIDTH:0.587843
G1 X122.52 Y106.29 E.01195
;WIDTH:0.543921
