; generated by PrusaSlicer 2.9.4 on 2026-01-08 at 21:13:14 UTC


;
;

;
;

;
;

;
;
; 

; external perimeters extrusion width = 0.45mm
; perimeters extrusion width = 0.45mm
; infill extrusion width = 0.45mm
; solid infill extrusion width = 0.45mm
; top infill extrusion width = 0.42mm
; first layer extrusion width = 0.50mm

M73 P0 R7
M73 C3
M73 Q0 S8
M73 D4
M201 X4000 Y4000 Z200 E2500 ; sets maximum accelerations, mm/sec^2
M203 X300 Y300 Z40 E100 ; sets maximum feedrates, mm / sec
M204 P4000 R1200 T4000 ; sets acceleration (P, T) and retract acceleration (R), mm/sec^2
M205 X8.00 Y8.00 Z2.00 E10.00 ; sets the jerk limits, mm/sec
M205 S0 T0 ; sets the minimum extruding and travel feed rate, mm/sec

M486 S0
M486 Acustomizable_plain_gyro-quickprint.stl
M486 S-1

;TYPE:Custom
M17 ; enable steppers
M862.1 P0.4 A0 F1 ; nozzle check
M862.3 P "MK4S" ; printer model check
M862.5 P2 ; g-code level check
M862.6 P"Input shaper" ; FW feature check
M115 U6.2.4+8909

M555 X101.05 Y77.0455 W47.8999 H51.9089

G90 ; use absolute coordinates
M83 ; extruder relative mode

M140 S60 ; set bed temp
M104 T0 S170 ; set extruder temp for bed leveling
M109 T0 R170 ; wait for temp

M84 E ; turn off E motor

G28 ; home all without mesh bed level

G1 X42 Y-4 Z5 F4800

M302 S155 ; lower cold extrusion limit to 155C


G1 E-2 F2400 ; retraction


M84 E ; turn off E motor

G29 P9 X10 Y-4 W32 H4

M106 S100

G0 Z40 F10000

M190 S60 ; wait for bed temp

M107

;
; MBL
;
M84 E ; turn off E motor
G29 P1 ; invalidate mbl & probe print area
G29 P1 X0 Y0 W50 H20 C ; probe near purge place
G29 P3.2 ; interpolate mbl probes
G29 P3.13 ; extrapolate mbl outside probe area
G29 A ; activate mbl

; prepare for purge
M104 S230
G0 X0 Y-4 Z15 F4800 ; move away and ready for the purge
M109 S230

G92 E0
M569 S0 E ; set spreadcycle mode for extruder

;
; Extrude purge line
;
G92 E0 ; reset extruder position
G1 E2 F2400 ; deretraction after the initial one before nozzle cleaning
M73 P0 R6
G0 E7 X15 Z0.2 F500 ; purge
G0 X25 E4 F500 ; purge
M73 P1 R6
G0 X35 E4 F650 ; purge
M73 Q1 S8
G0 X45 E4 F800 ; purge
G0 X48 Z0.05 F8000 ; wipe, move close to the bed
G0 X51 Z0.2 F8000 ; wipe, move quickly away from the bed

G92 E0
M221 S100 ; set flow to 100%
G21 ; set units to millimeters
G90 ; use absolute coordinates
M83 ; use relative distances for extrusion
M572 S0.036 ; Filament gcode

M142 S36 ; set heatbreak target temp
M107
;LAYER_CHANGE
;Z:0.2
;HEIGHT:0.2
G1 E-.7 F2100
G1 Z.8 F720
G1 X106.82 Y89.782 F18000
G1 Z.2 F720
M73 P2 R6
G1 E.7 F1500
M204 P500
;TYPE:Skirt/Brim
;WIDTH:0.5
G1 F2400
G3 X114.666 Y83.643 I18.484 J15.536 E.38137
G3 X127.881 Y81.449 I10.409 J21.808 E.51588
G3 X148.624 Y107.208 I-2.933 J23.593 E1.39004
G3 X146.067 Y115.915 I-24.534 J-2.475 E.34687
M73 Q2 S8
G3 X136.512 Y125.747 I-21.416 J-11.254 E.52831
G3 X122.472 Y128.592 I-11.596 J-21.161 E.55278
G3 X114.372 Y126.213 I2.815 J-24.568 E.32243
G3 X105.314 Y118.245 I11.089 J-21.737 E.4633
G3 X101.348 Y106.882 I20.224 J-13.432 E.46223
G3 X104.099 Y93.771 I24.152 J-1.778 E.51588
G3 X106.782 Y89.828 I21.205 J11.547 E.18156
M204 P4000
G1 E-.7 F2100
M204 T4000
G1 X133.233 Y91.73 Z.663 F18000
M486 S0
G1 X134.67 Y91.833 Z.687
M73 P3 R6
G1 Z.2 F720
G1 E.7 F1500
M204 P500
;TYPE:Perimeter
;WIDTH:0.366238
G1 F2400
G1 X135.344 Y92.356 E.02294
;WIDTH:0.36728
G1 X136.047 Y92.967 E.02512
;WIDTH:0.367919
G1 X136.714 Y93.617 E.02517
;WIDTH:0.368154
G3 X137.677 Y94.694 I-19.209 J18.147 E.03908
;WIDTH:0.361235
G1 X138.3 Y95.512 E.02722
;WIDTH:0.361922
G1 X138.881 Y96.384 E.02779
;WIDTH:0.363011
G1 X139.405 Y97.291 E.02788
;WIDTH:0.364513
G1 X139.864 Y98.217 E.02764
;WIDTH:0.366026
G1 X140.225 Y99.076 E.02503
;WIDTH:0.367136
G1 X140.536 Y99.955 E.02514
;WIDTH:0.367841
G1 X140.797 Y100.849 E.02516
;WIDTH:0.368144
G3 X141.106 Y102.262 I-25.364 J6.285 E.03912
;WIDTH:0.361159
G1 X141.245 Y103.26 E.02666
;WIDTH:0.361779
G1 X141.323 Y104.304 E.02776
;WIDTH:0.362803
G1 X141.335 Y105.352 E.02788
;WIDTH:0.364227
G1 X141.279 Y106.397 E.02796
;WIDTH:0.365802
G1 X141.17 Y107.329 E.02519
;WIDTH:0.366977
G1 X141.009 Y108.247 E.02511
;WIDTH:0.367652
G1 X140.799 Y109.144 E.02488
;WIDTH:0.368118
G3 X140.008 Y111.455 I-18.462 J-5.029 E.06609
;WIDTH:0.361646
G1 X139.564 Y112.404 E.02777
;WIDTH:0.362605
G1 X139.06 Y113.322 E.02784
;WIDTH:0.363962
G1 X138.498 Y114.206 E.02796
;WIDTH:0.365567
G1 X137.935 Y114.979 E.02566
;WIDTH:0.366809
G1 X137.343 Y115.699 E.0251
;WIDTH:0.367651
G1 X136.712 Y116.385 E.02517
;WIDTH:0.368088
G3 X134.909 Y117.989 I-13.686 J-13.569 E.06529
;WIDTH:0.361526
G1 X134.057 Y118.598 E.02774
;WIDTH:0.362414
G1 X133.167 Y119.15 E.02782
;WIDTH:0.363707
G1 X132.244 Y119.645 E.02794
;WIDTH:0.365313
G1 X131.356 Y120.051 E.02617
;WIDTH:0.366631
G1 X130.487 Y120.387 E.02508
;WIDTH:0.367539
G1 X129.6 Y120.673 E.02516
;WIDTH:0.368044
G3 X127.26 Y121.18 I-5.257 J-18.604 E.06477
;WIDTH:0.361421
G1 X126.218 Y121.292 E.02775
;WIDTH:0.362242
G1 X125.172 Y121.337 E.0278
;WIDTH:0.363463
G1 X124.125 Y121.315 E.02791
;WIDTH:0.365063
G1 X123.133 Y121.231 E.02667
;WIDTH:0.366442
G1 X122.211 Y121.096 E.02507
;WIDTH:0.367418
G1 X121.298 Y120.909 E.02515
;WIDTH:0.367989
G1 X120.397 Y120.672 E.02518
;WIDTH:0.368156
G3 X119.029 Y120.207 I7.672 J-24.853 E.03908
;WIDTH:0.361324
G1 X118.067 Y119.793 E.02773
;WIDTH:0.362075
G1 X117.133 Y119.319 E.0278
;WIDTH:0.363233
G1 X116.232 Y118.786 E.02788
;WIDTH:0.364795
G1 X115.393 Y118.215 E.02716
;WIDTH:0.36624
G1 X114.656 Y117.644 E.02506
;WIDTH:0.367283
G1 X113.953 Y117.033 E.02512
;WIDTH:0.367921
G1 X113.286 Y116.383 E.02517
;WIDTH:0.368156
G3 X112.323 Y115.306 I19.212 J-18.15 E.03908
;WIDTH:0.361484
G1 X111.687 Y114.471 E.0278
;WIDTH:0.361923
G1 X111.119 Y113.616 E.02723
;WIDTH:0.363014
G1 X110.595 Y112.709 E.02788
;WIDTH:0.364515
G1 X110.136 Y111.783 E.02764
;WIDTH:0.366028
G1 X109.775 Y110.924 E.02503
;WIDTH:0.3669
G1 X109.461 Y110.035 E.0254
;WIDTH:0.367843
G1 X109.203 Y109.151 E.02488
;WIDTH:0.368145
G3 X108.894 Y107.738 I25.362 J-6.285 E.03912
;WIDTH:0.36116
G1 X108.755 Y106.74 E.02666
;WIDTH:0.36178
G1 X108.677 Y105.696 E.02776
;WIDTH:0.363427
G1 X108.666 Y104.625 E.02854
;WIDTH:0.364227
G1 X108.721 Y103.603 E.02734
;WIDTH:0.365803
G1 X108.83 Y102.671 E.02519
;WIDTH:0.367537
G1 X108.992 Y101.754 E.02513
;WIDTH:0.367754
G1 X109.203 Y100.846 E.02518
;WIDTH:0.368122
G3 X109.992 Y98.545 I18.504 J5.056 E.06582
;WIDTH:0.361647
G1 X110.436 Y97.596 E.02777
;WIDTH:0.362604
G1 X110.94 Y96.678 E.02784
;WIDTH:0.364658
G1 X111.515 Y95.775 E.02864
;WIDTH:0.365567
G1 X112.065 Y95.021 E.02504
;WIDTH:0.366811
G1 X112.657 Y94.301 E.0251
;WIDTH:0.368141
G3 X115.091 Y92.011 I13.462 J11.873 E.0905
;WIDTH:0.362039
G1 X115.964 Y91.389 E.02844
;WIDTH:0.362415
G1 X116.833 Y90.85 E.02717
;WIDTH:0.363709
G1 X117.756 Y90.355 E.02794
;WIDTH:0.36532
G1 X118.644 Y89.95 E.02616
;WIDTH:0.36663
G1 X119.513 Y89.613 E.02509
;WIDTH:0.367539
G1 X120.4 Y89.327 E.02516
;WIDTH:0.368043
G1 X121.301 Y89.091 E.02518
;WIDTH:0.368144
G3 X122.74 Y88.82 I5.433 J24.863 E.0396
;WIDTH:0.36142
G1 X123.782 Y88.708 E.02775
;WIDTH:0.36215
G1 X124.805 Y88.664 E.02718
;WIDTH:0.363467
G1 X125.874 Y88.685 E.0285
;WIDTH:0.365062
G1 X126.867 Y88.769 E.02669
;WIDTH:0.36644
G1 X127.789 Y88.904 E.02507
;WIDTH:0.367415
G1 X128.702 Y89.091 E.02515
;WIDTH:0.367802
G1 X129.613 Y89.331 E.02545
;WIDTH:0.368522
G3 X130.97 Y89.793 I-8.087 J26.034 E.03881
;WIDTH:0.361322
G1 X131.933 Y90.207 E.02775
;WIDTH:0.362074
G1 X132.867 Y90.681 E.0278
;WIDTH:0.363232
G1 X133.768 Y91.214 E.02788
;WIDTH:0.364792
G1 X134.607 Y91.785 E.02716
;WIDTH:0.366238
G1 X134.622 Y91.797 E.00052
M204 P4000
G1 X134.427 Y92.144 F18000
M204 P500
;TYPE:External perimeter
;WIDTH:0.499999
G1 F2400
G3 X137.992 Y95.747 I-9.6 J13.063 E.19343
G3 X140.936 Y104.333 I-13.206 J9.326 E.34967
M73 Q3 S8
G3 X139.213 Y112.239 I-16.228 J.603 E.3108
G3 X133.832 Y118.282 I-14.431 J-7.433 E.31081
G3 X126.178 Y120.906 I-8.925 J-13.552 E.3108
G3 X118.221 Y119.437 I-1.127 J-16.18 E.31081
G3 X112.004 Y114.247 I6.954 J-14.648 E.31109
G3 X109.83 Y109.909 I13.197 J-9.326 E.18512
M73 P4 R6
G3 X109.109 Y103.624 I15.426 J-4.953 E.24199
G3 X110.353 Y98.687 I16.861 J1.62 E.19424
G3 X116.188 Y91.706 I14.808 J6.45 E.35054
G3 X123.822 Y89.094 I8.902 J13.553 E.30991
G3 X131.779 Y90.563 I1.126 J16.185 E.31081
G3 X134.379 Y92.109 I-6.952 J14.644 E.11513
M204 P4000
G1 X134.698 Y92.349 F18000
G1 E-.7 F2100
G1 X124.993 Y88.342 Z.383 F18000
G1 Z.2 F720
G1 E.7 F1500
M204 P500
;TYPE:Perimeter
;WIDTH:0.36713
G1 F2400
G1 X125.015 Y88.341 E.00059
;WIDTH:0.366615
G1 X125.956 Y88.367 E.02534
;WIDTH:0.364512
G1 X127.005 Y88.463 E.02817
;WIDTH:0.363012
G1 X128.059 Y88.626 E.02839
;WIDTH:0.361921
G1 X129.1 Y88.857 E.02828
;WIDTH:0.361339
G1 X130.102 Y89.145 E.0276
;WIDTH:0.368522
G3 X131.489 Y89.657 I-5.927 J18.198 E.04004
;WIDTH:0.367919
G1 X132.354 Y90.052 E.0257
;WIDTH:0.367281
G1 X133.196 Y90.496 E.02567
;WIDTH:0.366237
G1 X134.011 Y90.987 E.02558
;WIDTH:0.364793
G1 X134.862 Y91.574 E.02767
;WIDTH:0.363233
G1 X135.7 Y92.234 E.02841
;WIDTH:0.362075
G1 X136.494 Y92.946 E.0283
;WIDTH:0.361321
G1 X137.242 Y93.707 E.02825
;WIDTH:0.368154
G3 X138.195 Y94.831 I-14.047 J12.868 E.03986
;WIDTH:0.367986
G1 X138.754 Y95.601 E.02572
;WIDTH:0.367416
G1 X139.268 Y96.401 E.02566
;WIDTH:0.36644
G1 X139.737 Y97.229 E.0256
;WIDTH:0.365061
G1 X140.182 Y98.141 E.02718
;WIDTH:0.363467
G1 X140.588 Y99.128 E.02845
;WIDTH:0.362241
G1 X140.931 Y100.138 E.02832
;WIDTH:0.361419
G1 X141.208 Y101.168 E.02825
;WIDTH:0.368144
G3 X141.49 Y102.634 I-18.536 J4.313 E.04038
;WIDTH:0.368043
G1 X141.598 Y103.579 E.02571
;WIDTH:0.367537
G1 X141.652 Y104.529 E.02568
;WIDTH:0.366632
G1 X141.653 Y105.48 E.0256
;WIDTH:0.365319
G1 X141.594 Y106.474 E.02669
;WIDTH:0.363707
G1 X141.464 Y107.533 E.02846
;WIDTH:0.362417
G1 X141.267 Y108.581 E.02833
;WIDTH:0.361527
G1 X141.003 Y109.614 E.02825
;WIDTH:0.368087
G3 X140.151 Y111.924 I-16.823 J-4.892 E.06662
;WIDTH:0.36765
G1 X139.732 Y112.778 E.02569
;WIDTH:0.366808
G1 X139.264 Y113.607 E.02564
;WIDTH:0.365567
G1 X138.736 Y114.428 E.02619
;WIDTH:0.363963
G1 X138.102 Y115.286 E.02848
;WIDTH:0.362604
G1 X137.416 Y116.103 E.02836
;WIDTH:0.361646
G1 X136.679 Y116.874 E.02827
;WIDTH:0.361095
G1 X135.933 Y117.565 E.0269
;WIDTH:0.368122
G3 X134.788 Y118.48 I-12.479 J-14.44 E.03964
;WIDTH:0.36775
G1 X134.003 Y119.017 E.02569
;WIDTH:0.366976
G1 X133.188 Y119.508 E.02564
;WIDTH:0.365799
G1 X132.342 Y119.955 E.02569
;WIDTH:0.363929
G1 X131.369 Y120.393 E.02848
;WIDTH:0.362802
G1 X130.37 Y120.767 E.02837
;WIDTH:0.361779
G1 X129.35 Y121.078 E.02827
;WIDTH:0.361161
G1 X128.335 Y121.318 E.0276
;WIDTH:0.368142
G3 X126.884 Y121.551 I-3.761 J-18.763 E.03975
;WIDTH:0.367737
G1 X125.946 Y121.632 E.02543
;WIDTH:0.367135
G1 X124.995 Y121.659 E.02565
;WIDTH:0.366026
G1 X124.044 Y121.633 E.02556
;WIDTH:0.364512
G1 X122.995 Y121.537 E.02817
;WIDTH:0.363013
G1 X121.941 Y121.374 E.02839
;WIDTH:0.361922
G1 X120.9 Y121.143 E.02828
;WIDTH:0.361238
G1 X119.875 Y120.847 E.02824
;WIDTH:0.368156
G3 X118.511 Y120.343 I5.935 J-18.14 E.03933
;WIDTH:0.367921
G1 X117.646 Y119.948 E.0257
;WIDTH:0.367282
G1 X116.804 Y119.504 E.02567
;WIDTH:0.366239
G1 X115.989 Y119.013 E.02558
;WIDTH:0.364793
G1 X115.138 Y118.426 E.02767
;WIDTH:0.363234
G1 X114.3 Y117.766 E.02841
;WIDTH:0.362076
G1 X113.506 Y117.054 E.0283
;WIDTH:0.361323
G1 X112.758 Y116.293 E.02825
;WIDTH:0.368156
G3 X111.805 Y115.169 I14.047 J-12.868 E.03986
;WIDTH:0.367989
G1 X111.246 Y114.399 E.02572
;WIDTH:0.367418
G1 X110.732 Y113.599 E.02566
;WIDTH:0.366443
G1 X110.263 Y112.771 E.0256
;WIDTH:0.365063
G1 X109.818 Y111.859 E.02718
;WIDTH:0.363466
G1 X109.412 Y110.872 E.02845
;WIDTH:0.362179
G1 X109.069 Y109.862 E.02832
;WIDTH:0.361419
G1 X108.792 Y108.832 E.02825
;WIDTH:0.368045
G3 X108.402 Y106.421 I17.127 J-4.003 E.06608
;WIDTH:0.36754
G1 X108.348 Y105.471 E.02568
;WIDTH:0.366765
G1 X108.347 Y104.52 E.02561
;WIDTH:0.365318
G1 X108.406 Y103.526 E.02669
;WIDTH:0.363708
G1 X108.536 Y102.466 E.02849
;WIDTH:0.362424
G1 X108.739 Y101.397 E.02891
;WIDTH:0.361742
G1 X108.997 Y100.385 E.02769
;WIDTH:0.368088
G3 X109.849 Y98.076 I16.885 J4.918 E.0666
;WIDTH:0.367652
G1 X110.268 Y97.222 E.02569
;WIDTH:0.36681
G1 X110.736 Y96.393 E.02564
;WIDTH:0.365631
G1 X111.278 Y95.554 E.0268
;WIDTH:0.364003
G1 X111.898 Y94.714 E.02787
;WIDTH:0.362605
G1 X112.585 Y93.896 E.0284
;WIDTH:0.361658
G1 X113.337 Y93.11 E.02883
;WIDTH:0.361377
G1 X114.067 Y92.435 E.02633
;WIDTH:0.368123
G3 X115.212 Y91.52 I12.448 J14.404 E.03964
;WIDTH:0.367994
G1 X115.997 Y90.983 E.02571
;WIDTH:0.366978
G1 X116.812 Y90.492 E.02564
;WIDTH:0.365802
G1 X117.658 Y90.045 E.02569
;WIDTH:0.36423
G1 X118.631 Y89.607 E.02851
;WIDTH:0.362804
G1 X119.63 Y89.233 E.02837
;WIDTH:0.361781
G1 X120.65 Y88.922 E.02827
;WIDTH:0.36116
G1 X121.665 Y88.682 E.0276
;WIDTH:0.368144
G3 X123.106 Y88.45 I3.769 J18.788 E.03948
;WIDTH:0.367842
G1 X124.053 Y88.368 E.02568
;WIDTH:0.36713
G1 X124.933 Y88.343 E.02373
M204 P4000
G1 X125.004 Y87.956 F18000
M204 P500
;TYPE:External perimeter
;WIDTH:0.499999
G1 F2400
G3 X127.06 Y88.078 I.014 J17.141 E.07833
G3 X132.537 Y89.707 I-2.202 J17.425 E.21814
M73 P5 R6
M73 Q4 S8
G3 X140.54 Y97.99 I-7.614 J15.364 E.44642
G3 X141.988 Y103.557 I-16.059 J7.15 E.21961
G1 X142.043 Y104.529 E.037
G3 X139.05 Y114.657 I-17.194 J.425 E.40797
G3 X133.37 Y119.853 I-14.263 J-9.888 E.29503
G3 X128.388 Y121.703 I-8.529 J-15.342 E.20276
G3 X122.94 Y121.922 I-3.397 J-16.619 E.20813
G3 X117.463 Y120.293 I2.202 J-17.424 E.21814
G3 X109.46 Y112.01 I7.614 J-15.364 E.44642
G3 X108.012 Y106.443 I16.06 J-7.15 E.21961
G3 X111.597 Y94.468 I17.064 J-1.416 E.48632
G3 X115.796 Y90.649 I13.749 J10.898 E.21667
G3 X124.944 Y87.956 I9.222 J14.448 E.36728
M204 P4000
G1 X125.344 Y87.96 F18000
G1 E-.7 F2100
G1 X135.415 Y112.492 Z.663 F18000
G1 X135.596 Y112.931 Z.671
G1 Z.2 F720
G1 E.7 F1500
M204 P500
;TYPE:Perimeter
;WIDTH:0.363764
G1 F2400
G1 X134.964 Y113.717 E.02691
;WIDTH:0.366337
G1 X134.316 Y114.402 E.02536
;WIDTH:0.36811
G1 X133.645 Y115.019 E.02465
;WIDTH:0.368998
G3 X131.69 Y116.422 I-10.086 J-11.989 E.06531
;WIDTH:0.361727
G1 X130.75 Y116.924 E.02825
;WIDTH:0.363765
G1 X129.772 Y117.349 E.02845
;WIDTH:0.366338
G1 X128.88 Y117.654 E.02535
;WIDTH:0.36811
G1 X127.999 Y117.889 E.02465
;WIDTH:0.368996
G3 X125.616 Y118.223 I-3.359 J-15.301 E.06531
;WIDTH:0.361731
G1 X124.55 Y118.23 E.02826
;WIDTH:0.363769
G1 X123.487 Y118.152 E.02844
;WIDTH:0.366339
G1 X122.554 Y118.008 E.02539
;WIDTH:0.368113
G1 X121.665 Y117.806 E.02465
;WIDTH:0.368999
G3 X119.4 Y116.994 I4.138 J-15.11 E.0653
;WIDTH:0.361729
G1 X118.453 Y116.505 E.02825
;WIDTH:0.363768
G1 X117.548 Y115.942 E.02843
;WIDTH:0.366338
G1 X116.79 Y115.381 E.02536
;WIDTH:0.36811
G1 X116.096 Y114.789 E.02467
;WIDTH:0.368999
G3 X114.468 Y113.018 I10.686 J-11.456 E.06529
;WIDTH:0.361943
G1 X113.87 Y112.165 E.02763
;WIDTH:0.363772
G1 X113.317 Y111.227 E.02905
;WIDTH:0.366338
G1 X112.905 Y110.377 E.0254
;WIDTH:0.368112
G1 X112.567 Y109.53 E.02466
;WIDTH:0.368998
G1 X112.285 Y108.663 E.02472
;WIDTH:0.369407
G3 X111.944 Y107.18 I18.992 J-5.148 E.04132
;WIDTH:0.36173
G1 X111.812 Y106.148 E.02758
;WIDTH:0.363768
G1 X111.762 Y105.083 E.02844
;WIDTH:0.366337
G1 X111.792 Y104.14 E.02537
;WIDTH:0.368112
G1 X111.885 Y103.233 E.02465
;WIDTH:0.368864
G1 X112.038 Y102.344 E.02445
;WIDTH:0.368996
G3 X112.418 Y100.887 I19.28 J4.256 E.04084
;WIDTH:0.36173
G1 X112.789 Y99.888 E.02825
;WIDTH:0.364476
G1 X113.249 Y98.904 E.02904
;WIDTH:0.36633
G1 X113.705 Y98.101 E.02483
;WIDTH:0.36811
G1 X114.209 Y97.341 E.02466
;WIDTH:0.368999
G3 X115.771 Y95.511 I12.66 J9.226 E.0653
;WIDTH:0.362496
G1 X116.585 Y94.779 E.02909
;WIDTH:0.364695
G1 X117.429 Y94.14 E.02832
;WIDTH:0.36633
G1 X118.205 Y93.642 E.0248
;WIDTH:0.368112
G1 X119.004 Y93.203 E.02465
;WIDTH:0.369
G3 X121.238 Y92.309 I6.923 J14.054 E.06531
;WIDTH:0.361731
G1 X122.271 Y92.047 E.02825
;WIDTH:0.363766
G1 X123.322 Y91.868 E.02844
;WIDTH:0.366336
G1 X124.261 Y91.785 E.02535
M73 P6 R6
;WIDTH:0.367868
G1 X125.182 Y91.768 E.02489
;WIDTH:0.369408
G3 X126.989 Y91.919 I-.487 J16.765 E.04925
;WIDTH:0.368997
