; generated by PrusaSlicer 2.9.0 on 2025-02-20 at 23:46:49 UTC


;
;

;
;

;
;

;
;

;
;
; 

; external perimeters extrusion width = 0.60mm
; perimeters extrusion width = 0.60mm
; infill extrusion width = 0.60mm
; solid infill extrusion width = 0.60mm
; top infill extrusion width = 0.60mm
; first layer extrusion width = 0.60mm

M73 P0 R4
M73 Q0 S4
M201 X4000 Y4000 Z200 E2500 ; sets maximum accelerations, mm/sec^2
M203 X300 Y300 Z40 E100 ; sets maximum feedrates, mm / sec
M204 P4000 R1200 T4000 ; sets acceleration (P, T) and retract acceleration (R), mm/sec^2
M205 X8.00 Y8.00 Z2.00 E10.00 ; sets the jerk limits, mm/sec
M205 S0 T0 ; sets the minimum extruding and travel feed rate, mm/sec

M486 S0
M486 Abookshark.stl
M486 S-1

;TYPE:Custom
M17 ; enable steppers
M862.1 P0.4 A0 F1 ; nozzle check
M862.3 P "MK4S" ; printer model check
M862.5 P2 ; g-code level check
M862.6 P"Input shaper" ; FW feature check
M115 U6.1.3+7898

M555 X66.9493 Y84.1935 W116.101 H37.6131

G90 ; use absolute coordinates
M83 ; extruder relative mode

M140 S60 ; set bed temp
M104 T0 S170 ; set extruder temp for bed leveling
M109 T0 R170 ; wait for temp

M84 E ; turn off E motor

G28 ; home all without mesh bed level

G1 X42 Y-4 Z5 F4800

M302 S160 ; lower cold extrusion limit to 160C


G1 E-2 F2400 ; retraction


M84 E ; turn off E motor

G29 P9 X10 Y-4 W32 H4

M106 S100

G0 Z40 F10000

M190 S60 ; wait for bed temp

M107

;
; MBL
;
M84 E ; turn off E motor
G29 P1 ; invalidate mbl & probe print area
G29 P1 X0 Y0 W50 H20 C ; probe near purge place
G29 P3.2 ; interpolate mbl probes
G29 P3.13 ; extrapolate mbl outside probe area
G29 A ; activate mbl

; prepare for purge
M104 S230
G0 X0 Y-4 Z15 F4800 ; move away and ready for the purge
M109 S230

G92 E0
M569 S0 E ; set spreadcycle mode for extruder

;
; Extrude purge line
;
G92 E0 ; reset extruder position
G1 E2 F2400 ; deretraction after the initial one before nozzle cleaning
G0 E7 X15 Z0.2 F500 ; purge
M73 P1 R4
G0 X25 E4 F500 ; purge
M73 P2 R4
M73 Q1 S4
G0 X35 E4 F650 ; purge
M73 Q2 S4
G0 X45 E4 F800 ; purge
G0 X48 Z0.05 F8000 ; wipe, move close to the bed
M73 P3 R4
G0 X51 Z0.2 F8000 ; wipe, move quickly away from the bed
M73 Q3 S4

G92 E0
M221 S100 ; set flow to 100%
G21 ; set units to millimeters
G90 ; use absolute coordinates
M83 ; use relative distances for extrusion
M572 S0.036 ; Filament gcode

M142 S36 ; set heatbreak target temp
M107
;LAYER_CHANGE
;Z:0.2
;HEIGHT:0.2
G1 E-.7 F2100
G1 Z.8 F720
M486 S0
G1 X164.992 Y111.948 F18000
G1 Z.2 F720
G1 E.7 F1500
M204 P500
;TYPE:External perimeter
;WIDTH:0.599999
G1 F2400
G1 X164.957 Y111.922 E.00202
G1 X164.603 Y111.539 E.02416
G1 X164.336 Y110.993 E.02815
G1 X164.251 Y110.391 E.02816
G1 X164.356 Y109.792 E.02817
G3 X164.694 Y109.187 I4.49 J2.114 E.03213
G1 X165.077 Y108.833 E.02416
G1 X165.566 Y108.592 E.02525
G1 X166.09 Y108.483 E.02479
G1 X166.447 Y108.494 E.01654
G1 X166.986 Y108.652 E.02602
G1 X167.517 Y108.999 E.02938
G1 X167.892 Y109.478 E.02818
G1 X168.101 Y110.048 E.02812
G1 X168.135 Y110.529 E.02234
G1 X168.065 Y110.981 E.02119
G1 X167.893 Y111.196 E.01275
G1 X166.512 Y111.749 E.06891
;WIDTH:0.62819
G1 X166.01 Y111.965 E.0266
;WIDTH:0.65638
G1 X165.446 Y112.197 E.03111
;WIDTH:0.654656
G1 X165.339 Y112.161 E.00574
;WIDTH:0.627328
G1 X165.232 Y112.124 E.0055
;WIDTH:0.599999
G1 X165.041 Y111.983 E.011
M204 P4000
G1 X164.757 Y111.701 F18000
G1 E-.7 F2100
M204 T4000
G1 X138.87 Y105.946 Z.663 F18000
G1 X135.036 Y105.093 Z.723
G1 X131.202 Y104.241 Z.766
G1 X123.535 Y102.536 Z.8
G1 X96.257 Y96.471
G1 Z.2 F720
G1 E.7 F1500
M204 P500
;TYPE:Perimeter
G1 F2400
G1 X96.413 Y96.628 E.01025
G1 X96.795 Y96.823 E.01987
G1 X97.228 Y96.892 E.02031
G1 X149.671 Y96.9 E2.42923
G3 X165.09 Y99.768 I-.864 J47.524 E.72981
M73 P4 R4
M73 Q4 S4
G1 X164.238 Y100.239 E.04509
G1 X163.321 Y100.615 E.04591
G3 X160.08 Y101.057 I-2.777 J-8.26 E.15242
G2 X158.913 Y101.657 I.007 J1.448 E.06308
G1 X158.705 Y102.118 E.02343
G1 X158.565 Y102.769 E.03084
G1 X158.59 Y103.161 E.01819
G1 X158.744 Y103.568 E.02016
G1 X159.052 Y103.939 E.02234
G1 X159.382 Y104.147 E.01807
G2 X161.907 Y105.012 I4.876 J-10.116 E.12393
G2 X163.601 Y105.223 I2.578 J-13.814 E.07912
G2 X166.257 Y104.995 I.358 J-11.395 E.12376
G1 X167.502 Y104.647 E.05988
G1 X168.465 Y104.252 E.04821
G2 X169.889 Y103.458 I-6.962 J-14.143 E.07556
G2 X171.144 Y102.459 I-8.697 J-12.225 E.07434
G3 X180.144 Y108.673 I-22.565 J42.307 E.50771
G3 X169.186 Y111.022 I-54.915 J-229.476 E.51917
M73 P5 R3
M73 Q5 S4
G1 X169.236 Y110.701 E.01505
G1 X169.227 Y110.045 E.03039
G2 X168.826 Y108.87 I-3.666 J.594 E.05778
G1 X168.328 Y108.23 E.03756
G1 X167.793 Y107.831 E.03091
G1 X167.341 Y107.596 E.0236
G1 X166.843 Y107.442 E.02415
G1 X166.198 Y107.367 E.03008
G1 X165.529 Y107.442 E.03118
G2 X163.668 Y108.712 I.736 J3.077 E.10671
G2 X163.161 Y110.087 I2.74 J1.79 E.06846
G2 X163.324 Y111.46 I3.298 J.304 E.06452
G1 X163.609 Y112.032 E.0296
G3 X122.385 Y115.656 I-43.34 J-256.779 E1.91894
G1 X97.23 Y115.663 E1.16521
G1 X96.858 Y115.714 E.01739
G1 X96.431 Y115.914 E.02184
G1 X96.071 Y116.281 E.02381
G1 X95.915 Y116.593 E.01616
G1 X95.836 Y117.057 E.0218
G1 X95.837 Y119.097 E.0945
G3 X86.187 Y112.338 I31.487 J-55.228 E.54652
M73 P6 R3
G3 X74.33 Y99.184 I42.694 J-50.402 E.82279
M73 Q6 S4
G3 X69.67 Y90.936 I47.723 J-32.406 E.43931
G2 X74.436 Y92.538 I15.422 J-37.993 E.23305
G1 X74.909 Y93.597 E.05372
G1 X75.123 Y93.935 E.01853
G1 X75.457 Y94.219 E.02031
G2 X76.097 Y94.419 I.814 J-1.477 E.03127
G2 X77.028 Y94.29 I.041 J-3.12 E.0437
G2 X77.578 Y93.878 I-.715 J-1.525 E.03206
G1 X77.835 Y93.375 E.02616
G1 X77.885 Y93.344 E.00273
G2 X84.114 Y94.074 I8.288 J-43.791 E.29075
G2 X85.108 Y95.516 I36.538 J-24.117 E.08113
G1 X85.474 Y95.785 E.02104
G1 X85.804 Y95.903 E.01623
G1 X86.254 Y95.928 E.02088
G1 X86.752 Y95.849 E.02336
G1 X87.162 Y95.658 E.02095
G1 X87.456 Y95.388 E.01849
G1 X87.696 Y94.956 E.02289
G1 X87.991 Y94.089 E.04242
G2 X92.621 Y93.659 I-1.631 J-42.773 E.2155
G1 X93.398 Y94.395 E.04958
G1 X93.652 Y94.529 E.0133
G1 X94.096 Y94.629 E.02108
G1 X94.581 Y94.57 E.02263
G1 X94.982 Y94.41 E.02
G1 X95.561 Y93.961 E.03394
;WIDTH:0.617548
G1 X95.827 Y93.367 E.0311
G1 X95.836 Y94.052 E.03273
;WIDTH:0.599999
G1 X95.836 Y95.499 E.06703
G1 X95.922 Y95.981 E.02268
G1 X96.096 Y96.309 E.0172
G1 X96.214 Y96.428 E.00776
M204 P4000
G1 E-.7 F2100
G1 X96.214 Y96.428 F18000
G1 X95.838 Y93.071 Z.259
G1 Z.2 F720
G1 E.7 F1500
M204 P500
;WIDTH:0.617548
G1 F2400
G1 X95.827 Y93.367 E.01415
M204 P4000
G1 E-.7 F2100
G1 X95.827 Y93.367 F18000
G1 X96.63 Y96.077 Z.249
G1 Z.2 F720
G1 E.7 F1500
M204 P500
;WIDTH:0.599999
G1 F2400
G1 X96.641 Y96.093 E.0009
G1 X96.907 Y96.27 E.0148
G1 X97.228 Y96.335 E.01517
G1 X149.681 Y96.342 E2.42969
G3 X166.253 Y99.613 I-.864 J48.005 E.78654
M73 P7 R3
M73 Q7 S4
G3 X165.399 Y100.233 I-5.632 J-6.847 E.04891
G1 X164.53 Y100.714 E.04601
G1 X164.085 Y100.904 E.02241
G3 X161.413 Y101.587 I-3.471 J-8.005 E.12829
G3 X159.868 Y101.636 I-1.53 J-24.067 E.07161
G1 X159.662 Y101.713 E.01019
G1 X159.371 Y101.974 E.01811
G1 X159.246 Y102.251 E.01408
G1 X159.12 Y102.812 E.02663
G1 X159.165 Y103.155 E.01602
G1 X159.335 Y103.44 E.01537
G1 X159.61 Y103.639 E.01572
G2 X166.111 Y104.457 I4.443 J-9.068 E.3091
G1 X167.3 Y104.127 E.05716
G1 X168.22 Y103.752 E.04602
G2 X169.555 Y103.012 I-7 J-14.192 E.07073
G1 X170.551 Y102.257 E.05789
G1 X171.045 Y101.781 E.03178
G3 X181.302 Y108.969 I-22.068 J42.407 E.58184
M73 P8 R3
G3 X167.72 Y111.866 I-58.301 J-240.071 E.64337
M73 Q8 S4
G1 X168.1 Y111.714 E.01896
G1 X168.615 Y111.067 E.03831
G1 X168.694 Y110.43 E.02973
G1 X168.628 Y109.868 E.02621
G1 X168.46 Y109.375 E.02413
G2 X167.94 Y108.629 I-3.87 J2.143 E.0422
G2 X167.177 Y108.128 I-2.647 J3.201 E.04237
G1 X166.678 Y107.974 E.02419
G1 X166.172 Y107.923 E.02356
G1 X165.607 Y107.993 E.02637
G2 X164.699 Y108.424 I1.366 J4.054 E.04667
G1 X164.246 Y108.851 E.02884
G2 X163.809 Y109.684 I3.627 J2.433 E.04366
G2 X163.698 Y110.457 I3.172 J.853 E.03626
G2 X163.83 Y111.226 I3.28 J-.169 E.03623
G2 X164.194 Y111.917 I3.068 J-1.174 E.03626
G1 X164.669 Y112.414 E.03185
G3 X122.389 Y116.213 I-44.369 J-256.623 E1.96854
G1 X97.23 Y116.22 E1.1654
G1 X96.918 Y116.28 E.01472
M73 P9 R3
G1 X96.644 Y116.459 E.01516
G1 X96.441 Y116.778 E.01751
G1 X96.393 Y117.056 E.01307
G1 X96.394 Y119.543 E.1152
G1 X96.429 Y120.064 E.02419
G3 X87.357 Y114.022 I30.45 J-55.556 E.50552
G3 X73.869 Y99.497 I41.58 J-52.135 E.92158
M73 Q9 S4
G3 X68.876 Y90.535 I48.092 J-32.667 E.47583
G1 X68.565 Y89.867 E.03413
G2 X74.838 Y92.071 I17.007 J-38.377 E.30831
G2 X75.546 Y93.573 I16.67 J-6.942 E.07694
G1 X75.746 Y93.743 E.01216
G1 X76.131 Y93.863 E.01868
G1 X76.559 Y93.837 E.01986
G1 X76.895 Y93.737 E.01624
G1 X77.129 Y93.545 E.01402
G1 X77.3 Y93.219 E.01705
G1 X77.443 Y92.684 E.02565
G2 X84.421 Y93.531 I8.643 J-42.046 E.32597
G1 X85.507 Y95.127 E.08942
G1 X85.726 Y95.288 E.01259
G1 X86.013 Y95.374 E.01388
G1 X86.486 Y95.336 E.02198
G1 X86.729 Y95.265 E.01173
G1 X86.979 Y95.087 E.01422
G1 X87.168 Y94.776 E.01686
G1 X87.587 Y93.545 E.06023
G2 X92.816 Y93.068 I-1.26 J-42.745 E.24337
G1 X93.58 Y93.826 E.04985
G2 X94.044 Y94.064 I.677 J-.748 E.02443
G1 X94.418 Y94.038 E.01737
G1 X94.768 Y93.896 E.0175
G1 X95.115 Y93.626 E.02037
G1 X95.27 Y93.269 E.01803
M73 P10 R3
G2 X95.282 Y92.62 I-6.065 J-.442 E.03008
G1 X96.393 Y92.375 E.0527
G1 X96.393 Y95.499 E.14471
G1 X96.477 Y95.865 E.01739
G1 X96.595 Y96.029 E.00936
M204 P4000
G1 X96.595 Y96.029 F18000
G1 X97.023 Y95.673
M204 P500
;TYPE:External perimeter
G1 F2400
G1 X97.042 Y95.706 E.00176
G1 X97.229 Y95.778 E.00928
G1 X149.691 Y95.785 E2.43011
G3 X167.295 Y99.424 I-.898 J48.747 E.83747
M73 Q10 S3
G3 X165.692 Y100.708 I-6.666 J-6.679 E.09533
G1 X164.799 Y101.202 E.04727
G3 X163.607 Y101.692 I-10.441 J-23.676 E.0597
G3 X162.184 Y102.048 I-3.486 J-10.928 E.06799
G3 X159.994 Y102.178 I-1.832 J-12.313 E.10175
G1 X159.829 Y102.291 E.00926
G1 X159.683 Y102.811 E.02502
G1 X159.699 Y102.992 E.00842
G1 X159.839 Y103.131 E.00914
G2 X164.458 Y104.107 I4.233 J-8.618 E.22095
M73 P11 R3
G2 X165.961 Y103.92 I-1.018 J-14.348 E.07019
G1 X167.098 Y103.608 E.05461
G2 X168.54 Y102.974 I-4.917 J-13.137 E.073
G1 X169.221 Y102.566 E.03677
G1 X170.165 Y101.856 E.05471
G1 X170.945 Y101.104 E.05019
G3 X182.442 Y109.269 I-22.047 J43.222 E.65551
G3 X166.759 Y112.614 I-62.97 J-256.799 E.74291
M73 Q11 S3
;WIDTH:0.62819
G1 X166.218 Y112.696 E.02663
;WIDTH:0.65638
G1 X165.553 Y112.8 E.03433
;WIDTH:0.654656
G1 X165.16 Y112.883 E.02043
;WIDTH:0.627328
G1 X164.767 Y112.967 E.01953
;WIDTH:0.599999
G3 X122.394 Y116.77 I-44.517 J-258.041 E1.97284
G1 X97.23 Y116.778 E1.16563
G1 X97.154 Y116.788 E.00355
M73 P12 R3
G1 X96.997 Y116.901 E.00896
G1 X96.95 Y117.056 E.0075
G1 X96.951 Y118.933 E.08695
G2 X97.018 Y120.472 I13.474 J.185 E.07139
G1 X97.131 Y120.879 E.01957
G1 X97.1 Y121.058 E.00841
G3 X87.008 Y114.456 I29.869 J-56.676 E.55945
G3 X73.408 Y99.809 I41.929 J-52.57 E.92928
M73 Q12 S3
G3 X68.107 Y90.191 I49.586 J-33.596 E.50942
G1 X67.689 Y89.424 E.04046
G1 X67.498 Y88.761 E.03196
G1 X68.176 Y89.003 E.03335
G2 X69.477 Y89.661 I5.133 J-8.543 E.06759
G2 X75.239 Y91.603 I16.822 J-40.38 E.28188
G2 X75.978 Y93.22 I35.443 J-15.215 E.08236
G1 X76.164 Y93.307 E.00951
G1 X76.627 Y93.249 E.02161
G1 X76.761 Y93.079 E.01003
G1 X77.04 Y92.031 E.05024
G2 X84.727 Y92.987 I9.144 J-42.133 E.3593
G1 X85.905 Y94.738 E.09776
G1 X86.074 Y94.82 E.0087
G1 X86.514 Y94.75 E.02064
G1 X86.641 Y94.597 E.00921
G1 X87.184 Y93.001 E.07809
G2 X93.011 Y92.477 I-.982 J-43.574 E.27121
M73 P13 R3
G1 X93.978 Y93.436 E.06308
G1 X94.158 Y93.517 E.00914
G1 X94.554 Y93.382 E.01938
G1 X94.67 Y93.292 E.0068
G1 X94.725 Y93.125 E.00814
G1 X94.725 Y92.168 E.04433
G2 X96.95 Y91.665 I-8.678 J-43.557 E.10568
G1 X96.956 Y95.557 E.18028
G1 X96.993 Y95.621 E.00342
M204 P4000
G1 X97.365 Y95.768 F18000
G1 E-.7 F2100
G1 X123.698 Y98.905 Z.663 F18000
G1 X127.598 Y99.37 Z.723
G1 X131.497 Y99.835 Z.766
G1 X139.297 Y100.764 Z.8
G1 X174.988 Y105.017
G1 Z.2 F720
M73 Q13 S3
G1 E.7 F1500
M204 P500
;TYPE:Solid infill
;WIDTH:0.602573
G1 F2400
G1 X178.541 Y108.569 E.23379
G1 X177.896 Y108.716 E.03078
G1 X173.613 Y104.433 E.28187
G2 X171.679 Y103.291 I-23.388 J37.382 E.10453
G1 X177.248 Y108.859 E.36647
G1 X176.6 Y109.003 E.03089
G1 X170.892 Y103.295 E.37565
G1 X170.437 Y103.631 E.02632
G1 X175.952 Y109.146 E.36295
G1 X175.304 Y109.29 E.03089
G1 X169.978 Y103.964 E.35051
G1 X169.482 Y104.26 E.02688
M73 P14 R3
G1 X174.656 Y109.433 E.34047
G1 X174.003 Y109.572 E.03107
G1 X168.965 Y104.534 E.33156
G1 X168.428 Y104.788 E.02764
G1 X173.346 Y109.706 E.32366
G1 X172.689 Y109.841 E.03121
G1 X167.857 Y105.009 E.318
G3 X167.266 Y105.21 I-1.502 J-3.453 E.02908
M73 Q14 S3
G1 X172.032 Y109.976 E.31365
G1 X171.376 Y110.111 E.03117
G1 X166.645 Y105.38 E.31135
G3 X165.994 Y105.52 I-1.216 J-4.042 E.03102
G1 X170.719 Y110.245 E.31096
G1 X170.057 Y110.375 E.03139
G1 X169.39 Y109.708 E.0439
M204 P4000
G1 E-.7 F2100
G1 X169.39 Y109.708 F18000
G1 X166.912 Y107.23 Z.261
G1 Z.2 F720
G1 E.7 F1500
M204 P500
G1 F2400
G1 X165.311 Y105.629 E.10536
G1 X164.58 Y105.69 E.03414
G1 X165.811 Y106.92 E.08098
G1 X165.274 Y107.01 E.02534
G1 X165.153 Y107.054 E.00599
G1 X163.796 Y105.696 E.08934
G3 X162.947 Y105.639 I.066 J-7.318 E.03962
M73 P15 R3
G1 X164.598 Y107.29 E.10865
G2 X164.1 Y107.584 I.907 J2.104 E.02698
G1 X162.027 Y105.511 E.13643
G3 X160.997 Y105.272 I1.385 J-8.319 E.04924
G1 X163.862 Y108.137 E.18855
M204 P4000
G1 E-.7 F2100
G1 X163.862 Y108.137 F18000
G1 X163.812 Y100.173 Z.339
G1 Z.2 F720
G1 E.7 F1500
M204 P500
G1 F2400
G1 X163.29 Y99.651 E.03435
G1 X162.138 Y99.29 E.05618
G1 X163.05 Y100.202 E.06002
G3 X162.432 Y100.375 I-1.994 J-5.928 E.02988
G1 X161.04 Y98.983 E.09161
G1 X159.977 Y98.712 E.05105
G1 X161.768 Y100.503 E.11787
G3 X161.05 Y100.577 I-.942 J-5.62 E.03361
M73 Q15 S3
G1 X158.941 Y98.467 E.13883
G1 X157.949 Y98.267 E.04709
G1 X160.268 Y100.586 E.15262
G2 X159.632 Y100.631 I-.069 J3.575 E.02971
G1 X159.552 Y100.661 E.00398
G1 X156.968 Y98.077 E.17006
G1 X156.024 Y97.925 E.0445
G1 X159.016 Y100.916 E.19687
G2 X158.602 Y101.295 I.754 J1.239 E.02629
G1 X155.099 Y97.792 E.23054
G2 X154.196 Y97.68 I-2.366 J15.382 E.04235
G1 X158.316 Y101.799 E.27111
G2 X158.145 Y102.42 I4.235 J1.499 E.03
G1 X153.309 Y97.584 E.31826
G1 X152.445 Y97.512 E.04035
M73 P16 R3
G1 X158.113 Y103.18 E.37302
G2 X159.182 Y104.577 I1.849 J-.308 E.08521
G1 X159.77 Y104.836 E.0299
G1 X163.319 Y108.386 E.2336
G2 X163.028 Y108.886 I4.719 J3.083 E.02693
G1 X151.593 Y97.451 E.75255
G1 X150.763 Y97.412 E.03867
G1 X162.805 Y109.455 E.79253
G1 X162.694 Y110.01 E.02634
M73 Q16 S3
G1 X162.689 Y110.13 E.00559
G1 X149.942 Y97.383 E.83889
G1 X149.14 Y97.373 E.03732
G1 X162.719 Y110.951 E.89361
G2 X162.901 Y111.672 I2.256 J-.187 E.03476
M73 P17 R3
G1 X162.684 Y111.708 E.01024
G1 X148.349 Y97.373 E.9434
G1 X147.557 Y97.373 E.03686
G1 X162.002 Y111.817 E.95061
G1 X161.318 Y111.925 E.03222
M73 Q17 S3
G1 X146.766 Y97.372 E.95771
G1 X145.974 Y97.372 E.03686
G1 X160.634 Y112.032 E.96479
G1 X159.95 Y112.139 E.03222
M73 P18 R3
G1 X145.182 Y97.372 E.97186
G1 X144.391 Y97.372 E.03681
G1 X159.266 Y112.247 E.97894
G1 X158.581 Y112.354 E.03226
G1 X143.599 Y97.372 E.98598
G1 X142.807 Y97.372 E.03686
M73 Q18 S3
G1 X157.889 Y112.453 E.99253
G1 X157.195 Y112.551 E.03262
M73 P19 R3
G1 X142.016 Y97.371 E.99898
G1 X141.224 Y97.371 E.03686
G1 X156.501 Y112.648 E1.00539
G1 X155.808 Y112.746 E.03257
G1 X140.432 Y97.371 E1.01188
G1 X139.641 Y97.371 E.03681
M73 Q19 S3
G1 X155.114 Y112.844 E1.01829
G1 X154.419 Y112.94 E.03265
M73 P20 R3
G1 X138.849 Y97.371 E1.02464
G1 X138.057 Y97.37 E.03686
G1 X153.715 Y113.028 E1.03047
G1 X153.012 Y113.116 E.03297
G1 X137.266 Y97.37 E1.03626
G1 X136.474 Y97.37 E.03686
M73 Q20 S3
G1 X152.309 Y113.205 E1.04212
G1 X151.605 Y113.293 E.03302
M73 P21 R3
G1 X135.682 Y97.37 E1.04791
G1 X134.891 Y97.37 E.03681
G1 X150.902 Y113.381 E1.0537
G1 X150.195 Y113.465 E.03313
G1 X134.099 Y97.37 E1.05926
G1 X133.308 Y97.369 E.03681
M73 Q21 S3
G1 X149.484 Y113.546 E1.06459
G1 X148.773 Y113.626 E.0333
M73 P22 R3
G1 X132.516 Y97.369 E1.06989
